assets/configs/ColorAnd3dLutPreset/lutDefault/60_VLog_709_Style/Data/VLog 709 Style.CUBE
#Created by: Adobe Photoshop Export Color Lookup Plugin
#Copyright: (C) Copyright 2024 Wondershare Andy Zhang
TITLE "VLog 709 Style"
#LUT size
LUT_3D_SIZE 4
#data domain
#LUT data points
DOMAIN_MIN 0.000000 0.000000 0.000000
DOMAIN_MAX 0.818182 0.818182 0.818182
0.012268 0.012268 0.012268
0.206757 0.000000 0.000000
0.839844 0.000000 0.000000
1.000000 0.000000 0.000000
0.000000 0.227753 0.044708
0.168732 0.163208 0.010193
0.806000 0.015656 0.000000
1.000000 0.000000 0.000000
0.000000 0.902283 0.140442
0.060730 0.848969 0.093201
0.709015 0.688110 0.009613
1.000000 0.555725 0.000000
0.000000 1.000000 0.216736
0.013794 1.000000 0.174652
0.633331 1.000000 0.061890
0.989655 0.968933 0.009857
0.008942 0.013519 0.166901
0.204987 0.000000 0.128143
0.838470 0.000000 0.034393
1.000000 0.000000 0.000000
0.000000 0.231903 0.207245
0.166779 0.166779 0.166779
0.804565 0.013641 0.065186
1.000000 0.000000 0.011475
0.000000 0.905487 0.325806
0.059418 0.852448 0.277039
0.708435 0.692932 0.144714
1.000000 0.559113 0.080078
0.000000 1.000000 0.418762
0.012970 1.000000 0.368683
0.626892 1.000000 0.216339
0.990967 0.974060 0.144409
0.005585 0.021820 0.702057
0.200409 0.000000 0.660553
0.834625 0.000000 0.540558
1.000000 0.000000 0.444611
0.000000 0.243103 0.742035
0.140137 0.157562 0.703339
0.800507 0.018768 0.587250
1.000000 0.000000 0.496552
0.000000 0.913910 0.841705
0.056152 0.861450 0.805878
0.702789 0.702789 0.702789
1.000000 0.558716 0.611389
0.000000 1.000000 0.906189
0.011047 1.000000 0.873169
0.601501 1.000000 0.764343
0.988464 0.981140 0.684662
0.003845 0.028320 0.985291
0.197296 0.000000 0.957886
0.831757 0.000000 0.873474
1.000000 0.000000 0.806549
0.000000 0.251251 1.000000
0.136841 0.166077 0.985474
0.797516 0.023376 0.906677
1.000000 0.000000 0.842651
0.000000 0.919891 1.000000
0.053589 0.867737 1.000000
0.680817 0.692535 0.986237
1.000000 0.554596 0.928375
0.000000 1.000000 1.000000
0.009705 1.000000 1.000000
0.597656 1.000000 1.000000
0.986084 0.986084 0.986084
