assets/configs/ColorAnd3dLutPreset/lutDefault/60_VLog_709_Style/Data/VLog 709 Style.CUBE
#Created by: Adobe Photoshop Export Color Lookup Plugin
#Copyright: (C) Copyright 2024 Wondershare Andy Zhang
TITLE "VLog 709 Style"
#LUT size
LUT_3D_SIZE 12
#data domain
DOMAIN_MIN 0.0 0.0 0.0
DOMAIN_MAX 1.0 1.0 1.0
#LUT data points
0.012268 0.012268 0.012268
0.043182 0.003296 0.006592
0.097717 0.000000 0.000122
0.206757 0.000000 0.000000
0.393250 0.000000 0.000000
0.635529 0.000000 0.000000
0.839844 0.000000 0.000000
0.978394 0.000000 0.000000
1.000000 0.000000 0.000000
1.000000 0.000000 0.000000
1.000000 0.000000 0.000000
1.000000 0.000000 0.000000
0.006714 0.046143 0.017853
0.037720 0.036896 0.012085
0.091766 0.021576 0.002838
0.199585 0.000793 0.000000
0.384705 0.000000 0.000000
0.628052 0.000000 0.000000
0.833954 0.000000 0.000000
0.974701 0.000000 0.000000
1.000000 0.000000 0.000000
1.000000 0.000000 0.000000
1.000000 0.000000 0.000000
1.000000 0.000000 0.000000
0.000183 0.106293 0.027405
0.027374 0.096405 0.020416
0.081940 0.079773 0.011627
0.188385 0.050934 0.000122
0.371216 0.011597 0.000000
0.615845 0.000000 0.000000
0.823944 0.000000 0.000000
0.968445 0.000000 0.000000
1.000000 0.000000 0.000000
1.000000 0.000000 0.000000
1.000000 0.000000 0.000000
1.000000 0.000000 0.000000
0.000000 0.227753 0.044708
0.009766 0.215973 0.036194
0.061249 0.197113 0.023499
0.168732 0.163208 0.010193
0.347168 0.116608 0.000000
0.593628 0.064117 0.000000
0.806000 0.015656 0.000000
0.956940 0.000031 0.000000
1.000000 0.000000 0.000000
1.000000 0.000000 0.000000
1.000000 0.000000 0.000000
1.000000 0.000000 0.000000
0.000000 0.437927 0.070648
0.000000 0.423431 0.064514
0.030579 0.400330 0.046661
0.138062 0.359467 0.027985
0.313416 0.302032 0.009277
0.560364 0.236420 0.000000
0.779114 0.172699 0.000000
0.939087 0.119202 0.000000
0.999451 0.081696 0.000000
1.000000 0.061707 0.000000
1.000000 0.056061 0.000000
1.000000 0.054779 0.000000
0.000000 0.692352 0.103943
0.000000 0.680786 0.097382
0.008942 0.661194 0.085388
0.099060 0.625610 0.055359
0.272064 0.570892 0.032410
0.518250 0.499359 0.009399
0.745453 0.419434 0.000000
0.911652 0.350952 0.000000
0.992554 0.302246 0.000000
1.000000 0.276184 0.000000
1.000000 0.268585 0.000000
1.000000 0.267120 0.000000
0.000000 0.902283 0.140442
0.000000 0.892975 0.133606
0.000000 0.877441 0.122528
0.060730 0.848969 0.093201
0.229126 0.805634 0.061890
0.471008 0.749908 0.033783
0.709015 0.688110 0.009613
0.881500 0.629028 0.000000
0.980896 0.582764 0.000000
1.000000 0.555725 0.000000
1.000000 0.547791 0.000000
1.000000 0.546082 0.000000
0.000000 0.996063 0.174866
0.000000 0.993927 0.167725
0.000000 0.990326 0.156189
0.035675 0.981476 0.131897
0.189911 0.963959 0.089996
0.426819 0.927399 0.060333
0.674866 0.877319 0.031097
0.853119 0.828918 0.009705
0.963074 0.791199 0.000000
0.999756 0.769501 0.000000
1.000000 0.762848 0.000000
1.000000 0.761505 0.000000
0.000000 1.000000 0.201447
0.000000 1.000000 0.194122
0.000000 1.000000 0.182281
0.019745 1.000000 0.159515
0.159027 1.000000 0.112000
0.394318 0.998718 0.081116
0.648285 0.983002 0.050507
0.831390 0.953857 0.025482
0.944946 0.922363 0.009705
0.994202 0.903931 0.001373
1.000000 0.898346 0.000458
1.000000 0.897217 0.000275
0.000000 1.000000 0.216736
0.000000 1.000000 0.209290
0.000000 1.000000 0.197052
0.013794 1.000000 0.174652
0.140900 1.000000 0.124573
0.376343 1.000000 0.093048
0.633331 1.000000 0.061890
0.818970 0.999115 0.035217
0.934509 0.984406 0.018616
0.989655 0.968933 0.009857
1.000000 0.964203 0.007294
1.000000 0.963257 0.006897
0.000000 1.000000 0.221222
0.000000 1.000000 0.213715
0.000000 1.000000 0.201569
0.012024 1.000000 0.179230
0.135162 1.000000 0.128265
0.371124 1.000000 0.096588
0.628845 1.000000 0.065277
0.815247 1.000000 0.038422
0.931366 0.999329 0.021179
0.987122 0.987579 0.012482
1.000000 0.983215 0.009857
1.000000 0.982330 0.009247
0.000000 1.000000 0.222229
0.000000 1.000000 0.214722
0.000000 1.000000 0.202362
0.011688 1.000000 0.180023
0.134125 1.000000 0.129089
0.369995 1.000000 0.097351
0.627930 1.000000 0.065979
0.814423 1.000000 0.039093
0.930603 0.999939 0.021759
0.986694 0.990906 0.013031
1.000000 0.986572 0.010315
1.000000 0.985687 0.009857
0.011719 0.012482 0.037354
0.042969 0.003815 0.031433
0.097504 0.000000 0.021973
0.206482 0.000000 0.005402
0.392761 0.000000 0.000000
0.635254 0.000000 0.000000
0.839691 0.000000 0.000000
0.978333 0.000000 0.000000
1.000000 0.000000 0.000000
1.000000 0.000000 0.000000
1.000000 0.000000 0.000000
1.000000 0.000000 0.000000
0.006470 0.046753 0.043365
0.037384 0.037384 0.037384
0.091766 0.021484 0.027069
0.199402 0.000732 0.010742
0.384399 0.000000 0.000000
0.627869 0.000000 0.000000
0.833710 0.000000 0.000000
0.974457 0.000000 0.000000
1.000000 0.000000 0.000000
1.000000 0.000000 0.000000
1.000000 0.000000 0.000000
1.000000 0.000000 0.000000
0.000183 0.106934 0.053040
0.026733 0.097168 0.046173
0.081970 0.080566 0.036194
0.188446 0.049225 0.017059
0.370697 0.011993 0.000549
0.615509 0.000000 0.000000
0.823730 0.000000 0.000000
0.968292 0.000000 0.000000
1.000000 0.000000 0.000000
1.000000 0.000000 0.000000
1.000000 0.000000 0.000000
1.000000 0.000000 0.000000
0.000000 0.228485 0.071198
0.009583 0.216736 0.063507
0.057465 0.198425 0.046692
0.169067 0.164398 0.031860
0.346893 0.116211 0.009766
0.593353 0.064758 0.000000
0.805634 0.016113 0.000000
0.956940 0.000031 0.000000
1.000000 0.000000 0.000000
1.000000 0.000000 0.000000
1.000000 0.000000 0.000000
1.000000 0.000000 0.000000
0.000000 0.438812 0.098297
0.000000 0.424347 0.091797
0.030426 0.401215 0.076111
0.135437 0.360718 0.051147
0.313507 0.303192 0.028503
0.560120 0.236908 0.005890
0.778839 0.173279 0.000000
0.938904 0.119873 0.000000
1.000000 0.082336 0.000000
1.000000 0.062317 0.000000
1.000000 0.056671 0.000000
1.000000 0.055389 0.000000
0.000000 0.693115 0.132965
0.000000 0.681580 0.126190
0.008728 0.661957 0.114105
0.093079 0.626587 0.080078
0.270660 0.571930 0.055969
0.517883 0.500397 0.028412
0.745270 0.420258 0.005157
0.911377 0.351807 0.000000
1.000000 0.303101 0.000000
1.000000 0.277008 0.000000
1.000000 0.269440 0.000000
1.000000 0.267853 0.000000
0.000000 0.902863 0.170898
0.000000 0.893555 0.163788
0.000000 0.878021 0.152283
0.060516 0.849670 0.124603
0.226410 0.806396 0.086823
0.470032 0.750549 0.057373
0.708771 0.688904 0.028503
0.881226 0.629730 0.007355
0.987762 0.583527 0.000000
1.000000 0.556610 0.000000
1.000000 0.548676 0.000000
1.000000 0.546936 0.000000
0.000000 0.996185 0.206696
0.000000 0.993988 0.199310
0.000000 0.990448 0.187286
0.035400 0.983917 0.163055
0.185242 0.971039 0.116241
0.425507 0.928925 0.085205
0.674255 0.879059 0.054321
0.853027 0.830597 0.028656
0.965424 0.792908 0.012848
1.000000 0.771301 0.004578
1.000000 0.764771 0.002350
1.000000 0.763397 0.002075
0.000000 1.000000 0.234314
0.000000 1.000000 0.226715
0.000000 1.000000 0.214264
0.019562 1.000000 0.191254
0.152161 1.000000 0.139160
0.392487 1.000000 0.106964
0.647705 0.993256 0.074951
0.830963 0.957275 0.047668
0.947449 0.926056 0.028656
0.999298 0.907684 0.019928
1.000000 0.902252 0.017365
1.000000 0.901093 0.016754
0.000000 1.000000 0.250122
0.000000 1.000000 0.242371
0.000000 1.000000 0.229706
0.013580 1.000000 0.206726
0.136993 1.000000 0.156677
0.374298 1.000000 0.119385
0.632629 1.000000 0.086670
0.818604 1.000000 0.058960
0.937042 0.987183 0.039062
0.991699 0.971954 0.028748
1.000000 0.967285 0.026031
1.000000 0.966309 0.025543
0.000000 1.000000 0.254791
0.000000 1.000000 0.247009
0.000000 1.000000 0.234406
0.011902 1.000000 0.211456
0.133423 1.000000 0.162415
0.368896 1.000000 0.123077
0.628082 1.000000 0.090271
0.814758 1.000000 0.062164
0.933960 0.999512 0.042236
0.989166 0.988586 0.031586
1.000000 0.984192 0.028748
1.000000 0.983215 0.028198
0.000000 1.000000 0.255859
0.000000 1.000000 0.248016
0.000000 1.000000 0.235260
0.011597 1.000000 0.212280
0.132599 1.000000 0.163696
0.367737 1.000000 0.123901
0.627075 1.000000 0.091125
0.814056 1.000000 0.062988
0.933228 1.000000 0.042908
0.988586 0.991882 0.032349
1.000000 0.987579 0.029236
1.000000 0.986633 0.028748
0.010895 0.013031 0.081146
0.042480 0.004517 0.074829
0.097076 0.000000 0.064636
0.205780 0.000000 0.046814
0.392090 0.000000 0.021851
0.634674 0.000000 0.000488
0.839264 0.000000 0.000000
0.978088 0.000000 0.000000
1.000000 0.000000 0.000000
1.000000 0.000000 0.000000
1.000000 0.000000 0.000000
1.000000 0.000000 0.000000
0.005920 0.047546 0.087433
0.035828 0.037262 0.081390
0.091217 0.022217 0.070801
0.198914 0.000824 0.052673
0.383820 0.000000 0.027588
0.627380 0.000000 0.002045
0.833313 0.000000 0.000000
0.974182 0.000000 0.000000
1.000000 0.000000 0.000000
1.000000 0.000000 0.000000
1.000000 0.000000 0.000000
1.000000 0.000000 0.000000
0.000122 0.108002 0.097961
0.026337 0.098236 0.091797
0.081146 0.081146 0.081146
0.188538 0.047211 0.058655
0.370300 0.009827 0.034180
0.615021 0.000000 0.008301
0.823273 0.000000 0.000000
0.968140 0.000000 0.000000
1.000000 0.000000 0.000000
1.000000 0.000000 0.000000
1.000000 0.000000 0.000000
1.000000 0.000000 0.000000
0.000000 0.229767 0.117310
0.009277 0.217926 0.110107
0.055359 0.199860 0.095795
0.169373 0.166290 0.074921
0.346985 0.114014 0.044769
0.592926 0.061737 0.018311
0.805206 0.016571 0.000671
0.956543 0.000031 0.000000
1.000000 0.000000 0.000000
1.000000 0.000000 0.000000
1.000000 0.000000 0.000000
1.000000 0.000000 0.000000
0.000000 0.440308 0.146301
0.000000 0.425873 0.139465
0.030090 0.402679 0.125092
0.128754 0.363129 0.093170
0.313812 0.305328 0.068207
0.559723 0.236603 0.038727
0.778473 0.173279 0.013428
0.938568 0.120972 0.000000
1.000000 0.083344 0.000000
1.000000 0.063354 0.000000
1.000000 0.057617 0.000000
1.000000 0.056427 0.000000
0.000000 0.694336 0.183197
0.000000 0.682770 0.175964
0.008484 0.663147 0.163513
0.089722 0.627991 0.132050
0.267456 0.573792 0.097504
0.517761 0.502289 0.067322
0.744934 0.421112 0.037384
0.910950 0.352753 0.014771
1.000000 0.304352 0.002380
1.000000 0.278320 0.000000
1.000000 0.270691 0.000000
1.000000 0.269104 0.000000
0.000000 0.903809 0.223663
0.000000 0.894562 0.216156
0.000000 0.878967 0.203796
0.060150 0.850677 0.177216
0.220032 0.807739 0.130585
0.468414 0.751923 0.098724
0.708527 0.690277 0.067139
0.880890 0.630707 0.040253
0.987366 0.584534 0.022644
1.000000 0.557800 0.013916
1.000000 0.549866 0.011871
1.000000 0.548126 0.011444
0.000000 0.996429 0.261597
0.000000 0.994202 0.253784
0.000000 0.990662 0.240967
0.035034 0.984253 0.216431
0.174347 0.971832 0.162018
0.422546 0.929993 0.128571
0.673370 0.880127 0.095490
0.852570 0.831726 0.067200
0.965088 0.793823 0.046936
1.000000 0.772247 0.036224
1.000000 0.765717 0.033081
1.000000 0.764282 0.032440
0.000000 1.000000 0.291077
0.000000 1.000000 0.282990
0.000000 1.000000 0.269745
0.019257 1.000000 0.245636
0.148834 1.000000 0.196259
0.388458 1.000000 0.151978
0.646240 0.993744 0.117554
0.830322 0.958130 0.088196
0.947235 0.926941 0.067291
0.999054 0.908569 0.056030
1.000000 0.903137 0.052612
1.000000 0.901947 0.051971
0.000000 1.000000 0.307831
0.000000 1.000000 0.299591
0.000000 1.000000 0.286133
0.013397 1.000000 0.262024
0.136566 1.000000 0.215607
0.369568 1.000000 0.165375
0.631104 1.000000 0.130157
0.817657 1.000000 0.100281
0.936707 0.987915 0.078918
0.991425 0.972656 0.067322
1.000000 0.968048 0.063965
1.000000 0.967072 0.063232
0.000000 1.000000 0.312714
0.000000 1.000000 0.304474
0.000000 1.000000 0.290924
0.011688 1.000000 0.266846
0.132996 1.000000 0.221161
0.363953 1.000000 0.169403
0.626465 1.000000 0.134125
0.813965 1.000000 0.103851
0.933533 0.999695 0.082336
0.988922 0.989319 0.070801
1.000000 0.984863 0.067322
1.000000 0.983917 0.066711
0.000000 1.000000 0.313873
0.000000 1.000000 0.305542
0.000000 1.000000 0.291992
0.011383 1.000000 0.267914
0.132172 1.000000 0.222412
0.362793 1.000000 0.170227
0.625488 1.000000 0.134735
0.813293 1.000000 0.104675
0.932770 1.000000 0.083130
0.988312 0.992676 0.071381
1.000000 0.988312 0.068054
1.000000 0.987366 0.067322
0.008942 0.013519 0.166901
0.040955 0.005402 0.159729
0.096191 0.000000 0.147980
0.204987 0.000000 0.128143
0.391174 0.000000 0.099915
0.633728 0.000000 0.067139
0.838470 0.000000 0.034393
0.977539 0.000000 0.009766
1.000000 0.000000 0.000000
1.000000 0.000000 0.000000
1.000000 0.000000 0.000000
1.000000 0.000000 0.000000
0.004639 0.048767 0.173889
0.030914 0.035156 0.167450
0.089417 0.021515 0.155701
0.197968 0.001038 0.134888
0.382751 0.000000 0.106445
0.626343 0.000000 0.073273
0.832458 0.000000 0.040375
0.973816 0.000000 0.013947
1.000000 0.000000 0.000580
1.000000 0.000000 0.000000
1.000000 0.000000 0.000000
1.000000 0.000000 0.000000
0.000031 0.109833 0.185699
0.022675 0.098541 0.179108
0.074188 0.077179 0.168274
0.187927 0.047852 0.146088
0.369232 0.011139 0.116119
0.614075 0.000000 0.083679
0.822510 0.000000 0.050201
0.967621 0.000000 0.021545
1.000000 0.000000 0.006683
1.000000 0.000000 0.000000
1.000000 0.000000 0.000000
1.000000 0.000000 0.000000
0.000000 0.231903 0.207245
0.008667 0.220154 0.200012
0.054413 0.201965 0.188995
0.166779 0.166779 0.166779
0.347137 0.109009 0.127960
0.592133 0.055084 0.094330
0.804565 0.013641 0.065186
0.956055 0.000031 0.038605
1.000000 0.000000 0.019531
1.000000 0.000000 0.011475
1.000000 0.000000 0.009186
1.000000 0.000000 0.008636
0.000000 0.443024 0.239838
0.000000 0.428436 0.232147
0.029388 0.405212 0.218445
0.121674 0.366455 0.189301
0.315033 0.309784 0.151367
0.559601 0.234009 0.114532
0.777893 0.168884 0.079712
0.937836 0.116211 0.051636
1.000000 0.079346 0.032196
1.000000 0.059906 0.022919
1.000000 0.054230 0.020508
1.000000 0.053101 0.020050
0.000000 0.696503 0.280975
0.000000 0.684692 0.272888
0.008087 0.665314 0.259399
0.089050 0.630280 0.231079
0.256927 0.577637 0.180847
0.518280 0.506104 0.146118
0.744507 0.421631 0.111633
0.910370 0.352631 0.081482
0.999939 0.304199 0.060547
1.000000 0.278320 0.049194
1.000000 0.270691 0.045929
1.000000 0.269104 0.045349
0.000000 0.905487 0.325806
0.000000 0.896301 0.317413
0.000000 0.880798 0.303741
0.059418 0.852448 0.277039
0.203400 0.810211 0.220825
0.463806 0.754730 0.180786
0.708435 0.692932 0.144714
0.880280 0.632111 0.114502
0.986847 0.585815 0.092102
1.000000 0.559113 0.080078
1.000000 0.551208 0.076599
1.000000 0.549561 0.075806
0.000000 0.996704 0.367859
0.000000 0.994629 0.359192
0.000000 0.991058 0.345001
0.034332 0.984589 0.318909
0.170807 0.973083 0.269714
0.414093 0.931885 0.214661
0.671112 0.882202 0.176788
0.852234 0.833801 0.144440
0.964569 0.795166 0.121338
1.000000 0.773438 0.109100
1.000000 0.767059 0.105469
1.000000 0.765717 0.104767
0.000000 1.000000 0.400299
0.000000 1.000000 0.391357
0.000000 1.000000 0.376801
0.018768 1.000000 0.350708
0.148041 1.000000 0.304962
0.377350 1.000000 0.241211
0.642731 0.994720 0.201813
0.828979 0.959747 0.168304
0.946594 0.928589 0.144379
0.998657 0.909973 0.131409
1.000000 0.904449 0.127625
1.000000 0.903259 0.126892
0.000000 1.000000 0.418762
0.000000 1.000000 0.409668
0.000000 1.000000 0.394928
0.012970 1.000000 0.368683
0.135742 1.000000 0.324127
0.356567 1.000000 0.256622
0.626892 1.000000 0.216339
0.815948 1.000000 0.182129
0.935699 0.989319 0.157532
0.990967 0.974060 0.144409
1.000000 0.969330 0.140503
1.000000 0.968292 0.139771
0.000000 1.000000 0.424408
0.000000 1.000000 0.415283
0.000000 1.000000 0.400299
0.011261 1.000000 0.373962
0.132233 1.000000 0.329834
0.350464 1.000000 0.261169
0.622223 1.000000 0.220642
0.812164 1.000000 0.186157
0.932434 1.000000 0.161621
0.988312 0.990723 0.148224
1.000000 0.986176 0.144409
1.000000 0.985260 0.143585
0.000000 1.000000 0.425446
0.000000 1.000000 0.416321
0.000000 1.000000 0.401520
0.010925 1.000000 0.375153
0.131500 1.000000 0.330872
0.349091 1.000000 0.262177
0.621155 1.000000 0.221588
0.811401 1.000000 0.187073
0.931885 1.000000 0.162354
0.987823 0.993927 0.149139
1.000000 0.989563 0.145233
1.000000 0.988647 0.144409
0.007477 0.015228 0.309570
0.038879 0.006592 0.301270
0.095184 0.000000 0.287750
0.203644 0.000000 0.264343
0.389496 0.000000 0.231171
0.632355 0.000000 0.192352
0.837433 0.000000 0.153595
0.976898 0.000000 0.120331
1.000000 0.000000 0.096344
1.000000 0.000000 0.083435
1.000000 0.000000 0.079620
1.000000 0.000000 0.078827
0.003510 0.050995 0.317749
0.026611 0.034607 0.309998
0.086090 0.020721 0.296448
0.196716 0.001251 0.272339
0.381256 0.000000 0.238983
0.624908 0.000000 0.199707
0.831299 0.000000 0.160614
0.973083 0.000000 0.127014
1.000000 0.000000 0.102844
1.000000 0.000000 0.089783
1.000000 0.000000 0.086029
1.000000 0.000000 0.085083
0.000000 0.112701 0.331512
0.019867 0.099854 0.323608
0.066345 0.073730 0.311096
0.183960 0.045715 0.286774
0.367767 0.012970 0.251434
0.612701 0.000000 0.212006
0.821411 0.000000 0.172363
0.966766 0.000000 0.138245
1.000000 0.000000 0.113739
1.000000 0.000000 0.100464
1.000000 0.000000 0.096558
1.000000 0.000000 0.095795
0.000000 0.235138 0.356842
0.007782 0.222809 0.348389
0.050201 0.201782 0.335205
0.149811 0.155151 0.313416
0.345978 0.109406 0.274445
0.590820 0.057404 0.231384
0.803314 0.014984 0.192535
0.955322 0.000031 0.158600
1.000000 0.000000 0.133423
1.000000 0.000000 0.119781
1.000000 0.000000 0.115753
1.000000 0.000000 0.115082
0.000000 0.446960 0.394379
0.000000 0.432312 0.385529
0.028656 0.409027 0.371246
0.120392 0.370026 0.347473
0.309784 0.309784 0.309784
0.559662 0.227966 0.254608
0.777344 0.158264 0.210083
0.937134 0.107269 0.177887
1.000000 0.072784 0.155487
1.000000 0.054626 0.143066
1.000000 0.049347 0.139465
1.000000 0.048370 0.138702
0.000000 0.699585 0.442017
0.000000 0.687866 0.432800
0.007568 0.668488 0.417603
0.088013 0.633545 0.389374
0.243927 0.582336 0.340424
0.519470 0.512451 0.287415
0.744354 0.419800 0.244202
0.909760 0.347015 0.203552
0.999695 0.297241 0.176880
1.000000 0.271027 0.162964
1.000000 0.263428 0.158813
1.000000 0.261810 0.158051
0.000000 0.907928 0.492859
0.000000 0.898712 0.483765
0.000000 0.883301 0.468445
0.058533 0.855103 0.439697
0.202118 0.812988 0.391022
0.450836 0.759399 0.324432
0.708923 0.697662 0.280182
0.879883 0.632843 0.245728
0.986084 0.585419 0.216461
1.000000 0.558655 0.201355
1.000000 0.550690 0.197052
1.000000 0.548981 0.196136
0.000000 0.997284 0.536499
0.000000 0.995239 0.527832
0.000000 0.991638 0.513428
0.033508 0.985199 0.486237
0.169617 0.974670 0.439514
0.392761 0.934753 0.363739
0.665558 0.885651 0.317413
0.852142 0.837280 0.277924
0.963959 0.796234 0.249756
1.000000 0.774200 0.235687
1.000000 0.767761 0.231476
1.000000 0.766418 0.230530
0.000000 1.000000 0.567657
0.000000 1.000000 0.559235
0.000000 1.000000 0.545380
0.018219 1.000000 0.519562
0.147003 1.000000 0.476318
0.356964 1.000000 0.402252
0.634216 0.996033 0.347504
0.825775 0.962311 0.306519
0.946167 0.931061 0.277191
0.998108 0.911377 0.261078
1.000000 0.905823 0.256409
1.000000 0.904694 0.255463
0.000000 1.000000 0.584595
0.000000 1.000000 0.576385
0.000000 1.000000 0.562683
0.012421 1.000000 0.537567
0.134674 1.000000 0.496094
0.340271 1.000000 0.425690
0.617371 1.000000 0.365326
0.811829 1.000000 0.323029
0.934052 0.991302 0.293091
0.990204 0.976044 0.276886
1.000000 0.971039 0.272217
1.000000 0.970001 0.271271
0.000000 1.000000 0.589478
0.000000 1.000000 0.581299
0.000000 1.000000 0.567657
0.010712 1.000000 0.542847
0.131195 1.000000 0.501709
0.335327 1.000000 0.432831
0.612335 1.000000 0.370789
0.807892 1.000000 0.328125
0.930603 1.000000 0.297943
0.987579 0.992615 0.281647
1.000000 0.988037 0.277008
1.000000 0.987030 0.275909
0.000000 1.000000 0.590607
0.000000 1.000000 0.582397
0.000000 1.000000 0.568695
0.010284 1.000000 0.543793
0.130280 1.000000 0.502991
0.334320 1.000000 0.434265
0.611298 1.000000 0.372009
0.807220 1.000000 0.329285
0.929840 1.000000 0.298950
0.986755 0.995789 0.282623
1.000000 0.991425 0.277893
1.000000 0.990509 0.277008
0.006592 0.018463 0.511932
0.036774 0.008636 0.503021
0.093719 0.000214 0.488037
0.202118 0.000000 0.460724
0.387695 0.000000 0.421112
0.630646 0.000000 0.374634
0.835999 0.000000 0.327850
0.975983 0.000000 0.287445
1.000000 0.000000 0.258392
1.000000 0.000000 0.242523
1.000000 0.000000 0.238037
1.000000 0.000000 0.236938
0.002563 0.054352 0.520752
0.025482 0.037872 0.512115
0.083923 0.022766 0.497406
0.195099 0.002838 0.470154
0.379333 0.000000 0.430359
0.623352 0.000000 0.383453
0.829987 0.000000 0.336304
0.972290 0.000000 0.295715
1.000000 0.000000 0.266327
1.000000 0.000000 0.250488
1.000000 0.000000 0.245728
1.000000 0.000000 0.244781
0.000000 0.116180 0.535217
0.018799 0.103027 0.526703
0.063965 0.076752 0.512695
0.180603 0.047760 0.486053
0.365753 0.015137 0.445831
0.610931 0.000000 0.398254
0.819916 0.000000 0.350433
0.965942 0.000000 0.309235
1.000000 0.000000 0.279541
1.000000 0.000000 0.263306
1.000000 0.000000 0.258636
1.000000 0.000000 0.257660
0.000000 0.239014 0.560394
0.006927 0.226562 0.551971
0.048401 0.204437 0.538239
0.143158 0.154327 0.514252
0.340057 0.108612 0.475006
0.589050 0.059998 0.424225
0.802032 0.016510 0.375610
0.954437 0.000031 0.333954
1.000000 0.000000 0.303467
1.000000 0.000000 0.286926
1.000000 0.000000 0.282104
1.000000 0.000000 0.281036
0.000000 0.451782 0.595734
0.000000 0.436951 0.587616
0.027527 0.412811 0.574310
0.116882 0.369171 0.550812
0.285492 0.292755 0.517334
0.558289 0.227112 0.463623
0.775818 0.161346 0.408661
0.935760 0.110229 0.366272
1.000000 0.075745 0.336151
1.000000 0.057587 0.319916
1.000000 0.052185 0.315063
1.000000 0.051056 0.314117
0.000000 0.703400 0.637238
0.000000 0.691681 0.629425
0.006897 0.672394 0.616394
0.086700 0.637543 0.593262
0.242096 0.586548 0.559845
0.512634 0.512634 0.512634
0.743835 0.419647 0.451508
0.909088 0.339172 0.398376
0.999512 0.287354 0.365112
1.000000 0.261078 0.348267
1.000000 0.253662 0.343506
1.000000 0.252045 0.342407
0.000000 0.910950 0.678802
0.000000 0.901611 0.671387
0.000000 0.886292 0.658905
0.057312 0.858124 0.635895
0.200470 0.816223 0.599335
0.436890 0.764099 0.545197
0.709503 0.703247 0.492004
0.879395 0.634216 0.451538
0.985260 0.583862 0.411774
1.000000 0.556152 0.391907
1.000000 0.547791 0.386139
1.000000 0.546051 0.385040
0.000000 0.997986 0.714783
0.000000 0.995850 0.707550
0.000000 0.992371 0.695679
0.032440 0.985931 0.673706
0.168091 0.976044 0.638336
0.386810 0.937714 0.585083
0.655945 0.889893 0.527588
0.852417 0.841858 0.483429
0.963104 0.796661 0.452179
1.000000 0.774597 0.435944
1.000000 0.768188 0.430664
1.000000 0.766846 0.429504
0.000000 1.000000 0.740906
0.000000 1.000000 0.733887
0.000000 1.000000 0.722229
0.017548 1.000000 0.700897
0.145508 1.000000 0.667236
0.355103 1.000000 0.616638
0.621307 0.997528 0.556671
0.820618 0.965332 0.513550
0.945648 0.934418 0.480286
0.997284 0.912170 0.459869
1.000000 0.906494 0.454193
1.000000 0.905334 0.452972
0.000000 1.000000 0.755127
0.000000 1.000000 0.748169
0.000000 1.000000 0.736603
0.011841 1.000000 0.715790
0.133301 1.000000 0.682922
0.338409 1.000000 0.634277
0.604065 1.000000 0.574432
0.805481 1.000000 0.531189
0.931061 0.993713 0.498108
0.989441 0.978455 0.479309
1.000000 0.972870 0.473541
1.000000 0.971832 0.472351
0.000000 1.000000 0.759277
0.000000 1.000000 0.752350
0.000000 1.000000 0.740875
0.010010 1.000000 0.720062
0.129700 1.000000 0.687500
0.333588 1.000000 0.639404
0.598938 1.000000 0.579742
0.801544 1.000000 0.536530
0.927399 1.000000 0.503479
0.986176 0.994904 0.484894
1.000000 0.990112 0.479095
1.000000 0.989166 0.478027
0.000000 1.000000 0.760193
0.000000 1.000000 0.753296
0.000000 1.000000 0.741730
0.009613 1.000000 0.721008
0.129028 1.000000 0.688477
0.332489 1.000000 0.640411
0.598053 1.000000 0.580750
0.800568 1.000000 0.537720
0.926697 1.000000 0.504639
0.985474 0.997986 0.486023
0.999939 0.993530 0.480377
1.000000 0.992615 0.479095
0.005585 0.021820 0.702057
0.034637 0.010986 0.694794
0.092163 0.000641 0.682526
0.200409 0.000000 0.660553
0.385620 0.000000 0.627747
0.628998 0.000000 0.586029
0.834625 0.000000 0.540558
0.975128 0.000000 0.497162
1.000000 0.000000 0.463531
1.000000 0.000000 0.444611
1.000000 0.000000 0.438995
1.000000 0.000000 0.437897
0.001709 0.057922 0.709259
0.024414 0.041718 0.702148
0.081909 0.024963 0.690094
0.193207 0.005157 0.668152
