assets/configs/ColorAnd3dLutPreset/lutDefault/60_VLog_709_Style/Data/VLog 709 Style.CUBE
#Created by: Adobe Photoshop Export Color Lookup Plugin
#Copyright: (C) Copyright 2024 Wondershare Andy Zhang
TITLE "VLog 709 Style"
#LUT size
LUT_3D_SIZE 6
#data domain
#LUT data points
DOMAIN_MIN 0.000000 0.000000 0.000000
DOMAIN_MAX 0.909091 0.909091 0.909091
0.012268 0.012268 0.012268
0.097717 0.000000 0.000122
0.393250 0.000000 0.000000
0.839844 0.000000 0.000000
1.000000 0.000000 0.000000
1.000000 0.000000 0.000000
0.000183 0.106293 0.027405
0.081940 0.079773 0.011627
0.371216 0.011597 0.000000
0.823944 0.000000 0.000000
1.000000 0.000000 0.000000
1.000000 0.000000 0.000000
0.000000 0.437927 0.070648
0.030579 0.400330 0.046661
0.313416 0.302032 0.009277
0.779114 0.172699 0.000000
0.999451 0.081696 0.000000
1.000000 0.056061 0.000000
0.000000 0.902283 0.140442
0.000000 0.877441 0.122528
0.229126 0.805634 0.061890
0.709015 0.688110 0.009613
0.980896 0.582764 0.000000
1.000000 0.547791 0.000000
0.000000 1.000000 0.201447
0.000000 1.000000 0.182281
0.159027 1.000000 0.112000
0.648285 0.983002 0.050507
0.944946 0.922363 0.009705
1.000000 0.898346 0.000458
0.000000 1.000000 0.221222
0.000000 1.000000 0.201569
0.135162 1.000000 0.128265
0.628845 1.000000 0.065277
0.931366 0.999329 0.021179
1.000000 0.983215 0.009857
0.010895 0.013031 0.081146
0.097076 0.000000 0.064636
0.392090 0.000000 0.021851
0.839264 0.000000 0.000000
1.000000 0.000000 0.000000
1.000000 0.000000 0.000000
0.000122 0.108002 0.097961
0.081146 0.081146 0.081146
0.370300 0.009827 0.034180
0.823273 0.000000 0.000000
1.000000 0.000000 0.000000
1.000000 0.000000 0.000000
0.000000 0.440308 0.146301
0.030090 0.402679 0.125092
0.313812 0.305328 0.068207
0.778473 0.173279 0.013428
1.000000 0.083344 0.000000
1.000000 0.057617 0.000000
0.000000 0.903809 0.223663
0.000000 0.878967 0.203796
0.220032 0.807739 0.130585
0.708527 0.690277 0.067139
0.987366 0.584534 0.022644
1.000000 0.549866 0.011871
0.000000 1.000000 0.291077
0.000000 1.000000 0.269745
0.148834 1.000000 0.196259
0.646240 0.993744 0.117554
0.947235 0.926941 0.067291
1.000000 0.903137 0.052612
0.000000 1.000000 0.312714
0.000000 1.000000 0.290924
0.132996 1.000000 0.221161
0.626465 1.000000 0.134125
0.933533 0.999695 0.082336
1.000000 0.984863 0.067322
0.007477 0.015228 0.309570
0.095184 0.000000 0.287750
0.389496 0.000000 0.231171
0.837433 0.000000 0.153595
1.000000 0.000000 0.096344
1.000000 0.000000 0.079620
0.000000 0.112701 0.331512
0.066345 0.073730 0.311096
0.367767 0.012970 0.251434
0.821411 0.000000 0.172363
1.000000 0.000000 0.113739
1.000000 0.000000 0.096558
0.000000 0.446960 0.394379
0.028656 0.409027 0.371246
0.309784 0.309784 0.309784
0.777344 0.158264 0.210083
1.000000 0.072784 0.155487
1.000000 0.049347 0.139465
0.000000 0.907928 0.492859
0.000000 0.883301 0.468445
0.202118 0.812988 0.391022
0.708923 0.697662 0.280182
0.986084 0.585419 0.216461
1.000000 0.550690 0.197052
0.000000 1.000000 0.567657
0.000000 1.000000 0.545380
0.147003 1.000000 0.476318
0.634216 0.996033 0.347504
0.946167 0.931061 0.277191
1.000000 0.905823 0.256409
0.000000 1.000000 0.589478
0.000000 1.000000 0.567657
0.131195 1.000000 0.501709
0.612335 1.000000 0.370789
0.930603 1.000000 0.297943
1.000000 0.988037 0.277008
0.005585 0.021820 0.702057
0.092163 0.000641 0.682526
0.385620 0.000000 0.627747
0.834625 0.000000 0.540558
1.000000 0.000000 0.463531
1.000000 0.000000 0.438995
0.000000 0.119720 0.721252
0.062378 0.080627 0.702362
0.363373 0.017426 0.648499
0.818573 0.000000 0.563110
1.000000 0.000000 0.488281
1.000000 0.000000 0.463837
0.000000 0.456848 0.771667
0.026489 0.417389 0.753571
0.276184 0.290710 0.705322
0.774475 0.163788 0.620422
1.000000 0.078766 0.550659
1.000000 0.055145 0.528381
0.000000 0.913910 0.841705
0.000000 0.889465 0.824982
0.198914 0.819763 0.777710
0.702789 0.702789 0.702789
0.984192 0.587585 0.628906
1.000000 0.550049 0.606323
0.000000 1.000000 0.894287
0.000000 1.000000 0.878540
0.144165 1.000000 0.832886
0.617584 0.998291 0.749329
0.944794 0.937775 0.686615
1.000000 0.908173 0.662933
0.000000 1.000000 0.909760
0.000000 1.000000 0.894348
0.128387 1.000000 0.849823
0.596436 1.000000 0.768677
0.925476 1.000000 0.705078
0.999634 0.992554 0.684204
0.004120 0.027191 0.940369
0.089478 0.003540 0.925720
0.382477 0.000000 0.884125
0.832367 0.000000 0.817841
1.000000 0.000000 0.760681
1.000000 0.000000 0.742493
0.000000 0.125366 0.954590
0.060394 0.087067 0.940399
0.359985 0.021057 0.899933
0.816284 0.000000 0.834900
1.000000 0.000000 0.778778
1.000000 0.000000 0.760925
0.000000 0.464783 0.988464
0.024963 0.425110 0.977692
0.270111 0.296082 0.941254
0.770355 0.167877 0.880127
1.000000 0.083527 0.826080
1.000000 0.059753 0.809082
0.000000 0.918762 1.000000
0.000000 0.894592 1.000000
0.195831 0.822357 0.991516
0.683411 0.692902 0.942596
0.982880 0.583252 0.888458
1.000000 0.547089 0.871490
0.000000 1.000000 1.000000
0.000000 1.000000 1.000000
0.141846 1.000000 1.000000
0.614655 0.998840 0.983704
0.941315 0.941315 0.941315
1.000000 0.917725 0.926422
0.000000 1.000000 1.000000
0.000000 1.000000 1.000000
0.126160 1.000000 1.000000
0.593597 1.000000 0.994781
0.926178 1.000000 0.954376
0.998230 0.996704 0.940369
0.003723 0.028748 0.996979
0.088562 0.004730 0.985138
0.381683 0.000000 0.949127
0.831665 0.000000 0.889191
1.000000 0.000000 0.836578
1.000000 0.000000 0.819855
0.000000 0.127014 1.000000
0.059692 0.089020 0.996979
0.359131 0.022186 0.963104
0.815613 0.000000 0.904816
1.000000 0.000000 0.853271
1.000000 0.000000 0.836884
0.000000 0.467133 1.000000
0.024414 0.427460 1.000000
0.268982 0.298340 0.997223
0.768890 0.169312 0.945435
1.000000 0.084991 0.896942
1.000000 0.061157 0.881256
0.000000 0.920258 1.000000
0.000000 0.896057 1.000000
0.194916 0.824066 1.000000
0.680115 0.692505 0.997528
0.982391 0.582031 0.955566
1.000000 0.546204 0.939728
0.000000 1.000000 1.000000
0.000000 1.000000 1.000000
0.141144 1.000000 1.000000
0.613739 0.998932 1.000000
0.939728 0.941772 0.997772
1.000000 0.918121 0.985687
0.000000 1.000000 1.000000
0.000000 1.000000 1.000000
0.125427 1.000000 1.000000
0.592499 1.000000 1.000000
0.925507 1.000000 1.000000
0.997772 0.997772 0.997772
