assets/configs/ColorAnd3dLutPreset/CubeLUTFiles/Cyberpunk 2.CUBE
#Created by: Adobe Photoshop Export Color Lookup Plugin
#Copyright: (C) Copyright 2020 Wondershare Inc.
TITLE "Cyberpunk 2"
#LUT size
LUT_3D_SIZE 5
#data domain
#LUT data points
DOMAIN_MIN 0.000000 0.000000 0.000000
DOMAIN_MAX 0.903226 0.903226 0.903226
0.096161 0.096161 0.096161
0.115906 0.096161 0.101318
0.238373 0.096161 0.114441
0.496613 0.096161 0.134247
0.847778 0.096161 0.158661
0.098022 0.126923 0.096161
0.117004 0.099335 0.096161
0.244751 0.096161 0.096161
0.502075 0.096161 0.096161
0.848022 0.096161 0.096161
0.109192 0.276978 0.096161
0.233490 0.243622 0.096161
0.248474 0.112030 0.096161
0.522705 0.096161 0.096161
0.872528 0.096161 0.096161
0.140991 0.542664 0.096161
0.385468 0.534424 0.096161
0.505371 0.330688 0.096161
0.522583 0.138397 0.096161
0.898590 0.096161 0.096161
0.206573 0.874268 0.096161
0.538666 0.865143 0.096161
0.845581 0.759583 0.096161
0.874359 0.430420 0.096161
0.891266 0.181519 0.096161
0.096161 0.107391 0.164856
0.096161 0.096344 0.166901
0.170410 0.096161 0.367706
0.502563 0.096161 0.443573
0.850677 0.096161 0.406616
0.096161 0.127350 0.126923
0.111481 0.124756 0.163025
0.243042 0.120300 0.207092
0.505737 0.111633 0.253662
0.858795 0.098969 0.303192
0.096161 0.278809 0.096161
0.146179 0.279022 0.134735
0.243317 0.167358 0.148682
0.515320 0.120941 0.141144
0.865417 0.098724 0.129486
0.096161 0.546082 0.096161
0.218811 0.543365 0.101807
0.492401 0.492798 0.098694
0.517609 0.226074 0.124451
0.888916 0.129242 0.112305
0.096161 0.878632 0.096161
0.327637 0.872223 0.096161
0.709290 0.860352 0.096161
0.861023 0.607849 0.096161
0.884460 0.301758 0.098328
0.096161 0.161591 0.371063
0.096161 0.111786 0.376587
0.096161 0.097107 0.378723
0.118378 0.096161 0.657776
0.551025 0.096161 0.938843
0.096161 0.264801 0.360779
0.103180 0.209442 0.367462
0.109192 0.132538 0.375214
0.378174 0.112671 0.642731
0.866150 0.097656 0.722534
0.096161 0.278809 0.223846
0.098785 0.279572 0.289154
0.221222 0.267853 0.358734
0.505737 0.256897 0.423492
0.863312 0.236664 0.483398
0.096161 0.546448 0.116852
0.096161 0.547028 0.131622
0.330658 0.542053 0.298798
0.504150 0.364502 0.327576
0.873871 0.266602 0.313293
0.096161 0.880066 0.096161
0.096588 0.878967 0.096161
0.471985 0.869720 0.223602
0.843414 0.807983 0.211365
0.873688 0.463257 0.280029
0.096161 0.278687 0.647003
0.096161 0.145050 0.657501
0.096161 0.135132 0.658325
0.096161 0.098572 0.661957
0.100616 0.096161 0.969147
0.096161 0.481171 0.629181
0.096283 0.354584 0.641113
0.101776 0.225006 0.651672
0.107849 0.143799 0.658051
0.240234 0.115906 0.960571
0.096161 0.546265 0.615723
0.096161 0.525787 0.625244
0.191254 0.437286 0.633179
0.209503 0.284882 0.646332
0.698730 0.230347 0.934418
0.096161 0.546448 0.369537
0.096161 0.547028 0.449860
0.178345 0.546478 0.534729
0.476532 0.527679 0.613251
0.856689 0.514160 0.683624
0.096161 0.880066 0.234802
0.096161 0.879791 0.270447
0.123932 0.878143 0.293457
0.645447 0.864594 0.539642
0.856903 0.653839 0.572571
0.096161 0.447571 0.946930
0.096161 0.213867 0.961853
0.096161 0.188812 0.963257
0.096161 0.172821 0.964142
0.096161 0.100891 0.968872
0.096161 0.750092 0.922058
0.096161 0.543304 0.939423
0.096619 0.317810 0.955322
0.097504 0.294098 0.956787
0.106598 0.157440 0.964722
0.096161 0.834564 0.913788
0.096161 0.803345 0.916534
0.159149 0.641937 0.929443
0.184540 0.457428 0.943970
0.202698 0.308533 0.954041
0.096161 0.880066 0.863403
0.096161 0.879395 0.901398
0.127106 0.853668 0.909485
0.430634 0.746033 0.913361
0.456055 0.549805 0.930328
0.096161 0.880066 0.540039
0.096161 0.879791 0.629150
0.123566 0.878174 0.716522
0.412933 0.871948 0.803833
0.834320 0.854156 0.885040
