assets/configs/ColorAnd3dLutPreset/CubeLUTFiles/Cyberpunk 2.CUBE
#Created by: Adobe Photoshop Export Color Lookup Plugin
#Copyright: (C) Copyright 2020 Wondershare Inc.
TITLE "Cyberpunk 2"
#LUT size
LUT_3D_SIZE 8
#data domain
#LUT data points
DOMAIN_MIN 0.000000 0.000000 0.000000
DOMAIN_MAX 0.903226 0.903226 0.903226
0.096161 0.096161 0.096161
0.100555 0.096161 0.098022
0.124908 0.096161 0.102722
0.188324 0.096161 0.109955
0.299896 0.096161 0.119507
0.452942 0.096161 0.131073
0.638550 0.096161 0.144287
0.847778 0.096161 0.158661
0.096619 0.103790 0.096161
0.100647 0.097046 0.096161
0.126160 0.096161 0.096161
0.189911 0.096161 0.096161
0.300079 0.096161 0.096161
0.452942 0.096161 0.096283
0.638550 0.096161 0.096497
0.847778 0.096161 0.097382
0.098846 0.139526 0.096161
0.122864 0.131195 0.096161
0.126587 0.100433 0.096161
0.195465 0.096161 0.096161
0.308502 0.096161 0.096161
0.461578 0.096161 0.096161
0.645538 0.096161 0.096161
0.850922 0.096161 0.096161
0.104462 0.219940 0.096161
0.156036 0.217407 0.096161
0.188873 0.154572 0.096161
0.194824 0.107178 0.096161
0.317444 0.096222 0.096161
0.473206 0.096161 0.096161
0.658051 0.096161 0.096161
0.866180 0.096161 0.096161
0.115601 0.343475 0.096161
0.195557 0.340210 0.096161
0.294586 0.299591 0.096161
0.306702 0.184875 0.096161
0.314056 0.117981 0.096161
0.480835 0.096954 0.096161
0.671722 0.096161 0.096161
0.881104 0.096161 0.096161
0.134644 0.499603 0.096161
0.246948 0.495789 0.096161
0.409760 0.489227 0.096161
0.455750 0.354034 0.096161
0.468292 0.221527 0.096161
0.476410 0.133606 0.096161
0.677216 0.100128 0.096161
0.895630 0.096161 0.096161
0.164368 0.679352 0.096161
0.309723 0.675079 0.096161
0.498352 0.668854 0.096161
0.634338 0.588165 0.096161
0.651367 0.412201 0.096161
0.663757 0.263702 0.096161
0.672150 0.154724 0.096161
0.896576 0.106232 0.096161
0.206573 0.874268 0.096161
0.382660 0.869751 0.096161
0.593903 0.863342 0.096161
0.821869 0.849915 0.096161
0.855164 0.660217 0.096161
0.871063 0.473724 0.096161
0.882965 0.310364 0.096161
0.891266 0.181519 0.096161
0.096161 0.099121 0.117523
0.096161 0.096222 0.118164
0.111389 0.096161 0.185822
0.189911 0.096161 0.217438
0.300934 0.096161 0.205383
0.453003 0.096161 0.219391
0.638550 0.096161 0.245453
0.847778 0.096161 0.272247
0.096161 0.103912 0.106201
0.099457 0.103333 0.116913
0.125214 0.102295 0.131561
0.190979 0.100739 0.148041
0.304230 0.098358 0.167297
0.458466 0.096313 0.188934
0.644958 0.096161 0.211945
0.854492 0.096161 0.235596
0.096161 0.140076 0.096191
0.105469 0.140289 0.110779
0.125122 0.113312 0.113953
0.193451 0.103180 0.112976
0.306610 0.098389 0.111359
0.458679 0.096313 0.114014
0.644958 0.096161 0.122772
0.854492 0.096161 0.132904
0.096161 0.221039 0.096161
0.117737 0.221344 0.101746
0.184326 0.204773 0.101013
0.193420 0.127655 0.108643
0.315033 0.105865 0.106232
0.469452 0.098572 0.103302
0.654907 0.096161 0.099304
0.862091 0.096161 0.096619
0.096161 0.345154 0.096161
0.139160 0.344543 0.096283
0.247894 0.340302 0.096191
0.302704 0.245148 0.096527
0.312500 0.147614 0.101898
0.480347 0.109711 0.099213
0.668274 0.098694 0.096527
0.875580 0.096161 0.096191
0.096161 0.501831 0.096161
0.171661 0.500000 0.096161
0.311279 0.495209 0.096161
0.448059 0.445251 0.096161
0.463562 0.291016 0.096161
0.474213 0.174164 0.096466
0.676147 0.120819 0.096222
0.889801 0.099060 0.096161
0.096436 0.681976 0.096161
0.216553 0.678833 0.096161
0.385101 0.673737 0.096161
0.589172 0.665710 0.096161
0.643585 0.508881 0.096161
0.658539 0.341888 0.096161
0.669250 0.207062 0.096161
0.894653 0.137207 0.096161
0.099060 0.877197 0.096161
0.273254 0.873016 0.096161
0.468536 0.867737 0.096161
0.692444 0.860382 0.096161
0.844696 0.773041 0.096161
0.863190 0.575836 0.096161
0.877319 0.396942 0.096161
0.887634 0.245483 0.096161
0.096161 0.111816 0.187164
0.096161 0.100189 0.188995
0.096161 0.096436 0.189850
0.101196 0.096161 0.306335
0.204773 0.096161 0.441254
0.457062 0.096161 0.550171
0.646149 0.096161 0.531494
0.853821 0.096161 0.507477
0.096161 0.136505 0.184021
0.097534 0.122589 0.186310
0.098785 0.105011 0.188782
0.155731 0.100616 0.300842
0.306305 0.097839 0.341339
0.459778 0.096283 0.323456
0.645020 0.096161 0.340668
0.854492 0.096161 0.372650
0.096161 0.140076 0.136627
0.096741 0.139923 0.158417
0.118927 0.136566 0.184479
0.188721 0.133118 0.213318
0.306335 0.130096 0.240021
0.462341 0.124420 0.268250
0.649902 0.116699 0.297516
0.859955 0.107452 0.327148
0.096161 0.221252 0.106415
0.096161 0.221771 0.111542
0.140564 0.221100 0.168701
0.188751 0.163666 0.175568
0.309296 0.138397 0.173523
0.465118 0.124908 0.169861
0.650055 0.117035 0.176422
0.859924 0.107635 0.195129
0.096161 0.345825 0.096161
0.096313 0.346710 0.096497
0.172455 0.345551 0.145111
0.294495 0.321838 0.143127
0.307587 0.196259 0.163940
0.474701 0.148224 0.158600
0.662018 0.129822 0.152313
0.870544 0.112213 0.144012
0.096161 0.502991 0.096161
0.098755 0.502869 0.096161
0.218994 0.500824 0.122162
0.385315 0.494965 0.116302
0.458099 0.374390 0.127716
0.470245 0.233124 0.147766
0.673981 0.159485 0.140930
0.884399 0.134399 0.131836
0.096161 0.683563 0.096161
0.109039 0.682190 0.096161
0.277374 0.678894 0.100037
0.468018 0.672729 0.097260
0.634674 0.615448 0.097260
0.652283 0.431824 0.113251
0.665344 0.275238 0.129364
0.892181 0.185669 0.121979
0.096161 0.879059 0.096161
0.128906 0.876648 0.096161
0.346649 0.871918 0.096161
0.559387 0.865692 0.096161
0.794922 0.856476 0.096161
0.854309 0.684662 0.096161
0.870758 0.492767 0.097961
0.883270 0.322266 0.110077
0.096161 0.139954 0.302155
0.096161 0.108032 0.306122
0.096161 0.105743 0.306427
0.096161 0.096832 0.308014
0.097321 0.096161 0.455261
0.160126 0.096161 0.609222
0.412415 0.096161 0.767578
0.806488 0.096161 0.917450
0.096161 0.199554 0.295776
0.096222 0.160431 0.300476
0.097260 0.126312 0.304321
0.098480 0.107574 0.306732
0.124695 0.101135 0.451965
0.325775 0.097260 0.601074
0.649353 0.096161 0.715515
0.862793 0.096161 0.693756
0.096161 0.221130 0.290344
0.096161 0.214020 0.294830
0.112976 0.184845 0.298645
0.116791 0.141235 0.303314
0.246155 0.127716 0.442871
0.465302 0.121460 0.487610
0.651611 0.115631 0.463654
0.860077 0.107117 0.481384
0.096161 0.221252 0.189728
0.096161 0.221771 0.221771
0.110321 0.220367 0.257355
0.174591 0.212830 0.293945
0.301056 0.206543 0.331482
0.462372 0.201660 0.363220
0.651917 0.192078 0.396088
0.863037 0.179169 0.429138
0.096161 0.345825 0.146698
0.096161 0.346252 0.159088
0.100372 0.347046 0.170074
0.221619 0.343689 0.268860
0.300323 0.259613 0.278931
0.465607 0.217773 0.275940
0.655029 0.193695 0.270142
0.863129 0.180359 0.278839
0.096161 0.503082 0.096893
0.096161 0.503357 0.097778
0.108124 0.504150 0.129181
0.278229 0.500366 0.232391
0.447113 0.471130 0.229095
0.462524 0.308777 0.261993
0.665161 0.236969 0.254456
0.875641 0.206329 0.244904
0.096161 0.683990 0.096161
0.096161 0.684143 0.096161
0.136200 0.683014 0.103302
0.348206 0.678436 0.195221
0.559845 0.671143 0.184845
0.644897 0.532074 0.204834
0.658905 0.359406 0.238098
0.887817 0.256775 0.227814
0.096161 0.880005 0.096161
0.096161 0.879272 0.096161
0.173065 0.876312 0.096161
0.427917 0.870605 0.153687
0.657074 0.863342 0.142365
0.843811 0.800873 0.141235
0.862640 0.598083 0.182251
0.877411 0.413086 0.209259
0.096161 0.188751 0.445313
0.096161 0.124023 0.451630
0.096161 0.118011 0.452301
0.096161 0.114288 0.452728
0.096161 0.097443 0.455048
0.096710 0.096161 0.619659
0.128418 0.096161 0.787750
0.330231 0.096161 0.950104
0.096161 0.294495 0.435425
0.096161 0.219940 0.442902
0.096344 0.150146 0.449402
0.096497 0.143738 0.450012
0.098206 0.110657 0.453583
0.108551 0.101440 0.618652
0.253632 0.098450 0.779907
0.594666 0.096161 0.939636
0.096161 0.327606 0.432190
0.096161 0.315186 0.433807
0.106689 0.254425 0.440430
0.111694 0.191589 0.446289
0.115540 0.147675 0.450378
0.183655 0.128296 0.612915
0.486481 0.118744 0.768646
0.864960 0.103790 0.884491
0.096161 0.345825 0.407593
0.096161 0.345428 0.427032
0.100708 0.335083 0.432617
0.161255 0.291931 0.436646
0.168976 0.220398 0.443359
0.381866 0.194366 0.598755
0.656677 0.184448 0.644897
0.865021 0.176239 0.615021
0.096161 0.345825 0.261841
0.096161 0.346252 0.300995
0.100159 0.346985 0.343384
0.156525 0.343597 0.386566
0.280426 0.332428 0.428040
0.456207 0.324585 0.470032
0.649567 0.318207 0.503906
0.862762 0.305664 0.539398
0.096161 0.503082 0.205444
0.096161 0.503357 0.237671
0.096161 0.503998 0.254883
0.135895 0.503967 0.269287
0.352142 0.496979 0.395050
0.452972 0.394226 0.408081
0.653320 0.339966 0.404572
0.866302 0.308136 0.397095
0.096161 0.683990 0.119293
0.096161 0.684113 0.129761
0.096161 0.684265 0.138245
0.164185 0.683411 0.207031
0.430603 0.676514 0.351654
0.633026 0.643250 0.347137
0.649658 0.455048 0.387329
0.876648 0.366943 0.378967
0.096161 0.880066 0.096161
0.096161 0.879974 0.096161
0.096161 0.879425 0.096527
0.228607 0.875854 0.162170
0.518646 0.868622 0.305695
0.761566 0.860291 0.292297
0.853424 0.709808 0.318268
0.869446 0.515869 0.358612
0.096161 0.258423 0.605316
0.096161 0.161682 0.613098
0.096161 0.137451 0.615143
0.096161 0.132172 0.615662
0.096161 0.120178 0.616760
0.096161 0.098328 0.619202
0.096405 0.096161 0.793365
0.109711 0.096161 0.966766
0.096161 0.394897 0.593445
0.096161 0.298828 0.602142
0.096161 0.187805 0.611206
0.096161 0.174622 0.612274
0.096191 0.165833 0.613007
0.097931 0.114258 0.617584
0.105133 0.101563 0.792480
0.193359 0.099487 0.962250
0.096161 0.455994 0.587646
0.096161 0.440125 0.589386
0.100006 0.341705 0.598907
0.107788 0.235870 0.607788
0.108704 0.224548 0.608704
0.114471 0.155243 0.614319
0.145111 0.128815 0.789551
0.390442 0.121613 0.951843
0.096161 0.495697 0.583588
0.096161 0.480896 0.585419
0.096252 0.465210 0.587402
0.148163 0.386993 0.594849
0.157837 0.300323 0.602478
0.165375 0.230682 0.608215
0.289185 0.194214 0.779968
0.678375 0.177917 0.936737
0.096161 0.503082 0.510834
0.096161 0.503082 0.558258
0.096161 0.502197 0.579590
0.136169 0.488861 0.585083
0.259674 0.434967 0.588043
0.270844 0.341858 0.596619
0.555634 0.306152 0.760101
0.868195 0.294434 0.803253
0.096161 0.503082 0.346832
0.096161 0.503357 0.391174
0.096161 0.503998 0.437134
0.135254 0.503967 0.485077
0.253510 0.498840 0.532288
0.432434 0.485352 0.575256
0.642395 0.478058 0.617615
0.858490 0.469299 0.654541
0.096161 0.683990 0.278534
0.096161 0.684113 0.320923
0.096161 0.684265 0.359131
0.111725 0.684113 0.377899
0.222198 0.682373 0.393890
0.523712 0.671906 0.536804
0.638397 0.556976 0.552734
0.863068 0.494385 0.548615
0.096161 0.880066 0.180267
0.096161 0.879974 0.198151
0.096161 0.879700 0.213409
0.096832 0.878906 0.224152
0.277435 0.875214 0.318787
0.619110 0.865601 0.490631
0.841339 0.829254 0.484650
0.859589 0.625763 0.528595
0.096161 0.345703 0.774506
0.096161 0.221191 0.783539
0.096161 0.165375 0.787384
0.096161 0.158173 0.787903
0.096161 0.151276 0.788391
0.096161 0.125061 0.790436
0.096161 0.099457 0.792755
0.096252 0.096161 0.969482
0.096161 0.503204 0.761627
0.096161 0.393829 0.770844
0.096161 0.256744 0.781128
0.096161 0.214600 0.784027
0.096161 0.204407 0.784729
0.096161 0.179291 0.786499
0.097656 0.118378 0.791046
0.102814 0.101654 0.968628
0.096161 0.603180 0.752441
0.096161 0.560425 0.756531
0.096313 0.443634 0.766815
0.103088 0.295013 0.778381
0.104614 0.275116 0.779785
0.105652 0.261261 0.780792
0.113556 0.163696 0.787598
0.135864 0.128937 0.965973
0.096161 0.647247 0.748077
0.096161 0.630737 0.749786
0.096161 0.612000 0.751678
0.134064 0.494965 0.762085
0.149658 0.360809 0.773071
0.151398 0.345459 0.774261
0.162598 0.242584 0.781769
0.224335 0.194427 0.960358
0.096161 0.683807 0.736115
0.096161 0.675568 0.745117
0.096161 0.658539 0.747101
0.116638 0.639923 0.748596
0.239288 0.548553 0.755554
0.253174 0.443909 0.764709
0.264038 0.354340 0.771851
0.438232 0.304382 0.946411
0.096161 0.683990 0.616943
0.096161 0.684113 0.668243
0.096161 0.683777 0.718353
0.111664 0.681946 0.740021
0.222076 0.665924 0.744202
0.406830 0.604767 0.745361
0.420074 0.496490 0.755341
0.758301 0.454926 0.921234
0.096161 0.683990 0.440552
0.096161 0.684113 0.488800
0.096161 0.684265 0.537354
0.111725 0.684113 0.586548
0.221069 0.682434 0.636536
0.400085 0.676697 0.686005
0.620941 0.662231 0.728943
0.849762 0.655792 0.771027
0.096161 0.880066 0.362854
0.096161 0.879974 0.410339
0.096161 0.879700 0.456848
0.096832 0.878906 0.497406
0.183350 0.877045 0.516296
0.361725 0.873260 0.533752
0.726471 0.860962 0.689362
0.848267 0.739105 0.705872
0.096161 0.447571 0.946930
0.096161 0.300171 0.956787
0.096161 0.203430 0.962433
0.096161 0.193146 0.963013
0.096161 0.184296 0.963501
0.096161 0.175751 0.963959
0.096161 0.130371 0.966736
0.096161 0.100891 0.968872
0.096161 0.621613 0.933472
0.096161 0.501892 0.942841
0.096161 0.344055 0.953918
0.096161 0.262665 0.958923
0.096161 0.250946 0.959625
0.096161 0.239319 0.960236
0.096161 0.189697 0.963135
0.097382 0.123077 0.967102
0.096161 0.763763 0.920776
0.096161 0.683472 0.928009
0.096161 0.557251 0.938202
0.097198 0.389160 0.950500
0.100342 0.332764 0.954285
0.101288 0.318481 0.955139
0.104004 0.281647 0.957458
0.112610 0.172974 0.963684
0.096161 0.810791 0.916168
0.096161 0.793335 0.917786
0.096161 0.745880 0.921936
0.119019 0.613373 0.932678
0.140137 0.435974 0.946320
0.143036 0.410858 0.948090
0.145081 0.393066 0.949280
0.160278 0.255646 0.958099
0.096161 0.858459 0.911346
0.096161 0.840790 0.913025
0.096161 0.822662 0.914490
0.099152 0.801331 0.915619
0.217682 0.670990 0.925690
0.240173 0.515839 0.938385
0.242645 0.497467 0.939819
0.258820 0.368805 0.948914
0.096161 0.880066 0.884155
0.096161 0.879730 0.900604
0.096161 0.870483 0.909393
0.097229 0.851532 0.910583
0.191254 0.830536 0.910614
0.381439 0.730652 0.916229
0.397583 0.613922 0.926575
0.410461 0.510315 0.934814
0.096161 0.880066 0.725311
0.096161 0.879974 0.778107
0.096161 0.879700 0.830505
0.096832 0.878784 0.881195
0.183197 0.875702 0.901550
0.361694 0.857574 0.903717
0.594147 0.792694 0.903076
0.608398 0.676086 0.914063
0.096161 0.880066 0.540039
0.096161 0.879974 0.591217
0.096161 0.879700 0.641754
0.096832 0.878906 0.691650
0.183350 0.877045 0.741425
0.360199 0.873322 0.791382
0.585968 0.866455 0.840759
0.834320 0.854156 0.885040
