assets/configs/ColorAnd3dLutPreset/CubeLUTFiles/Cyberpunk 2.CUBE
#Created by: Adobe Photoshop Export Color Lookup Plugin
#Copyright: (C) Copyright 2020 Wondershare Inc.
TITLE "Cyberpunk 2"
#LUT size
LUT_3D_SIZE 32
#data domain
DOMAIN_MIN 0.0 0.0 0.0
DOMAIN_MAX 1.0 1.0 1.0
#LUT data points
0.096161 0.096161 0.096161
0.096283 0.096161 0.096313
0.096893 0.096161 0.096741
0.098267 0.096161 0.097260
0.100555 0.096161 0.098022
0.104034 0.096161 0.098969
0.109100 0.096161 0.100067
0.115906 0.096161 0.101318
0.124908 0.096161 0.102722
0.136383 0.096161 0.104340
0.150604 0.096161 0.106049
0.167908 0.096161 0.107910
0.188324 0.096161 0.109955
0.211823 0.096161 0.112122
0.238373 0.096161 0.114441
0.267792 0.096161 0.116943
0.299896 0.096161 0.119507
0.334625 0.096161 0.122223
0.371826 0.096161 0.125061
0.411285 0.096161 0.128052
0.452942 0.096161 0.131073
0.496613 0.096161 0.134247
0.542206 0.096161 0.137512
0.589569 0.096161 0.140839
0.638550 0.096161 0.144287
0.689056 0.096161 0.147797
0.740845 0.096161 0.151367
0.793762 0.096161 0.154999
0.847778 0.096161 0.158661
0.902557 0.096161 0.162415
0.957794 0.096161 0.166138
1.000000 0.096161 0.169952
0.096161 0.096497 0.096161
0.096283 0.096191 0.096161
0.096924 0.096161 0.096161
0.098297 0.096161 0.096161
0.100555 0.096161 0.096252
0.104065 0.096161 0.096497
0.109100 0.096161 0.096893
0.115906 0.096161 0.097504
0.124908 0.096161 0.098206
0.136383 0.096161 0.099060
0.150604 0.096161 0.100098
0.167908 0.096161 0.101257
0.188324 0.096161 0.102539
0.211823 0.096161 0.103912
0.238373 0.096161 0.105438
0.267792 0.096161 0.107117
0.299896 0.096161 0.108887
0.334625 0.096161 0.110779
0.371826 0.096161 0.112762
0.411285 0.096161 0.114868
0.452942 0.096161 0.117096
0.496613 0.096161 0.119385
0.542206 0.096161 0.121796
0.589569 0.096161 0.124237
0.638550 0.096161 0.126709
0.689056 0.096161 0.129364
0.740845 0.096161 0.131958
0.793762 0.096161 0.134705
0.847778 0.096161 0.137543
0.902557 0.096161 0.140350
0.957794 0.096161 0.143127
1.000000 0.096161 0.146088
0.096252 0.097626 0.096161
0.096771 0.097382 0.096161
0.096893 0.096344 0.096161
0.098389 0.096191 0.096161
0.100677 0.096161 0.096161
0.104279 0.096161 0.096161
0.109283 0.096161 0.096161
0.116058 0.096161 0.096222
0.124939 0.096161 0.096252
0.136383 0.096161 0.096436
0.150635 0.096161 0.096710
0.167908 0.096161 0.097168
0.188324 0.096161 0.097748
0.211823 0.096161 0.098480
0.238373 0.096161 0.099274
0.267792 0.096161 0.100189
0.299896 0.096161 0.101227
0.334625 0.096161 0.102356
0.371826 0.096161 0.103577
0.411285 0.096161 0.104919
0.452942 0.096161 0.106293
0.496613 0.096161 0.107788
0.542206 0.096161 0.109375
0.589569 0.096161 0.110962
0.638550 0.096161 0.112671
0.689056 0.096161 0.114349
0.740845 0.096161 0.116241
0.793762 0.096161 0.118103
0.847778 0.096161 0.119934
0.902557 0.096161 0.121948
0.957794 0.096161 0.123932
1.000000 0.096161 0.125916
0.096405 0.100006 0.096161
0.097382 0.099915 0.096161
0.098053 0.098114 0.096161
0.098297 0.096649 0.096161
0.100830 0.096252 0.096161
0.104492 0.096191 0.096161
0.109619 0.096161 0.096161
0.116577 0.096161 0.096161
0.125549 0.096161 0.096161
0.137054 0.096161 0.096161
0.151245 0.096161 0.096161
0.168335 0.096161 0.096191
0.188385 0.096161 0.096191
0.211884 0.096161 0.096222
0.238403 0.096161 0.096344
0.267792 0.096161 0.096497
0.299896 0.096161 0.096741
0.334625 0.096161 0.097107
0.371826 0.096161 0.097595
0.411285 0.096161 0.098206
0.452942 0.096161 0.098877
0.496613 0.096161 0.099609
0.542206 0.096161 0.100372
0.589569 0.096161 0.101227
0.638550 0.096161 0.102142
0.689056 0.096161 0.103088
0.740845 0.096161 0.104126
0.793762 0.096161 0.105225
0.847778 0.096161 0.106293
0.902557 0.096161 0.107422
0.957794 0.096161 0.108551
1.000000 0.096161 0.109772
0.096619 0.103790 0.096161
0.098053 0.103699 0.096161
0.100006 0.102386 0.096161
0.100372 0.099030 0.096161
0.100647 0.097046 0.096161
0.104584 0.096405 0.096161
0.109924 0.096222 0.096161
0.117035 0.096161 0.096161
0.126160 0.096161 0.096161
0.137909 0.096161 0.096161
0.152222 0.096161 0.096161
0.169586 0.096161 0.096161
0.189911 0.096161 0.096161
0.213165 0.096161 0.096161
0.239288 0.096161 0.096161
0.268646 0.096161 0.096161
0.300079 0.096161 0.096161
0.334686 0.096161 0.096191
0.371887 0.096161 0.096222
0.411285 0.096161 0.096252
0.452942 0.096161 0.096283
0.496613 0.096161 0.096344
0.542206 0.096161 0.096375
0.589569 0.096161 0.096405
0.638550 0.096161 0.096497
0.689056 0.096161 0.096619
0.740845 0.096161 0.096771
0.793762 0.096161 0.097015
0.847778 0.096161 0.097382
0.902557 0.096161 0.097717
0.957794 0.096161 0.098114
1.000000 0.096161 0.098541
0.096924 0.109375 0.096161
0.098969 0.109222 0.096161
0.102264 0.108887 0.096161
0.103546 0.104279 0.096161
0.104004 0.100189 0.096161
0.104340 0.097626 0.096161
0.109985 0.096710 0.096161
0.117462 0.096283 0.096161
0.126862 0.096191 0.096161
0.138550 0.096161 0.096161
0.153076 0.096161 0.096161
0.170776 0.096161 0.096161
0.191437 0.096161 0.096161
0.214630 0.096161 0.096161
0.241455 0.096161 0.096161
0.270538 0.096161 0.096161
0.302063 0.096161 0.096161
0.336029 0.096161 0.096161
0.373108 0.096161 0.096161
0.411621 0.096161 0.096161
0.453125 0.096161 0.096161
0.496765 0.096161 0.096161
0.542328 0.096161 0.096161
0.589569 0.096161 0.096161
0.638550 0.096161 0.096161
0.689056 0.096161 0.096161
0.740845 0.096161 0.096191
0.793762 0.096161 0.096191
0.847778 0.096161 0.096222
0.902557 0.096161 0.096252
0.957794 0.096161 0.096252
1.000000 0.096161 0.096283
0.097412 0.116943 0.096161
0.100037 0.116760 0.096161
0.104248 0.116547 0.096161
0.107910 0.113037 0.096161
0.108673 0.106354 0.096161
0.109253 0.101532 0.096161
0.109680 0.098389 0.096161
0.117371 0.097076 0.096161
0.127380 0.096375 0.096161
0.139343 0.096222 0.096161
0.154205 0.096161 0.096161
0.171906 0.096161 0.096161
0.192535 0.096161 0.096161
0.216400 0.096161 0.096161
0.243073 0.096161 0.096161
0.272430 0.096161 0.096161
0.304291 0.096161 0.096161
0.338501 0.096161 0.096161
0.375824 0.096161 0.096161
0.414520 0.096161 0.096161
0.456116 0.096161 0.096161
0.498749 0.096161 0.096161
0.544159 0.096161 0.096161
0.590027 0.096161 0.096161
0.638733 0.096161 0.096161
0.689240 0.096161 0.096161
0.741028 0.096161 0.096161
0.793762 0.096161 0.096161
0.847778 0.096161 0.096161
0.902557 0.096161 0.096161
0.957794 0.096161 0.096161
1.000000 0.096161 0.096161
0.098022 0.126923 0.096161
0.101379 0.126709 0.096161
0.106506 0.126434 0.096161
0.113312 0.125641 0.096161
0.114868 0.116425 0.096161
0.115753 0.108734 0.096161
0.116425 0.103149 0.096161
0.117004 0.099335 0.096161
0.127106 0.097656 0.096161
0.139893 0.096588 0.096161
0.155029 0.096252 0.096161
0.173096 0.096161 0.096161
0.194000 0.096161 0.096161
0.218201 0.096161 0.096161
0.244751 0.096161 0.096161
0.274231 0.096161 0.096161
0.306366 0.096161 0.096161
0.340973 0.096161 0.096161
0.378693 0.096161 0.096161
0.417542 0.096161 0.096161
0.458374 0.096161 0.096161
0.502075 0.096161 0.096161
0.546631 0.096161 0.096161
0.593750 0.096161 0.096161
0.641235 0.096161 0.096161
0.691650 0.096161 0.096161
0.743500 0.096161 0.096161
0.794342 0.096161 0.096161
0.848022 0.096161 0.096161
0.902832 0.096161 0.096161
0.958099 0.096161 0.096161
1.000000 0.096161 0.096161
0.098846 0.139526 0.096161
0.102997 0.139252 0.096161
0.109100 0.138947 0.096161
0.117401 0.138428 0.096161
0.122864 0.131195 0.096161
0.124115 0.120056 0.096161
0.125153 0.111359 0.096161
0.125946 0.104950 0.096161
0.126587 0.100433 0.096161
0.139496 0.098389 0.096161
0.155426 0.096893 0.096161
0.174194 0.096283 0.096161
0.195465 0.096161 0.096161
0.219513 0.096161 0.096161
0.246857 0.096161 0.096161
0.276794 0.096161 0.096161
0.308502 0.096161 0.096161
0.343262 0.096161 0.096161
0.381348 0.096161 0.096161
0.420624 0.096161 0.096161
0.461578 0.096161 0.096161
0.504425 0.096161 0.096161
0.550232 0.096161 0.096161
0.596588 0.096161 0.096161
0.645538 0.096161 0.096161
0.694580 0.096161 0.096161
0.746399 0.096161 0.096161
0.799255 0.096161 0.096161
0.850922 0.096161 0.096161
0.905762 0.096161 0.096161
0.961121 0.096161 0.096161
1.000000 0.096161 0.096161
0.099854 0.155060 0.096161
0.104889 0.154755 0.096161
0.112122 0.154388 0.096161
0.121796 0.153870 0.096161
0.132477 0.150940 0.096161
0.134613 0.136444 0.096161
0.136017 0.124084 0.096161
0.137207 0.114349 0.096161
0.138123 0.107056 0.096161
0.138885 0.101776 0.096161
0.154938 0.099274 0.096161
0.174286 0.097382 0.096161
0.196808 0.096313 0.096161
0.221283 0.096161 0.096161
0.248383 0.096161 0.096161
0.278687 0.096161 0.096161
0.311462 0.096161 0.096161
0.345612 0.096161 0.096161
0.382965 0.096161 0.096161
0.423401 0.096161 0.096161
0.464874 0.096161 0.096161
0.507935 0.096161 0.096161
0.552826 0.096161 0.096161
0.600555 0.096161 0.096161
0.648560 0.096161 0.096161
0.698975 0.096161 0.096161
0.749207 0.096161 0.096161
0.802429 0.096161 0.096161
0.854309 0.096161 0.096161
0.908997 0.096161 0.096161
0.964478 0.096161 0.096161
1.000000 0.096161 0.096161
0.101105 0.173706 0.096161
0.107147 0.173340 0.096161
0.115540 0.172913 0.096161
0.126709 0.172363 0.096161
0.140472 0.171234 0.096161
0.147491 0.158630 0.096161
0.149353 0.142059 0.096161
0.150909 0.128448 0.096161
0.152222 0.117676 0.096161
0.153351 0.109406 0.096161
0.154236 0.103333 0.096161
0.173676 0.100342 0.096161
0.196411 0.097961 0.096161
0.222382 0.096497 0.096161
0.250427 0.096191 0.096161
0.280457 0.096161 0.096161
0.313507 0.096161 0.096161
0.348053 0.096161 0.096161
0.385529 0.096161 0.096161
0.425201 0.096161 0.096161
0.466858 0.096161 0.096161
0.511353 0.096161 0.096161
0.556488 0.096161 0.096161
0.603241 0.096161 0.096161
0.652618 0.096161 0.096161
0.701935 0.096161 0.096161
0.752258 0.096161 0.096161
0.805450 0.096161 0.096161
0.859619 0.096161 0.096161
0.912292 0.096161 0.096161
0.967804 0.096161 0.096161
1.000000 0.096161 0.096161
0.102631 0.195374 0.096161
0.109741 0.194946 0.096161
0.119476 0.194427 0.096161
0.132172 0.193817 0.096161
0.148041 0.193024 0.096161
0.162445 0.186279 0.096161
0.165405 0.166077 0.096161
0.167419 0.148071 0.096161
0.169128 0.133240 0.096161
0.170624 0.121338 0.096161
0.171844 0.112061 0.096161
0.172882 0.105133 0.096161
0.195740 0.101624 0.096161
0.221802 0.098755 0.096161
0.251007 0.096741 0.096161
0.282166 0.096191 0.096161
0.315552 0.096161 0.096161
0.350433 0.096161 0.096161
0.388245 0.096161 0.096161
0.428131 0.096161 0.096161
0.470001 0.096161 0.096161
0.513550 0.096161 0.096161
0.558929 0.096161 0.096161
0.606995 0.096161 0.096161
0.655365 0.096161 0.096161
0.704803 0.096161 0.096161
0.756958 0.096161 0.096161
0.808685 0.096161 0.096161
0.862976 0.096161 0.096161
0.915771 0.096161 0.096161
0.971100 0.096161 0.096161
1.000000 0.096161 0.096161
0.104462 0.219940 0.096161
0.112762 0.219452 0.096161
0.123962 0.218872 0.096161
0.138275 0.218201 0.096161
0.156036 0.217407 0.096161
0.176453 0.215332 0.096161
0.184174 0.196259 0.096161
0.186676 0.173889 0.096161
0.188873 0.154572 0.096161
0.190735 0.138397 0.096161
0.192352 0.125336 0.096161
0.193695 0.115021 0.096161
0.194824 0.107178 0.096161
0.221039 0.103058 0.096161
0.250397 0.099701 0.096161
0.282623 0.097168 0.096161
0.317444 0.096222 0.096161
0.352783 0.096161 0.096161
0.390869 0.096161 0.096161
0.431030 0.096161 0.096161
0.473206 0.096161 0.096161
0.517029 0.096161 0.096161
0.562531 0.096161 0.096161
0.609680 0.096161 0.096161
0.658051 0.096161 0.096161
0.709137 0.096161 0.096161
0.760040 0.096161 0.096161
0.813660 0.096161 0.096161
0.866180 0.096161 0.096161
0.921356 0.096161 0.096161
0.974396 0.096161 0.096161
1.000000 0.096161 0.096161
0.106628 0.247162 0.096161
0.116272 0.246643 0.096161
0.128998 0.246033 0.096161
0.145020 0.245300 0.096161
0.164734 0.244446 0.096161
0.187988 0.243317 0.096161
0.205200 0.231720 0.096161
0.208740 0.205872 0.096161
0.211334 0.182159 0.096161
0.213654 0.161499 0.096161
0.215637 0.144012 0.096161
0.217346 0.129669 0.096161
0.218811 0.118256 0.096161
0.220062 0.109467 0.096161
0.249542 0.104736 0.096161
0.281921 0.100800 0.096161
0.317108 0.097748 0.096161
0.354706 0.096252 0.096161
0.393341 0.096161 0.096161
0.433868 0.096161 0.096161
0.475220 0.096161 0.096161
0.520447 0.096161 0.096161
0.565002 0.096161 0.096161
0.613525 0.096161 0.096161
0.662109 0.096161 0.096161
0.712036 0.096161 0.096161
0.763092 0.096161 0.096161
0.816772 0.096161 0.096161
0.869232 0.096161 0.096161
0.924896 0.096161 0.096161
0.977631 0.096161 0.096161
1.000000 0.096161 0.096161
0.109192 0.276978 0.096161
0.120270 0.276428 0.096161
0.134613 0.275757 0.096161
0.152527 0.274994 0.096161
0.174255 0.274078 0.096161
0.199677 0.273041 0.096161
0.226440 0.269714 0.096161
0.233490 0.243622 0.096161
0.236542 0.215851 0.096161
0.239227 0.190887 0.096161
0.241669 0.168823 0.096161
0.243744 0.150055 0.096161
0.245575 0.134399 0.096161
0.247131 0.121887 0.096161
0.248474 0.112030 0.096161
0.280975 0.106659 0.096161
0.316284 0.102112 0.096161
0.354156 0.098480 0.096161
0.394440 0.096375 0.096161
0.435638 0.096161 0.096161
0.478302 0.096161 0.096161
0.522705 0.096161 0.096161
0.568726 0.096161 0.096161
0.616150 0.096161 0.096161
0.665009 0.096161 0.096161
0.714905 0.096161 0.096161
0.767639 0.096161 0.096161
0.819824 0.096161 0.096161
0.872528 0.096161 0.096161
0.928040 0.096161 0.096161
0.980865 0.096161 0.096161
1.000000 0.096161 0.096161
0.112152 0.309082 0.096161
0.124756 0.308502 0.096161
0.140869 0.307800 0.096161
0.160736 0.306976 0.096161
0.184479 0.306030 0.096161
0.211884 0.304932 0.096161
0.242126 0.303162 0.096161
0.260376 0.286072 0.096161
0.264343 0.255127 0.096161
0.267426 0.226196 0.096161
0.270233 0.199982 0.096161
0.272705 0.176636 0.096161
0.274902 0.156464 0.096161
0.276764 0.139526 0.096161
0.278442 0.125763 0.096161
0.279846 0.114868 0.096161
0.315308 0.108795 0.096161
0.353302 0.103607 0.096161
0.393829 0.099365 0.096161
0.436554 0.096558 0.096161
0.481171 0.096191 0.096161
0.526001 0.096161 0.096161
0.572388 0.096161 0.096161
0.620148 0.096161 0.096161
0.669159 0.096161 0.096161
0.719299 0.096161 0.096161
0.770721 0.096161 0.096161
0.823090 0.096161 0.096161
0.877747 0.096161 0.096161
0.931274 0.096161 0.096161
0.984467 0.096161 0.096161
1.000000 0.096161 0.096161
0.115601 0.343475 0.096161
0.129822 0.342804 0.096161
0.147827 0.342072 0.096161
0.169769 0.341187 0.096161
0.195557 0.340210 0.096161
0.224884 0.339111 0.096161
0.257446 0.337738 0.096161
0.288116 0.331421 0.096161
0.294586 0.299591 0.096161
0.298096 0.267090 0.096161
0.301270 0.236969 0.096161
0.304138 0.209534 0.096161
0.306702 0.184875 0.096161
0.308929 0.163391 0.096161
0.310913 0.145050 0.096161
0.312622 0.130005 0.096161
0.314056 0.117981 0.096161
0.352264 0.111206 0.096161
0.392883 0.105347 0.096161
0.435822 0.100433 0.096161
0.480835 0.096954 0.096161
0.527771 0.096222 0.096161
0.574493 0.096161 0.096161
0.622467 0.096161 0.096161
0.671722 0.096161 0.096161
0.722168 0.096161 0.096161
0.773804 0.096161 0.096161
0.827972 0.096161 0.096161
0.881104 0.096161 0.096161
0.934509 0.096161 0.096161
0.990234 0.096161 0.096161
1.000000 0.096161 0.096161
0.119476 0.379822 0.096161
0.135498 0.379150 0.096161
0.155457 0.378357 0.096161
0.179535 0.377472 0.096161
0.207336 0.376404 0.096161
0.238586 0.375275 0.096161
0.273102 0.373932 0.096161
0.308960 0.371155 0.096161
0.326721 0.347992 0.096161
0.331055 0.312805 0.096161
0.334625 0.279266 0.096161
0.337860 0.248016 0.096161
0.340729 0.219452 0.096161
0.343323 0.193542 0.096161
0.345642 0.170654 0.096161
0.347656 0.151001 0.096161
0.349457 0.134613 0.096161
0.350983 0.121399 0.096161
0.391785 0.113861 0.096161
0.434845 0.107239 0.096161
0.480042 0.101654 0.096161
0.527222 0.097473 0.096161
0.576111 0.096283 0.096161
0.624725 0.096161 0.096161
0.674286 0.096161 0.096161
0.724854 0.096161 0.096161
0.778351 0.096161 0.096161
0.831055 0.096161 0.096161
0.884216 0.096161 0.096161
0.938019 0.096161 0.096161
0.993805 0.096161 0.096161
1.000000 0.096161 0.096161
0.123932 0.418060 0.096161
0.141846 0.417358 0.096161
0.163879 0.416565 0.096161
0.190063 0.415588 0.096161
0.219818 0.414520 0.096161
0.252991 0.413300 0.096161
0.289185 0.411987 0.096161
0.327972 0.410187 0.096161
0.359528 0.398895 0.096161
0.366302 0.362915 0.096161
0.370209 0.326294 0.096161
0.373810 0.291718 0.096161
0.377014 0.259430 0.096161
0.379974 0.229675 0.096161
0.382629 0.202515 0.096161
0.384949 0.178345 0.096161
0.387085 0.157288 0.096161
0.388885 0.139587 0.096161
0.390503 0.125153 0.096161
0.433685 0.116760 0.096161
0.479065 0.109375 0.096161
0.526367 0.103088 0.096161
0.575562 0.098175 0.096161
0.626251 0.096313 0.096161
0.678192 0.096161 0.096161
0.729218 0.096161 0.096161
0.781219 0.096161 0.096161
0.833923 0.096161 0.096161
0.887238 0.096161 0.096161
0.943481 0.096161 0.096161
0.996948 0.096161 0.096161
1.000000 0.096161 0.096161
0.128998 0.458038 0.096161
0.148926 0.457306 0.096161
0.173065 0.456451 0.096161
0.201294 0.455475 0.096161
0.233032 0.454346 0.096161
0.268066 0.453125 0.096161
0.306030 0.451752 0.096161
0.346741 0.450195 0.096161
0.387329 0.446014 0.096161
0.403229 0.416565 0.096161
0.407898 0.377502 0.096161
0.411804 0.340027 0.096161
0.415405 0.304474 0.096161
0.418671 0.271179 0.096161
0.421631 0.240204 0.096161
0.424316 0.211823 0.096161
0.426697 0.186401 0.096161
0.428802 0.163971 0.096161
0.430695 0.144928 0.096161
0.432343 0.129211 0.096161
0.477844 0.119995 0.096161
0.525299 0.111816 0.096161
0.574615 0.104706 0.096161
0.625580 0.099091 0.096161
0.678040 0.096405 0.096161
0.731598 0.096161 0.096161
0.784058 0.096161 0.096161
0.837006 0.096161 0.096161
0.890381 0.096161 0.096161
0.946777 0.096161 0.096161
0.998932 0.096161 0.096161
1.000000 0.096161 0.096161
0.134644 0.499603 0.096161
0.156647 0.498871 0.096161
0.183014 0.497925 0.096161
0.213226 0.496918 0.096161
0.246948 0.495789 0.096161
0.283813 0.494507 0.096161
0.323547 0.493103 0.096161
0.365875 0.491577 0.096161
0.409760 0.489227 0.096161
0.440826 0.472412 0.096161
0.447601 0.432648 0.096161
0.451813 0.392365 0.096161
0.455750 0.354034 0.096161
0.459351 0.317535 0.096161
0.462646 0.283142 0.096161
0.465546 0.251099 0.096161
0.468292 0.221527 0.096161
0.470703 0.194794 0.096161
0.472839 0.171112 0.096161
0.474762 0.150665 0.096161
0.476410 0.133606 0.096161
0.524048 0.123535 0.096161
0.573517 0.114471 0.096161
0.624634 0.106567 0.096161
0.677216 0.100128 0.096161
0.731110 0.096466 0.096161
0.786163 0.096161 0.096161
0.841766 0.096161 0.096161
0.895630 0.096161 0.096161
0.949799 0.096161 0.096161
0.999207 0.096161 0.096161
1.000000 0.096161 0.096161
0.140991 0.542664 0.096161
0.165131 0.541840 0.096161
0.193665 0.540955 0.096161
0.225983 0.539856 0.096161
0.261627 0.538727 0.096161
0.300232 0.537415 0.096161
0.341583 0.536011 0.096161
0.385468 0.534424 0.096161
0.431580 0.532684 0.096161
0.475739 0.526978 0.096161
0.488861 0.490967 0.096161
0.493683 0.448639 0.096161
0.497864 0.407593 0.096161
0.501801 0.368164 0.096161
0.505371 0.330688 0.096161
0.508667 0.295380 0.096161
0.511627 0.262207 0.096161
0.514343 0.231567 0.096161
0.516754 0.203583 0.096161
0.518921 0.178528 0.096161
0.520874 0.156738 0.096161
0.522583 0.138397 0.096161
0.572235 0.127319 0.096161
0.623505 0.117371 0.096161
0.676239 0.108643 0.096161
0.730316 0.101379 0.096161
0.785614 0.096649 0.096161
0.841827 0.096191 0.096161
0.898590 0.096161 0.096161
0.952820 0.096161 0.096161
0.999237 0.096161 0.096161
1.000000 0.096161 0.096161
0.148010 0.587097 0.096161
0.174408 0.586212 0.096161
0.205078 0.585297 0.096161
0.239502 0.584198 0.096161
0.277008 0.583008 0.096161
0.317383 0.581665 0.096161
0.360413 0.580231 0.096161
0.405762 0.578613 0.096161
0.453308 0.576904 0.096161
0.501678 0.573730 0.096161
0.530762 0.551056 0.096161
0.537323 0.508026 0.096161
0.541809 0.464722 0.096161
0.545990 0.422943 0.096161
0.549896 0.382721 0.096161
0.553467 0.344299 0.096161
0.556732 0.307983 0.096161
0.559692 0.273804 0.096161
0.562439 0.242004 0.096161
0.564880 0.212799 0.096161
0.567108 0.186401 0.096161
0.569031 0.163239 0.096161
0.570740 0.143494 0.096161
0.622162 0.131409 0.096161
0.675079 0.120575 0.096161
0.729279 0.110901 0.096161
0.784729 0.102783 0.096161
0.841095 0.097076 0.096161
0.898254 0.096222 0.096161
0.955444 0.096161 0.096161
0.999298 0.096161 0.096161
1.000000 0.096161 0.096161
0.155823 0.632660 0.096161
0.184509 0.631805 0.096161
0.217285 0.630798 0.096161
0.253571 0.629730 0.096161
0.292938 0.628510 0.096161
0.335052 0.627136 0.096161
0.379700 0.625702 0.096161
0.426727 0.624054 0.096161
0.475708 0.622284 0.096161
0.526428 0.620300 0.096161
0.572357 0.612030 0.096161
0.582581 0.570374 0.096161
0.587341 0.524994 0.096161
0.591797 0.480988 0.096161
0.595947 0.438385 0.096161
0.599762 0.397400 0.096161
0.603333 0.358154 0.096161
0.606628 0.320770 0.096161
0.609558 0.285492 0.096161
0.612274 0.252594 0.096161
0.614746 0.222229 0.096161
0.616943 0.194641 0.096161
0.618927 0.170044 0.096161
0.620667 0.148895 0.096161
0.673737 0.135803 0.096161
0.728088 0.123993 0.096161
0.783722 0.113403 0.096161
0.840210 0.104401 0.096161
0.897491 0.097748 0.096161
0.955078 0.096313 0.096161
0.999329 0.096161 0.096161
1.000000 0.096161 0.096161
0.164368 0.679352 0.096161
0.195374 0.678436 0.096161
0.230225 0.677429 0.096161
0.268494 0.676300 0.096161
0.309723 0.675079 0.096161
0.353394 0.673706 0.096161
0.399719 0.672241 0.096161
0.448120 0.670593 0.096161
0.498352 0.668854 0.096161
0.550507 0.666931 0.096161
0.601837 0.662537 0.096161
0.627838 0.634033 0.096161
0.634338 0.588165 0.096161
0.639038 0.542084 0.096161
0.643463 0.497437 0.096161
0.647522 0.454071 0.096161
0.651367 0.412201 0.096161
0.654877 0.372192 0.096161
0.658142 0.333862 0.096161
0.661072 0.297638 0.096161
0.663757 0.263702 0.096161
0.666229 0.232086 0.096161
0.668457 0.203156 0.096161
0.670410 0.177307 0.096161
0.672150 0.154724 0.096161
0.726715 0.140594 0.096161
0.782501 0.127747 0.096161
0.839142 0.116241 0.096161
0.896576 0.106232 0.096161
0.954315 0.098602 0.096161
0.999329 0.096375 0.096161
1.000000 0.096161 0.096161
0.173737 0.726898 0.096161
0.207001 0.726013 0.096161
0.243958 0.724976 0.096161
0.284149 0.723846 0.096161
0.326935 0.722595 0.096161
0.372406 0.721191 0.096161
0.420166 0.719727 0.096161
0.470001 0.718079 0.096161
0.521637 0.716309 0.096161
0.575043 0.714355 0.096161
0.629120 0.711700 0.096161
0.672760 0.698181 0.096161
0.682648 0.653778 0.096161
0.687622 0.606018 0.096161
0.692291 0.559357 0.096161
0.696625 0.513916 0.096161
0.700684 0.470032 0.096161
0.704437 0.427399 0.096161
0.707886 0.386383 0.096161
0.711090 0.347198 0.096161
0.714020 0.309998 0.096161
0.716705 0.274902 0.096161
0.719147 0.242279 0.096161
0.721405 0.212128 0.096161
0.723389 0.184906 0.096161
0.725128 0.160889 0.096161
0.781128 0.145630 0.096161
0.837921 0.131836 0.096161
0.895508 0.119202 0.096161
0.953400 0.108307 0.096161
0.999298 0.099670 0.096161
1.000000 0.096497 0.096161
0.183868 0.775452 0.096161
0.219391 0.774475 0.096161
0.258331 0.773468 0.096161
0.300385 0.772278 0.096161
0.344940 0.771027 0.096161
0.392090 0.769623 0.096161
0.441193 0.768097 0.096161
0.492432 0.766479 0.096161
0.545197 0.764679 0.096161
0.599854 0.762756 0.096161
0.655731 0.760681 0.096161
0.708954 0.754852 0.096161
0.731140 0.720428 0.096161
0.737549 0.672333 0.096161
0.742401 0.624207 0.096161
0.746979 0.576904 0.096161
0.751221 0.530701 0.096161
0.755219 0.486023 0.096161
0.758911 0.442627 0.096161
0.762299 0.400909 0.096161
0.765503 0.360748 0.096161
0.768433 0.322693 0.096161
0.771088 0.286469 0.096161
0.773529 0.252716 0.096161
0.775757 0.221313 0.096161
0.777710 0.192902 0.096161
0.779510 0.167419 0.096161
0.836517 0.151093 0.096161
0.894226 0.136078 0.096161
0.952362 0.122528 0.096161
0.999298 0.110596 0.096161
1.000000 0.100983 0.096161
0.194824 0.824554 0.096161
0.232452 0.823578 0.096161
0.273315 0.822540 0.096161
0.317200 0.821381 0.096161
0.363525 0.820068 0.096161
0.411987 0.818665 0.096161
0.462799 0.817139 0.096161
0.515289 0.815491 0.096161
0.569550 0.813690 0.096161
0.625000 0.811798 0.096161
0.682068 0.809753 0.096161
0.738770 0.806213 0.096161
0.779053 0.787201 0.096161
0.788483 0.740540 0.096161
0.793549 0.690887 0.096161
0.798279 0.642303 0.096161
