assets/configs/ColorAnd3dLutPreset/CubeLUTFiles/GPLog 709 Style.CUBE
#Created by: Adobe Photoshop Export Color Lookup Plugin
#Copyright: (C) Copyright 2024 Wondershare Andy Zhang
TITLE "GPLog 709 Style"
#LUT size
LUT_3D_SIZE 6
#data domain
#LUT data points
DOMAIN_MIN 0.000000 0.000000 0.000000
DOMAIN_MAX 0.909091 0.909091 0.909091
0.000000 0.000000 0.000000
0.198181 0.000000 0.050690
0.498444 0.000000 0.074615
0.872437 0.000000 0.082214
1.000000 0.000000 0.079590
1.000000 0.000000 0.054962
0.000000 0.162872 0.000000
0.112946 0.121338 0.000000
0.386841 0.083466 0.000000
0.860229 0.000000 0.000000
1.000000 0.000000 0.080475
1.000000 0.000000 0.025970
0.000000 0.400330 0.000000
0.000000 0.388947 0.000000
0.281921 0.319427 0.000000
0.743439 0.236633 0.000000
1.000000 0.004608 0.000000
1.000000 0.000000 0.000000
0.000000 0.755371 0.000000
0.000000 0.759552 0.000000
0.000000 0.753540 0.000000
0.615601 0.652222 0.000000
1.000000 0.573883 0.000000
1.000000 0.120300 0.000000
0.000000 1.000000 0.000000
0.000000 1.000000 0.000000
0.000000 1.000000 0.000000
0.020660 1.000000 0.000000
0.945404 0.949463 0.000000
1.000000 0.920654 0.000000
0.000000 1.000000 0.000000
0.000000 1.000000 0.000000
0.000000 1.000000 0.000000
0.000000 1.000000 0.000000
0.097656 1.000000 0.000000
1.000000 1.000000 0.000000
0.000000 0.000000 0.144592
0.202820 0.000000 0.190155
0.503937 0.000000 0.194183
0.873810 0.000000 0.182007
1.000000 0.000000 0.156921
1.000000 0.000000 0.142700
0.000000 0.130981 0.137207
0.097107 0.097107 0.097107
0.389771 0.053711 0.091309
0.864197 0.000000 0.153076
1.000000 0.000000 0.172699
1.000000 0.000000 0.118866
0.000000 0.386353 0.000000
0.000000 0.375732 0.000000
0.277435 0.305206 0.000000
0.744171 0.217957 0.000000
1.000000 0.000000 0.105621
1.000000 0.000000 0.057526
0.000000 0.751923 0.000000
0.000000 0.756226 0.000000
0.000000 0.751282 0.000000
0.615662 0.648529 0.000000
1.000000 0.568481 0.000000
1.000000 0.102051 0.007019
0.000000 1.000000 0.000000
0.000000 1.000000 0.000000
0.000000 1.000000 0.000000
0.018921 1.000000 0.000000
0.945709 0.949371 0.000000
1.000000 0.919800 0.000000
0.000000 1.000000 0.000000
0.000000 1.000000 0.000000
0.000000 1.000000 0.000000
0.000000 1.000000 0.000000
0.097198 1.000000 0.000000
1.000000 1.000000 0.000000
0.000000 0.000000 0.393707
0.000000 0.000000 0.410828
0.497498 0.000000 0.467529
0.873535 0.000000 0.437805
1.000000 0.000000 0.351013
1.000000 0.000000 0.338165
0.000000 0.067566 0.396881
0.002502 0.054718 0.393921
0.470581 0.000000 0.446289
0.874329 0.000000 0.425507
1.000000 0.000000 0.415466
1.000000 0.000000 0.325104
0.000000 0.317993 0.314606
0.000000 0.309875 0.311371
0.250946 0.250946 0.250946
0.749878 0.148346 0.246979
1.000000 0.000000 0.389740
1.000000 0.000000 0.294983
0.000000 0.738495 0.000000
0.000000 0.742981 0.000000
0.000000 0.742554 0.000000
0.610901 0.634613 0.000000
1.000000 0.546631 0.001495
1.000000 0.054382 0.347748
0.000000 1.000000 0.000000
0.000000 1.000000 0.000000
0.000000 1.000000 0.000000
0.013397 1.000000 0.000000
0.946045 0.948853 0.000000
1.000000 0.917328 0.000000
0.000000 1.000000 0.000000
0.000000 1.000000 0.000000
0.000000 1.000000 0.000000
0.000000 1.000000 0.000000
0.095337 1.000000 0.000000
1.000000 1.000000 0.000000
0.000000 0.000000 0.742920
0.000000 0.000000 0.720367
0.000000 0.000000 0.811035
0.783508 0.000000 0.723999
1.000000 0.000000 0.663391
1.000000 0.000000 0.642181
0.000000 0.000000 0.740814
0.000000 0.000000 0.723053
0.000000 0.000000 0.796417
0.825623 0.000000 0.771423
1.000000 0.000000 0.677307
1.000000 0.000000 0.638702
0.000000 0.160797 0.761871
0.000000 0.160309 0.751892
0.059143 0.138733 0.708588
0.835052 0.000336 0.793640
1.000000 0.000000 0.789093
1.000000 0.000000 0.635376
0.000000 0.636993 0.665466
0.000000 0.642822 0.672485
0.000000 0.649811 0.679443
0.561768 0.561768 0.561768
1.000000 0.438690 0.602600
1.000000 0.000000 0.833649
0.000000 1.000000 0.000000
0.000000 1.000000 0.000000
0.000000 1.000000 0.000000
0.000092 1.000000 0.000000
0.939911 0.942383 0.000000
1.000000 0.901794 0.039795
0.000000 1.000000 0.000000
0.000000 1.000000 0.000000
0.000000 1.000000 0.000000
0.000000 1.000000 0.000000
0.089203 1.000000 0.000000
1.000000 1.000000 0.000000
0.000000 0.000000 0.995270
0.000000 0.000000 0.990204
0.000000 0.000000 0.990479
0.278961 0.000000 1.000000
1.000000 0.000000 0.942993
1.000000 0.000000 0.918213
0.000000 0.000000 0.996063
0.000000 0.000000 0.992737
0.000000 0.000000 0.982605
0.245087 0.000000 1.000000
1.000000 0.000000 0.944916
1.000000 0.000000 0.919006
0.000000 0.000000 0.996582
0.000000 0.000000 0.996429
0.000000 0.000000 0.974182
0.156097 0.000000 1.000000
1.000000 0.000000 0.956055
1.000000 0.000000 0.923096
0.000000 0.345703 1.000000
0.000000 0.350739 1.000000
0.000000 0.363373 1.000000
0.252594 0.347443 0.993988
1.000000 0.032013 1.000000
1.000000 0.000000 1.000000
0.000000 0.932709 0.994965
0.000000 0.938354 0.999115
0.000000 0.953674 1.000000
0.000000 0.979218 1.000000
0.878296 0.878296 0.878296
1.000000 0.804871 0.939423
0.000000 1.000000 0.000000
0.000000 1.000000 0.000000
0.000000 1.000000 0.000000
0.000000 1.000000 0.000000
0.049103 1.000000 0.000000
1.000000 1.000000 0.022797
0.000000 0.000000 1.000000
0.000000 0.000000 1.000000
0.000000 0.000000 1.000000
0.000000 0.000000 1.000000
0.932709 0.000000 1.000000
1.000000 0.000000 1.000000
0.000000 0.000000 1.000000
0.000000 0.000000 1.000000
0.000000 0.000000 1.000000
0.000000 0.000000 1.000000
0.928864 0.000000 1.000000
1.000000 0.000000 1.000000
0.000000 0.000000 1.000000
0.000000 0.000000 1.000000
0.000000 0.000000 1.000000
0.000000 0.000000 1.000000
0.917023 0.000000 1.000000
1.000000 0.000000 1.000000
0.000000 0.000000 1.000000
0.000000 0.000000 1.000000
0.000000 0.000000 1.000000
0.000000 0.000000 1.000000
0.873566 0.000000 1.000000
1.000000 0.000000 1.000000
0.000000 0.601776 1.000000
0.000000 0.612457 1.000000
0.000000 0.643341 1.000000
0.000000 0.712799 1.000000
0.645020 0.677979 1.000000
1.000000 0.111847 1.000000
0.000000 1.000000 1.000000
0.000000 1.000000 1.000000
0.000000 1.000000 1.000000
0.000000 1.000000 1.000000
0.000000 1.000000 1.000000
1.000000 1.000000 1.000000
