assets/configs/ColorAnd3dLutPreset/CubeLUTFiles/GPLog 709 Style.CUBE
#Created by: Adobe Photoshop Export Color Lookup Plugin
#Copyright: (C) Copyright 2024 Wondershare Andy Zhang
TITLE "GPLog 709 Style"
#LUT size
LUT_3D_SIZE 12
#data domain
DOMAIN_MIN 0.0 0.0 0.0
DOMAIN_MAX 1.0 1.0 1.0
#LUT data points
0.000000 0.000000 0.000000
0.112183 0.000000 0.029755
0.198181 0.000000 0.050690
0.321350 0.000000 0.067444
0.498444 0.000000 0.074615
0.694916 0.000000 0.077637
0.872437 0.000000 0.082214
1.000000 0.000000 0.086243
1.000000 0.000000 0.079590
1.000000 0.000000 0.002472
1.000000 0.000000 0.054962
1.000000 0.000000 0.155945
0.000000 0.093231 0.000000
0.065216 0.068909 0.000000
0.137085 0.061432 0.000000
0.252502 0.048004 0.000000
0.470734 0.000641 0.000092
0.684357 0.000000 0.031586
0.869995 0.000000 0.062836
1.000000 0.000000 0.077179
1.000000 0.000000 0.086853
1.000000 0.000000 0.000885
1.000000 0.000000 0.044006
1.000000 0.000000 0.146515
0.000000 0.162872 0.000000
0.007568 0.141510 0.000000
0.112946 0.121338 0.000000
0.215088 0.108826 0.000000
0.386841 0.083466 0.000000
0.608215 0.035889 0.000000
0.860229 0.000000 0.000000
1.000000 0.000000 0.043427
1.000000 0.000000 0.080475
1.000000 0.000000 0.002869
1.000000 0.000000 0.025970
1.000000 0.000000 0.130066
0.000000 0.258606 0.000000
0.000000 0.251770 0.000000
0.061554 0.214722 0.000000
0.176544 0.196106 0.000000
0.346222 0.172546 0.000000
0.560638 0.133698 0.000000
0.777863 0.075867 0.000000
1.000000 0.000000 0.000000
1.000000 0.000000 0.025146
1.000000 0.000000 0.067505
1.000000 0.000000 0.000214
1.000000 0.000000 0.099945
0.000000 0.400330 0.000000
0.000000 0.397766 0.000000
0.000000 0.388947 0.000000
0.091675 0.343719 0.000000
0.281921 0.319427 0.000000
0.514923 0.285797 0.000000
0.743439 0.236633 0.000000
0.941742 0.150818 0.000000
1.000000 0.004608 0.000000
1.000000 0.000000 0.000366
1.000000 0.000000 0.000000
1.000000 0.000000 0.044281
0.000000 0.573090 0.000000
0.000000 0.573395 0.000000
0.000000 0.572937 0.000000
0.000000 0.564636 0.000000
0.148254 0.513214 0.000000
0.436279 0.479797 0.000000
0.692810 0.445862 0.000000
0.907867 0.394684 0.000000
1.000000 0.291473 0.000000
1.000000 0.051178 0.000000
1.000000 0.000000 0.000000
1.000000 0.000000 0.000000
0.000000 0.755371 0.000000
0.000000 0.757111 0.000000
0.000000 0.759552 0.000000
0.000000 0.762329 0.000000
0.000000 0.753540 0.000000
0.272705 0.693329 0.000000
0.615601 0.652222 0.000000
0.860229 0.617218 0.000000
1.000000 0.573883 0.000000
1.000000 0.478577 0.000000
1.000000 0.120300 0.000000
1.000000 0.000000 0.000000
0.000000 0.914642 0.000000
0.000000 0.916504 0.000000
0.000000 0.919403 0.000000
0.000000 0.923615 0.000000
0.000000 0.928802 0.000000
0.000458 0.921997 0.000000
0.439575 0.851837 0.000000
0.790314 0.816681 0.000000
0.984039 0.791595 0.000000
1.000000 0.763733 0.000000
1.000000 0.681458 0.000000
1.000000 0.194366 0.000000
0.000000 1.000000 0.000000
0.000000 1.000000 0.000000
0.000000 1.000000 0.000000
0.000000 1.000000 0.000000
0.000000 1.000000 0.000000
0.000000 1.000000 0.000000
0.020660 1.000000 0.000000
0.644653 0.975494 0.000000
0.945404 0.949463 0.000000
1.000000 0.937714 0.000000
1.000000 0.920654 0.000000
1.000000 0.852844 0.000000
0.000000 1.000000 0.000000
0.000000 1.000000 0.000000
0.000000 1.000000 0.000000
0.000000 1.000000 0.000000
0.000000 1.000000 0.000000
0.000000 1.000000 0.000000
0.000000 1.000000 0.000000
0.055389 1.000000 0.000000
0.847473 1.000000 0.000000
1.000000 1.000000 0.000000
1.000000 1.000000 0.000000
1.000000 1.000000 0.000000
0.000000 1.000000 0.000000
0.000000 1.000000 0.000000
0.000000 1.000000 0.000000
0.000000 1.000000 0.000000
0.000000 1.000000 0.000000
0.000000 1.000000 0.000000
0.000000 1.000000 0.000000
0.000000 1.000000 0.000000
0.097656 1.000000 0.000000
0.990356 1.000000 0.000000
1.000000 1.000000 0.000000
1.000000 1.000000 0.000000
0.000000 1.000000 0.000000
0.000000 1.000000 0.000000
0.000000 1.000000 0.000000
0.000000 1.000000 0.000000
0.000000 1.000000 0.000000
0.000000 1.000000 0.000000
0.000000 1.000000 0.000000
0.000000 1.000000 0.000000
0.000000 1.000000 0.000000
0.135498 1.000000 0.000000
1.000000 1.000000 0.000000
1.000000 1.000000 0.000000
0.000000 0.000000 0.080872
0.114990 0.000000 0.107483
0.202545 0.000000 0.120789
0.324493 0.000000 0.129608
0.500641 0.000000 0.129272
0.696106 0.000000 0.125305
0.872803 0.000000 0.123383
1.000000 0.000000 0.122192
1.000000 0.000000 0.105804
1.000000 0.000000 0.041962
1.000000 0.000000 0.088715
1.000000 0.000000 0.182434
0.000000 0.075653 0.080231
0.055817 0.055817 0.055817
0.135498 0.046692 0.058380
0.261963 0.028687 0.072601
0.477142 0.000000 0.104431
0.686157 0.000000 0.108490
0.870667 0.000000 0.112549
1.000000 0.000000 0.116516
1.000000 0.000000 0.119568
1.000000 0.000000 0.038269
1.000000 0.000000 0.078949
1.000000 0.000000 0.173737
0.000000 0.153534 0.000610
0.000183 0.137878 0.000092
0.106964 0.112366 0.000214
0.208893 0.098877 0.000214
0.385010 0.070984 0.000183
0.619537 0.012299 0.023407
0.860870 0.000000 0.081940
1.000000 0.000000 0.100830
1.000000 0.000000 0.117096
1.000000 0.000000 0.040161
1.000000 0.000000 0.062012
1.000000 0.000000 0.158203
0.000000 0.251556 0.000000
0.000000 0.245209 0.000000
0.057281 0.208923 0.000000
0.174164 0.189575 0.000000
0.344025 0.166199 0.000000
0.560394 0.126465 0.000000
0.779510 0.067261 0.000000
1.000000 0.000000 0.026489
1.000000 0.000000 0.096252
1.000000 0.000000 0.100739
1.000000 0.000000 0.033081
1.000000 0.000000 0.130066
0.000000 0.395599 0.000000
0.000000 0.392883 0.000000
0.000000 0.384521 0.000000
0.089722 0.339569 0.000000
0.280701 0.314545 0.000000
0.514221 0.280609 0.000000
0.744141 0.230347 0.000000
0.942566 0.143799 0.000000
1.000000 0.001862 0.000000
1.000000 0.000000 0.084259
1.000000 0.000000 0.000061
1.000000 0.000000 0.077728
0.000000 0.570343 0.000000
0.000000 0.570679 0.000000
0.000000 0.570221 0.000000
0.000000 0.562378 0.000000
0.146698 0.510864 0.000000
0.436096 0.477051 0.000000
0.692902 0.442719 0.000000
0.908478 0.390900 0.000000
1.000000 0.285767 0.000000
1.000000 0.043732 0.000000
1.000000 0.000000 0.032135
1.000000 0.000000 0.000031
0.000000 0.754120 0.000000
0.000000 0.755890 0.000000
0.000000 0.758392 0.000000
0.000000 0.761261 0.000000
0.000000 0.752747 0.000000
0.271576 0.692413 0.000000
0.615692 0.650909 0.000000
0.860504 0.615692 0.000000
1.000000 0.571899 0.000000
1.000000 0.475098 0.000000
1.000000 0.113556 0.000000
1.000000 0.000000 0.000000
0.000000 0.914368 0.000000
0.000000 0.916107 0.000000
0.000000 0.919037 0.000000
0.000000 0.923401 0.000000
0.000000 0.928589 0.000000
0.000366 0.921936 0.000000
0.439209 0.851685 0.000000
0.790527 0.816254 0.000000
0.984283 0.791077 0.000000
1.000000 0.762939 0.000000
1.000000 0.679810 0.000000
1.000000 0.189545 0.000000
0.000000 1.000000 0.000000
0.000000 1.000000 0.000000
0.000000 1.000000 0.000000
0.000000 1.000000 0.000000
0.000000 1.000000 0.000000
0.000000 1.000000 0.000000
0.020111 1.000000 0.000000
0.644531 0.975586 0.000000
0.945496 0.949432 0.000000
1.000000 0.937622 0.000000
1.000000 0.920349 0.000000
1.000000 0.852142 0.000000
0.000000 1.000000 0.000000
0.000000 1.000000 0.000000
0.000000 1.000000 0.000000
0.000000 1.000000 0.000000
0.000000 1.000000 0.000000
0.000000 1.000000 0.000000
0.000000 1.000000 0.000000
0.055145 1.000000 0.000000
0.847443 1.000000 0.000000
1.000000 1.000000 0.000000
1.000000 1.000000 0.000000
1.000000 1.000000 0.000000
0.000000 1.000000 0.000000
0.000000 1.000000 0.000000
0.000000 1.000000 0.000000
0.000000 1.000000 0.000000
0.000000 1.000000 0.000000
0.000000 1.000000 0.000000
0.000000 1.000000 0.000000
0.000000 1.000000 0.000000
0.097443 1.000000 0.000000
0.990326 1.000000 0.000000
1.000000 1.000000 0.000000
1.000000 1.000000 0.000000
0.000000 1.000000 0.000000
0.000000 1.000000 0.000000
0.000000 1.000000 0.000000
0.000000 1.000000 0.000000
0.000000 1.000000 0.000000
0.000000 1.000000 0.000000
0.000000 1.000000 0.000000
0.000000 1.000000 0.000000
0.000000 1.000000 0.000000
0.135345 1.000000 0.000000
1.000000 1.000000 0.000000
1.000000 1.000000 0.000000
0.000000 0.000000 0.144592
0.004852 0.000000 0.177399
0.202820 0.000000 0.190155
0.327118 0.000000 0.197937
0.503937 0.000000 0.194183
0.698303 0.000000 0.186737
0.873810 0.000000 0.182007
1.000000 0.000000 0.178040
1.000000 0.000000 0.156921
1.000000 0.000000 0.101227
1.000000 0.000000 0.142700
1.000000 0.000000 0.224548
0.000000 0.054535 0.154663
0.032745 0.044312 0.128174
0.153778 0.021759 0.147522
0.299683 0.000092 0.174561
0.486084 0.000000 0.177673
0.690125 0.000000 0.174835
0.872314 0.000000 0.174042
1.000000 0.000000 0.173737
1.000000 0.000000 0.173706
1.000000 0.000000 0.096252
1.000000 0.000000 0.134094
1.000000 0.000000 0.216705
0.000000 0.130981 0.137207
0.000122 0.119690 0.124084
0.097107 0.097107 0.097107
0.207764 0.082672 0.095276
0.389771 0.053711 0.091309
0.646912 0.000610 0.126343
0.864197 0.000000 0.153076
1.000000 0.000000 0.162323
1.000000 0.000000 0.172699
1.000000 0.000000 0.095154
1.000000 0.000000 0.118866
1.000000 0.000000 0.202972
0.000000 0.231934 0.059357
0.000000 0.226288 0.054718
0.033417 0.195984 0.023071
0.161835 0.173340 0.042755
0.335052 0.149445 0.034790
0.557343 0.107391 0.023132
0.782837 0.044647 0.038452
1.000000 0.000000 0.129852
1.000000 0.000000 0.159119
1.000000 0.000000 0.153931
1.000000 0.000000 0.093384
1.000000 0.000000 0.177826
0.000000 0.386353 0.000000
0.000000 0.383545 0.000000
0.000000 0.375732 0.000000
0.084198 0.331635 0.000000
0.277435 0.305206 0.000000
0.512146 0.270630 0.000000
0.744171 0.217957 0.000000
0.943146 0.128937 0.000000
1.000000 0.000000 0.105621
1.000000 0.000000 0.157990
1.000000 0.000000 0.057526
1.000000 0.000000 0.131073
0.000000 0.565247 0.000000
0.000000 0.565613 0.000000
0.000000 0.565308 0.000000
0.000000 0.557983 0.000000
0.143372 0.506714 0.000000
0.435120 0.471985 0.000000
0.692810 0.437103 0.000000
0.909668 0.384064 0.000000
1.000000 0.275055 0.000000
1.000000 0.036255 0.022827
1.000000 0.000000 0.126678
1.000000 0.000000 0.041138
0.000000 0.751923 0.000000
0.000000 0.753632 0.000000
0.000000 0.756226 0.000000
0.000000 0.759216 0.000000
0.000000 0.751282 0.000000
0.269531 0.690735 0.000000
0.615662 0.648529 0.000000
0.860748 0.613098 0.000000
1.000000 0.568481 0.000000
1.000000 0.468842 0.000000
1.000000 0.102051 0.007019
1.000000 0.000000 0.000000
0.000000 0.913788 0.000000
0.000000 0.915497 0.000000
0.000000 0.918457 0.000000
0.000000 0.922882 0.000000
0.000000 0.928162 0.000000
0.000214 0.921814 0.000000
0.438110 0.851379 0.000000
0.790741 0.815521 0.000000
0.984741 0.790100 0.000000
1.000000 0.761566 0.000000
1.000000 0.676880 0.000000
1.000000 0.179840 0.000488
0.000000 1.000000 0.000000
0.000000 1.000000 0.000000
0.000000 1.000000 0.000000
0.000000 1.000000 0.000000
0.000000 1.000000 0.000000
0.000000 1.000000 0.000000
0.018921 1.000000 0.000000
0.644104 0.975739 0.000000
0.945709 0.949371 0.000000
1.000000 0.937439 0.000000
1.000000 0.919800 0.000000
1.000000 0.850922 0.000000
0.000000 1.000000 0.000000
0.000000 1.000000 0.000000
0.000000 1.000000 0.000000
0.000000 1.000000 0.000000
0.000000 1.000000 0.000000
0.000000 1.000000 0.000000
0.000000 1.000000 0.000000
0.054626 1.000000 0.000000
0.847290 1.000000 0.000000
1.000000 1.000000 0.000000
1.000000 1.000000 0.000000
1.000000 1.000000 0.000000
0.000000 1.000000 0.000000
0.000000 1.000000 0.000000
0.000000 1.000000 0.000000
0.000000 1.000000 0.000000
0.000000 1.000000 0.000000
0.000000 1.000000 0.000000
0.000000 1.000000 0.000000
0.000000 1.000000 0.000000
0.097198 1.000000 0.000000
0.990265 1.000000 0.000000
1.000000 1.000000 0.000000
1.000000 1.000000 0.000000
0.000000 1.000000 0.000000
0.000000 1.000000 0.000000
0.000000 1.000000 0.000000
0.000000 1.000000 0.000000
0.000000 1.000000 0.000000
0.000000 1.000000 0.000000
0.000000 1.000000 0.000000
0.000000 1.000000 0.000000
0.000000 1.000000 0.000000
0.135223 1.000000 0.000000
1.000000 1.000000 0.000000
1.000000 1.000000 0.000000
0.000000 0.000000 0.241821
0.000000 0.000000 0.249664
0.040405 0.000000 0.304138
0.324951 0.000000 0.307098
0.506592 0.000000 0.301819
0.701019 0.000000 0.290466
0.875031 0.000000 0.283051
1.000000 0.000000 0.276794
1.000000 0.000000 0.247925
1.000000 0.000000 0.194153
1.000000 0.000000 0.225067
1.000000 0.000000 0.288483
0.000000 0.011505 0.260712
0.000000 0.015900 0.260529
0.065491 0.007294 0.311279
0.313721 0.000000 0.297241
0.495117 0.000000 0.289337
0.695831 0.000000 0.279633
0.874725 0.000000 0.275574
1.000000 0.000000 0.273315
1.000000 0.000000 0.268127
1.000000 0.000000 0.190735
1.000000 0.000000 0.217957
1.000000 0.000000 0.281799
0.000000 0.104584 0.248047
0.000031 0.096802 0.231537
0.066406 0.083496 0.198090
0.217285 0.056122 0.210632
0.415466 0.020111 0.215271
0.672424 0.000000 0.248871
0.869019 0.000000 0.256165
1.000000 0.000000 0.261688
1.000000 0.000000 0.270844
1.000000 0.000000 0.189819
1.000000 0.000000 0.205658
1.000000 0.000000 0.270508
0.000000 0.204071 0.208282
0.000000 0.199127 0.204346
0.027344 0.171844 0.169922
0.153748 0.153748 0.153748
0.336243 0.127319 0.145508
0.562592 0.083466 0.136810
0.806000 0.008392 0.166443
1.000000 0.000000 0.232635
1.000000 0.000000 0.256531
1.000000 0.000000 0.248657
1.000000 0.000000 0.185150
1.000000 0.000000 0.249847
0.000000 0.359070 0.083405
0.000000 0.357086 0.082916
0.000000 0.350586 0.077881
0.053955 0.312683 0.040802
0.261871 0.282471 0.075928
0.501740 0.245972 0.067627
0.741943 0.189117 0.065613
0.945465 0.098389 0.091461
1.000000 0.000000 0.218903
1.000000 0.000000 0.253723
1.000000 0.000000 0.156189
1.000000 0.000000 0.211609
0.000000 0.554901 0.000000
0.000000 0.555237 0.000000
0.000000 0.554962 0.000000
0.000000 0.548737 0.000000
0.134155 0.498749 0.000000
0.431580 0.461945 0.000000
0.690613 0.425812 0.000000
0.909912 0.368988 0.000000
1.000000 0.250916 0.004547
1.000000 0.020752 0.208496
1.000000 0.000000 0.223999
1.000000 0.000000 0.138489
0.000000 0.747742 0.000000
0.000000 0.749512 0.000000
0.000000 0.752075 0.000000
0.000000 0.755249 0.000000
0.000000 0.748474 0.000000
0.264954 0.687775 0.000000
0.615021 0.644196 0.000000
0.860901 0.608154 0.000000
1.000000 0.562012 0.000000
1.000000 0.457214 0.000000
1.000000 0.078430 0.083801
1.000000 0.000000 0.078308
0.000000 0.912781 0.000000
0.000000 0.914520 0.000000
0.000000 0.917419 0.000000
0.000000 0.921753 0.000000
0.000000 0.927277 0.000000
0.000061 0.921509 0.000000
0.436310 0.850769 0.000000
0.791077 0.814148 0.000000
0.985168 0.788208 0.000000
1.000000 0.758911 0.000000
1.000000 0.671417 0.000000
1.000000 0.163605 0.035187
0.000000 1.000000 0.000000
0.000000 1.000000 0.000000
0.000000 1.000000 0.000000
0.000000 1.000000 0.000000
0.000000 1.000000 0.000000
0.000000 1.000000 0.000000
0.016998 1.000000 0.000000
0.643433 0.975922 0.000000
0.945831 0.949127 0.000000
1.000000 0.937042 0.000000
1.000000 0.918915 0.000000
1.000000 0.848785 0.000000
0.000000 1.000000 0.000000
0.000000 1.000000 0.000000
0.000000 1.000000 0.000000
0.000000 1.000000 0.000000
0.000000 1.000000 0.000000
0.000000 1.000000 0.000000
0.000000 1.000000 0.000000
0.053619 1.000000 0.000000
0.846924 1.000000 0.000000
1.000000 1.000000 0.000000
1.000000 1.000000 0.000000
1.000000 1.000000 0.000000
0.000000 1.000000 0.000000
0.000000 1.000000 0.000000
0.000000 1.000000 0.000000
0.000000 1.000000 0.000000
0.000000 1.000000 0.000000
0.000000 1.000000 0.000000
0.000000 1.000000 0.000000
0.000000 1.000000 0.000000
0.096527 1.000000 0.000000
0.990112 1.000000 0.000000
1.000000 1.000000 0.000000
1.000000 1.000000 0.000000
0.000000 1.000000 0.000000
0.000000 1.000000 0.000000
0.000000 1.000000 0.000000
0.000000 1.000000 0.000000
0.000000 1.000000 0.000000
0.000000 1.000000 0.000000
0.000000 1.000000 0.000000
0.000000 1.000000 0.000000
0.000000 1.000000 0.000000
0.134888 1.000000 0.000000
1.000000 1.000000 0.000000
1.000000 1.000000 0.000000
0.000000 0.000000 0.393707
0.000000 0.000000 0.382416
0.000000 0.000000 0.410828
0.063080 0.000000 0.489594
0.497498 0.000000 0.467529
0.699066 0.000000 0.452606
0.873535 0.000000 0.437805
1.000000 0.000000 0.421173
1.000000 0.000000 0.351013
1.000000 0.000000 0.322571
1.000000 0.000000 0.338165
1.000000 0.000000 0.377197
0.000000 0.000000 0.391937
0.000000 0.000000 0.383362
0.000000 0.000000 0.414856
0.096893 0.000000 0.515015
0.496490 0.000000 0.468201
0.698730 0.000000 0.449829
0.875885 0.000000 0.435974
1.000000 0.000000 0.423645
1.000000 0.000000 0.390015
1.000000 0.000000 0.320984
1.000000 0.000000 0.333282
1.000000 0.000000 0.372253
0.000000 0.067566 0.396881
0.000000 0.064758 0.393372
0.002502 0.054718 0.393921
0.078918 0.049438 0.453033
0.470581 0.000000 0.446289
0.686920 0.000000 0.432800
0.874329 0.000000 0.425507
1.000000 0.000000 0.419861
1.000000 0.000000 0.415466
1.000000 0.000000 0.321625
1.000000 0.000000 0.325104
1.000000 0.000000 0.364075
0.000000 0.162445 0.394440
0.000000 0.158783 0.387665
0.004242 0.140259 0.339569
0.102600 0.132446 0.321625
0.344971 0.085846 0.334381
0.579712 0.039368 0.322144
0.849731 0.000000 0.380676
1.000000 0.000000 0.401917
1.000000 0.000000 0.413666
1.000000 0.000000 0.373810
1.000000 0.000000 0.311981
1.000000 0.000000 0.349457
0.000000 0.317993 0.314606
0.000000 0.315979 0.314697
0.000000 0.309875 0.311371
0.050873 0.275360 0.269379
0.250946 0.250946 0.250946
0.506592 0.208038 0.242462
0.749878 0.148346 0.246979
0.955536 0.054413 0.275452
1.000000 0.000000 0.389740
1.000000 0.000000 0.411407
1.000000 0.000000 0.294983
1.000000 0.000000 0.322601
0.000000 0.522125 0.113556
0.000000 0.522736 0.115448
0.000000 0.523102 0.117340
0.000000 0.518982 0.113403
0.092346 0.477295 0.072479
0.412323 0.435272 0.123474
0.678436 0.397888 0.127441
0.909851 0.334534 0.140656
1.000000 0.207458 0.209045
1.000000 0.000549 0.381714
1.000000 0.000000 0.379578
1.000000 0.000000 0.272217
0.000000 0.738495 0.000000
0.000000 0.740356 0.000000
0.000000 0.742981 0.000000
0.000000 0.746185 0.000000
0.000000 0.742554 0.000000
0.251099 0.681702 0.000000
0.610901 0.634613 0.000000
0.857788 0.596588 0.000000
1.000000 0.546631 0.001495
1.000000 0.425995 0.072357
1.000000 0.054382 0.347748
1.000000 0.000000 0.242157
0.000000 0.910522 0.000000
0.000000 0.912292 0.000000
0.000000 0.915161 0.000000
0.000000 0.919525 0.000000
0.000000 0.925140 0.000000
0.000000 0.920410 0.000000
0.432007 0.849457 0.000000
0.791199 0.811401 0.000000
0.985748 0.784546 0.000000
1.000000 0.753845 0.000000
1.000000 0.660828 0.000000
1.000000 0.132660 0.152893
0.000000 1.000000 0.000000
0.000000 1.000000 0.000000
0.000000 1.000000 0.000000
0.000000 1.000000 0.000000
0.000000 1.000000 0.000000
0.000000 1.000000 0.000000
0.013397 1.000000 0.000000
0.641968 0.976288 0.000000
0.946045 0.948853 0.000000
1.000000 0.936127 0.000000
1.000000 0.917328 0.000000
1.000000 0.844788 0.000000
0.000000 1.000000 0.000000
0.000000 1.000000 0.000000
0.000000 1.000000 0.000000
0.000000 1.000000 0.000000
0.000000 1.000000 0.000000
0.000000 1.000000 0.000000
0.000000 1.000000 0.000000
0.051910 1.000000 0.000000
0.846130 1.000000 0.000000
1.000000 1.000000 0.000000
1.000000 1.000000 0.000000
1.000000 1.000000 0.000000
0.000000 1.000000 0.000000
0.000000 1.000000 0.000000
0.000000 1.000000 0.000000
0.000000 1.000000 0.000000
0.000000 1.000000 0.000000
0.000000 1.000000 0.000000
0.000000 1.000000 0.000000
0.000000 1.000000 0.000000
0.095337 1.000000 0.000000
0.989838 1.000000 0.000000
1.000000 1.000000 0.000000
1.000000 1.000000 0.000000
0.000000 1.000000 0.000000
0.000000 1.000000 0.000000
0.000000 1.000000 0.000000
0.000000 1.000000 0.000000
0.000000 1.000000 0.000000
0.000000 1.000000 0.000000
0.000000 1.000000 0.000000
0.000000 1.000000 0.000000
0.000000 1.000000 0.000000
0.134277 1.000000 0.000000
1.000000 1.000000 0.000000
1.000000 1.000000 0.000000
0.000000 0.000000 0.569885
0.000000 0.000000 0.554688
0.000000 0.000000 0.557526
0.000000 0.000000 0.603271
0.193604 0.000000 0.694122
0.648315 0.000000 0.602051
0.842834 0.000000 0.589966
0.976013 0.000000 0.553253
1.000000 0.000000 0.495026
1.000000 0.000000 0.475250
1.000000 0.000000 0.476654
1.000000 0.000000 0.496185
0.000000 0.000000 0.568481
0.000000 0.000000 0.563477
0.000000 0.000000 0.553131
0.000000 0.000000 0.596100
0.202789 0.000000 0.715118
0.684082 0.000000 0.640167
0.866791 0.000000 0.619080
0.997833 0.000000 0.590485
1.000000 0.000000 0.506439
1.000000 0.000000 0.475433
1.000000 0.000000 0.473877
1.000000 0.000000 0.492584
0.000000 0.000000 0.570587
0.000000 0.000000 0.580078
0.000000 0.000336 0.572784
0.000000 0.001495 0.628204
0.209839 0.000000 0.734894
0.687836 0.000000 0.646698
0.873077 0.000000 0.625122
1.000000 0.000000 0.604401
1.000000 0.000000 0.563416
1.000000 0.000000 0.477509
1.000000 0.000000 0.469452
1.000000 0.000000 0.486786
0.000000 0.109589 0.576843
0.000000 0.109131 0.571899
0.000000 0.101868 0.551971
0.024902 0.090424 0.539886
0.136200 0.076233 0.636902
0.652496 0.000000 0.617432
0.867371 0.000000 0.614777
1.000000 0.000000 0.605408
1.000000 0.000000 0.597046
1.000000 0.000000 0.497314
1.000000 0.000000 0.463074
1.000000 0.000000 0.476501
0.000000 0.249512 0.581635
0.000000 0.247559 0.579163
0.000000 0.243042 0.570679
0.033295 0.217651 0.504242
0.170227 0.210297 0.484741
0.519104 0.136108 0.501221
0.764709 0.075745 0.492828
0.997253 0.000427 0.561462
1.000000 0.000000 0.600098
1.000000 0.000000 0.595154
1.000000 0.000000 0.457703
1.000000 0.000000 0.459015
0.000000 0.466766 0.471130
0.000000 0.467316 0.473358
0.000000 0.467682 0.476013
0.000000 0.464539 0.475037
0.083405 0.427643 0.426514
0.395630 0.395630 0.395630
0.685211 0.349060 0.396149
0.921936 0.273804 0.419006
1.000000 0.135284 0.475555
1.000000 0.000000 0.611938
1.000000 0.000000 0.562531
1.000000 0.000000 0.430481
0.000000 0.701752 0.205688
0.000000 0.703979 0.208862
0.000000 0.707245 0.213593
0.000000 0.711548 0.219940
0.000000 0.711517 0.216980
0.188812 0.662140 0.158264
0.585266 0.605835 0.214478
0.842041 0.566315 0.226257
1.000000 0.507904 0.261322
1.000000 0.368408 0.391968
1.000000 0.025604 0.613129
1.000000 0.000000 0.425873
0.000000 0.904236 0.000000
0.000000 0.906067 0.000000
0.000000 0.908936 0.000000
0.000000 0.913452 0.000000
0.000000 0.919128 0.000000
0.000000 0.916412 0.000000
0.417755 0.845703 0.000000
0.786530 0.803711 0.000000
0.983002 0.774414 0.000916
1.000000 0.739777 0.020447
1.000000 0.627625 0.162354
1.000000 0.088348 0.529785
0.000000 1.000000 0.000000
0.000000 1.000000 0.000000
0.000000 1.000000 0.000000
0.000000 1.000000 0.000000
0.000000 1.000000 0.000000
0.000000 1.000000 0.000000
0.007660 1.000000 0.000000
0.638245 0.976471 0.000000
0.945923 0.947784 0.000000
1.000000 0.934113 0.000000
1.000000 0.913940 0.000000
1.000000 0.836487 0.000000
0.000000 1.000000 0.000000
0.000000 1.000000 0.000000
0.000000 1.000000 0.000000
0.000000 1.000000 0.000000
0.000000 1.000000 0.000000
0.000000 1.000000 0.000000
0.000000 1.000000 0.000000
0.048615 1.000000 0.000000
0.844452 1.000000 0.000000
1.000000 1.000000 0.000000
1.000000 1.000000 0.000000
1.000000 1.000000 0.000000
0.000000 1.000000 0.000000
0.000000 1.000000 0.000000
0.000000 1.000000 0.000000
0.000000 1.000000 0.000000
0.000000 1.000000 0.000000
0.000000 1.000000 0.000000
0.000000 1.000000 0.000000
0.000000 1.000000 0.000000
0.093353 1.000000 0.000000
0.989136 1.000000 0.000000
1.000000 1.000000 0.000000
1.000000 1.000000 0.000000
0.000000 1.000000 0.000000
0.000000 1.000000 0.000000
0.000000 1.000000 0.000000
0.000000 1.000000 0.000000
0.000000 1.000000 0.000000
0.000000 1.000000 0.000000
0.000000 1.000000 0.000000
0.000000 1.000000 0.000000
0.000000 1.000000 0.000000
0.133240 1.000000 0.000000
1.000000 1.000000 0.000000
1.000000 1.000000 0.000000
0.000000 0.000000 0.742920
0.000000 0.000000 0.737823
0.000000 0.000000 0.720367
0.000000 0.000000 0.737183
0.000000 0.000000 0.811035
0.412750 0.000000 0.847870
0.783508 0.000000 0.723999
0.939697 0.000000 0.690430
1.000000 0.000000 0.663391
1.000000 0.000000 0.647766
1.000000 0.000000 0.642181
1.000000 0.000000 0.644989
0.000000 0.000000 0.742188
0.000000 0.000000 0.739197
0.000000 0.000000 0.719513
0.000000 0.000000 0.731140
