assets/configs/ColorAnd3dLutPreset/CubeLUTFiles/GPLog 709 Style.CUBE
#Created by: Adobe Photoshop Export Color Lookup Plugin
#Copyright: (C) Copyright 2024 Wondershare Andy Zhang
TITLE "GPLog 709 Style"
#LUT size
LUT_3D_SIZE 4
#data domain
#LUT data points
DOMAIN_MIN 0.000000 0.000000 0.000000
DOMAIN_MAX 0.818182 0.818182 0.818182
0.000000 0.000000 0.000000
0.321350 0.000000 0.067444
0.872437 0.000000 0.082214
1.000000 0.000000 0.002472
0.000000 0.258606 0.000000
0.176544 0.196106 0.000000
0.777863 0.075867 0.000000
1.000000 0.000000 0.067505
0.000000 0.755371 0.000000
0.000000 0.762329 0.000000
0.615601 0.652222 0.000000
1.000000 0.478577 0.000000
0.000000 1.000000 0.000000
0.000000 1.000000 0.000000
0.000000 1.000000 0.000000
1.000000 1.000000 0.000000
0.000000 0.000000 0.241821
0.324951 0.000000 0.307098
0.875031 0.000000 0.283051
1.000000 0.000000 0.194153
0.000000 0.204071 0.208282
0.153748 0.153748 0.153748
0.806000 0.008392 0.166443
1.000000 0.000000 0.248657
0.000000 0.747742 0.000000
0.000000 0.755249 0.000000
0.615021 0.644196 0.000000
1.000000 0.457214 0.000000
0.000000 1.000000 0.000000
0.000000 1.000000 0.000000
0.000000 1.000000 0.000000
1.000000 1.000000 0.000000
0.000000 0.000000 0.742920
0.000000 0.000000 0.737183
0.783508 0.000000 0.723999
1.000000 0.000000 0.647766
0.000000 0.000122 0.749969
0.000000 0.002869 0.757904
0.862701 0.000000 0.814392
1.000000 0.000000 0.657715
0.000000 0.636993 0.665466
0.000000 0.647736 0.678436
0.561768 0.561768 0.561768
1.000000 0.265411 0.709930
0.000000 1.000000 0.000000
0.000000 1.000000 0.000000
0.000000 1.000000 0.000000
1.000000 1.000000 0.000000
0.000000 0.000000 1.000000
0.000000 0.000000 1.000000
0.034454 0.000000 1.000000
1.000000 0.000000 0.998199
0.000000 0.000000 1.000000
0.000000 0.000000 1.000000
0.005280 0.000000 1.000000
1.000000 0.000000 1.000000
0.000000 0.000000 1.000000
0.000000 0.000000 1.000000
0.006622 0.005371 1.000000
1.000000 0.000000 1.000000
0.000000 1.000000 1.000000
0.000000 1.000000 1.000000
0.000000 1.000000 1.000000
0.975800 0.975800 0.975800
