assets/configs/ColorAnd3dLutPreset/CubeLUTFiles/NLog 709 Style.CUBE
#Created by: Adobe Photoshop Export Color Lookup Plugin
#Copyright: (C) Copyright 2024 Wondershare Andy Zhang
TITLE "NLog 709 Style"
#LUT size
LUT_3D_SIZE 4
#data domain
#LUT data points
DOMAIN_MIN 0.000000 0.000000 0.000000
DOMAIN_MAX 0.818182 0.818182 0.818182
0.016113 0.000793 0.016907
0.323700 0.015228 0.046722
0.809021 0.038055 0.100159
0.887726 0.041748 0.132019
0.012390 0.263611 0.014709
0.260345 0.225159 0.012268
0.803436 0.041534 0.037781
0.888763 0.069550 0.109558
0.060638 0.780273 0.036682
0.100464 0.775116 0.036438
0.762177 0.707367 0.035828
0.885651 0.402863 0.041656
0.083405 0.882660 0.041504
0.110718 0.882629 0.041504
0.137512 0.881927 0.041473
0.880188 0.834930 0.041382
0.012451 0.022186 0.264954
0.316864 0.014893 0.281555
0.808716 0.038025 0.326843
0.887726 0.041748 0.282776
0.012543 0.266541 0.255798
0.255005 0.240479 0.255768
0.804352 0.077972 0.286713
0.888794 0.070343 0.256378
0.036682 0.780304 0.206787
0.065063 0.776550 0.184387
0.757965 0.706604 0.092346
0.886505 0.380737 0.070251
0.056091 0.882660 0.041504
0.110657 0.883972 0.070129
0.137604 0.883270 0.070099
0.881287 0.837128 0.070007
0.036041 0.073822 0.766174
0.235779 0.035919 0.763611
0.806061 0.037903 0.789185
0.887634 0.041748 0.764771
0.036102 0.329193 0.767670
0.176880 0.279236 0.767334
0.801086 0.073608 0.781006
0.888733 0.070343 0.756073
0.036713 0.780518 0.728760
0.065094 0.777161 0.727600
0.772705 0.769196 0.772888
0.901794 0.408844 0.648102
0.041504 0.882660 0.587982
0.070129 0.883972 0.589111
0.098358 0.884583 0.572083
0.895477 0.867432 0.444885
0.041382 0.125336 0.880188
0.042389 0.057709 0.879547
0.661499 0.041321 0.878876
0.861084 0.041718 0.887085
0.041412 0.333099 0.880402
0.070007 0.291595 0.881104
0.636505 0.069916 0.879364
0.864380 0.070312 0.888153
0.041443 0.790375 0.881195
0.070038 0.781708 0.882233
0.548309 0.665894 0.901123
0.899841 0.383698 0.896301
0.041504 0.882629 0.838898
0.070129 0.883942 0.841431
0.098358 0.884644 0.843567
0.916168 0.915710 0.916199
