assets/configs/ColorAnd3dLutPreset/CubeLUTFiles/NLog 709 Style.CUBE
#Created by: Adobe Photoshop Export Color Lookup Plugin
#Copyright: (C) Copyright 2024 Wondershare Andy Zhang
TITLE "NLog 709 Style"
#LUT size
LUT_3D_SIZE 6
#data domain
#LUT data points
DOMAIN_MIN 0.000000 0.000000 0.000000
DOMAIN_MAX 0.909091 0.909091 0.909091
0.016113 0.000793 0.016907
0.133514 0.006287 0.028748
0.505798 0.023773 0.064148
0.809021 0.038055 0.100159
0.869476 0.040894 0.127258
0.901947 0.042419 0.123413
0.005096 0.087341 0.015503
0.101807 0.074249 0.016571
0.495789 0.027771 0.036560
0.808136 0.048706 0.078552
0.870209 0.059998 0.119537
0.902802 0.061523 0.120880
0.024994 0.436584 0.020538
0.058777 0.428894 0.022461
0.417175 0.376038 0.019623
0.799164 0.302155 0.037567
0.866882 0.040771 0.045624
0.902222 0.050110 0.063629
0.060638 0.780273 0.036682
0.091888 0.779510 0.042969
0.108459 0.764099 0.035919
0.762177 0.707367 0.035828
0.865234 0.551605 0.040680
0.901489 0.053711 0.042389
0.081635 0.863922 0.040619
0.099915 0.863861 0.040619
0.117920 0.863159 0.040588
0.142487 0.858765 0.040375
0.858917 0.812744 0.040405
0.900543 0.747803 0.042358
0.084808 0.897491 0.042206
0.102966 0.897491 0.042206
0.121124 0.897430 0.042206
0.139069 0.897308 0.042206
0.163574 0.896606 0.042175
0.896423 0.851593 0.042145
0.013031 0.004852 0.103546
0.129822 0.006104 0.110352
0.504944 0.023743 0.143463
0.808990 0.038055 0.168854
0.869476 0.040894 0.176025
0.901947 0.042419 0.153625
0.005524 0.092773 0.101624
0.095367 0.076508 0.096344
0.495209 0.042389 0.129608
0.808502 0.057098 0.155243
0.870209 0.059998 0.168182
0.902802 0.061523 0.151276
0.020538 0.436707 0.084045
0.039276 0.429840 0.073029
0.413605 0.374756 0.048523
0.799225 0.298431 0.057098
0.867676 0.059875 0.081970
0.903625 0.080475 0.123688
0.036682 0.780273 0.061554
0.055756 0.780090 0.057007
0.108429 0.764709 0.055054
0.761444 0.707794 0.054871
0.865875 0.548645 0.059784
0.902405 0.061523 0.067474
0.061523 0.863922 0.040619
0.099243 0.864777 0.059753
0.117859 0.864075 0.059723
0.140961 0.859619 0.059509
0.859619 0.814301 0.059509
0.901428 0.747833 0.061462
0.066650 0.897491 0.042206
0.103027 0.898376 0.061340
0.120972 0.898315 0.061310
0.138947 0.898193 0.061310
0.163147 0.897491 0.061279
0.897308 0.853424 0.061279
0.019897 0.039978 0.423187
0.084106 0.019775 0.420898
0.495941 0.023315 0.449432
0.808258 0.037994 0.473145
0.869415 0.040894 0.473358
0.901917 0.042419 0.426208
0.019928 0.123444 0.423706
0.070984 0.105560 0.420685
0.486023 0.041931 0.443298
0.807800 0.057068 0.467255
0.870148 0.059998 0.469025
0.902802 0.061523 0.422791
0.020599 0.437988 0.410370
0.039368 0.431274 0.406311
0.414825 0.404449 0.415375
0.810577 0.340912 0.434235
0.868530 0.078827 0.409851
0.903595 0.080475 0.385742
0.036682 0.780304 0.403412
0.055756 0.780212 0.402405
0.074005 0.765869 0.357788
0.767426 0.731293 0.364166
0.875366 0.542877 0.294617
0.904175 0.099274 0.214020
0.040619 0.863953 0.207458
0.059753 0.864807 0.207764
0.078644 0.864990 0.192108
0.119995 0.860962 0.097260
0.857422 0.812347 0.078308
0.902191 0.724640 0.080414
0.048462 0.897491 0.042206
0.085022 0.898346 0.061310
0.121063 0.899200 0.080261
0.139038 0.899078 0.080261
0.156921 0.898346 0.080231
0.898041 0.854919 0.080200
0.036041 0.073822 0.766174
0.035950 0.054077 0.764252
0.442505 0.035919 0.764099
0.806061 0.037903 0.789185
0.869232 0.040863 0.762848
0.901917 0.042419 0.765930
0.036041 0.157135 0.766479
0.055084 0.137299 0.765503
0.433472 0.054993 0.763519
0.805542 0.056946 0.787262
0.869965 0.059998 0.760223
0.902802 0.061523 0.764771
0.036194 0.491302 0.769501
0.055237 0.484314 0.768799
0.391571 0.432373 0.774780
0.807465 0.336273 0.779755
0.868378 0.078827 0.722839
0.903595 0.080475 0.750671
0.036713 0.780518 0.728760
0.055786 0.780487 0.729706
0.074066 0.767273 0.719391
0.772705 0.769196 0.772888
0.888641 0.583649 0.685059
0.904114 0.099274 0.674011
0.040619 0.863983 0.673004
0.059753 0.864838 0.674194
0.078674 0.865051 0.668854
0.097260 0.861298 0.620117
0.880371 0.861145 0.610870
0.922150 0.722290 0.508698
0.042206 0.897461 0.259766
0.061310 0.898346 0.261169
0.080261 0.899200 0.258606
0.099091 0.899963 0.247498
0.117737 0.900024 0.143341
0.898102 0.854584 0.098999
0.040375 0.107117 0.858734
0.051453 0.083984 0.858826
0.307892 0.040283 0.856415
0.706299 0.040314 0.857513
0.850433 0.040863 0.868622
0.901794 0.042419 0.881866
0.040375 0.170868 0.858856
0.059479 0.155762 0.859314
0.293243 0.059387 0.856964
0.704041 0.059418 0.858063
0.852539 0.059967 0.869324
0.902649 0.061523 0.881287
0.040436 0.484955 0.859863
0.059540 0.478973 0.860443
0.165710 0.393738 0.861176
0.693542 0.296448 0.867157
0.857300 0.078796 0.867706
0.903503 0.080475 0.875977
0.040497 0.794891 0.861420
0.059631 0.793213 0.862183
0.078461 0.767883 0.860901
0.649811 0.698853 0.883179
0.887390 0.577301 0.874451
0.903992 0.099274 0.840729
0.040619 0.864014 0.820190
0.059753 0.864868 0.821808
0.078674 0.865173 0.823120
0.097321 0.862244 0.820404
0.891968 0.891022 0.892029
0.933533 0.754120 0.792633
0.042206 0.897430 0.810791
0.061310 0.898315 0.812500
0.080261 0.899170 0.813812
0.099091 0.899963 0.813934
0.117737 0.900085 0.792938
0.928925 0.917236 0.775391
0.042175 0.133362 0.896729
0.061279 0.127014 0.897583
0.042145 0.048401 0.896393
0.570618 0.042145 0.896057
0.790894 0.042145 0.896423
0.869141 0.042389 0.901428
0.042175 0.175903 0.896759
0.061279 0.169891 0.897583
0.062866 0.087921 0.897369
0.563934 0.061249 0.896881
0.791565 0.061279 0.897308
0.870941 0.061523 0.902344
0.042175 0.483490 0.896820
0.061279 0.479462 0.897644
0.080231 0.433136 0.898315
0.490143 0.206085 0.903198
0.775970 0.080200 0.897736
0.873566 0.080444 0.903076
0.042175 0.789429 0.896881
0.061310 0.787933 0.897797
0.080231 0.767212 0.898468
0.342163 0.634979 0.909515
0.788116 0.522308 0.917938
0.881226 0.099274 0.903625
0.042175 0.896667 0.896881
0.061310 0.896576 0.897797
0.080231 0.894257 0.898651
0.099060 0.880676 0.899231
0.787018 0.805420 0.930023
0.932983 0.753052 0.918671
0.042206 0.897400 0.853333
0.061310 0.898285 0.855164
0.080261 0.899139 0.856750
0.099091 0.899902 0.858643
0.117737 0.900146 0.859467
0.935608 0.935364 0.935608
