assets/configs/ColorAnd3dLutPreset/CubeLUTFiles/NLog 709 Style.CUBE
#Created by: Adobe Photoshop Export Color Lookup Plugin
#Copyright: (C) Copyright 2024 Wondershare Andy Zhang
TITLE "NLog 709 Style"
#LUT size
LUT_3D_SIZE 12
#data domain
DOMAIN_MIN 0.0 0.0 0.0
DOMAIN_MAX 1.0 1.0 1.0
#LUT data points
0.016113 0.000793 0.016907
0.026398 0.001221 0.018585
0.133514 0.006287 0.028748
0.323700 0.015228 0.046722
0.505798 0.023773 0.064148
0.707062 0.033264 0.085083
0.809021 0.038055 0.100159
0.845276 0.039764 0.113312
0.869476 0.040894 0.127258
0.887726 0.041748 0.132019
0.901947 0.042419 0.123413
0.907318 0.042664 0.094177
0.016998 0.010376 0.017334
0.026855 0.010834 0.018616
0.133972 0.015869 0.028717
0.324158 0.024811 0.046722
0.506256 0.033386 0.064209
0.707520 0.042847 0.085052
0.809479 0.047638 0.100281
0.845734 0.049347 0.113312
0.869904 0.050476 0.127106
0.888153 0.051331 0.131836
0.902374 0.052002 0.123413
0.907745 0.051483 0.093292
0.005096 0.087341 0.015503
0.014648 0.087769 0.016388
0.101807 0.074249 0.016571
0.309692 0.048950 0.023682
0.495789 0.027771 0.036560
0.701599 0.037262 0.056244
0.808136 0.048706 0.078552
0.845673 0.058838 0.102264
0.870209 0.059998 0.119537
0.888550 0.060852 0.127350
0.902802 0.061523 0.120880
0.907684 0.050171 0.081787
0.012390 0.263611 0.014709
0.028351 0.264069 0.021973
0.043304 0.251221 0.013550
0.260345 0.225159 0.012268
0.470245 0.200012 0.022125
0.682434 0.148956 0.032104
0.803436 0.041534 0.037781
0.842773 0.039642 0.052399
0.868988 0.049500 0.071320
0.888763 0.069550 0.109558
0.903259 0.070892 0.112152
0.907471 0.045593 0.064117
0.024994 0.436584 0.020538
0.043243 0.437042 0.030121
0.058777 0.428894 0.022461
0.136047 0.407745 0.019165
0.417175 0.376038 0.019623
0.646027 0.353973 0.030365
0.799164 0.302155 0.037567
0.840851 0.181580 0.039551
0.866882 0.040771 0.045624
0.887054 0.041718 0.047485
0.902222 0.050110 0.063629
0.907318 0.042664 0.049408
0.040314 0.611725 0.028778
0.058533 0.612183 0.038361
0.075684 0.607819 0.035736
0.083069 0.589996 0.027740
0.335785 0.571777 0.026886
0.580597 0.530090 0.027313
0.790833 0.493683 0.037201
0.839264 0.421021 0.039459
0.866028 0.296844 0.040741
0.886078 0.044952 0.041656
0.901733 0.044922 0.042419
0.907318 0.044769 0.042664
0.060638 0.780273 0.036682
0.078918 0.780731 0.046295
0.091888 0.779510 0.042969
0.100464 0.775116 0.036438
0.108459 0.764099 0.035919
0.495148 0.757324 0.035614
0.762177 0.707367 0.035828
0.836243 0.638367 0.039337
0.865234 0.551605 0.040680
0.885651 0.402863 0.041656
0.901489 0.053711 0.042389
0.907318 0.053864 0.042664
0.076752 0.836914 0.039368
0.088165 0.837036 0.041748
0.097351 0.836700 0.039337
0.106201 0.835815 0.039307
0.115051 0.833649 0.039215
0.128510 0.827942 0.038940
0.625488 0.826141 0.038849
0.828278 0.780884 0.038940
0.863464 0.729858 0.040619
0.884979 0.685455 0.041626
0.901184 0.537842 0.042389
0.907318 0.062714 0.042664
0.081635 0.863922 0.040619
0.090668 0.863922 0.040619
0.099915 0.863861 0.040619
0.108948 0.863678 0.040619
0.117920 0.863159 0.040588
0.126770 0.862030 0.040527
0.142487 0.858765 0.040375
0.773254 0.857666 0.040344
0.858917 0.812744 0.040405
0.883606 0.774658 0.041565
0.900543 0.747803 0.042358
0.907318 0.683563 0.042664
0.083405 0.882660 0.041504
0.092438 0.882660 0.041504
0.101685 0.882629 0.041504
0.110718 0.882629 0.041504
0.119751 0.882568 0.041504
0.128754 0.882324 0.041504
0.137512 0.881927 0.041473
0.154633 0.880219 0.041382
0.847992 0.879517 0.041351
0.880188 0.834930 0.041382
0.899292 0.808685 0.042297
0.907318 0.791626 0.042664
0.084808 0.897491 0.042206
0.093994 0.897491 0.042206
0.102966 0.897491 0.042206
0.112152 0.897461 0.042206
0.121124 0.897430 0.042206
0.130096 0.897400 0.042206
0.139069 0.897308 0.042206
0.148010 0.897095 0.042175
0.163574 0.896606 0.042175
0.889679 0.896149 0.042145
0.896423 0.851593 0.042145
0.907318 0.835754 0.042664
0.085724 0.907318 0.042664
0.094818 0.907318 0.042664
0.103882 0.907318 0.042664
0.112946 0.907318 0.042664
0.122040 0.907318 0.042664
0.130890 0.907318 0.042664
0.139984 0.907318 0.042664
0.148834 0.907318 0.042664
0.157715 0.907318 0.042664
0.169525 0.907318 0.042664
0.907318 0.895721 0.042664
0.907318 0.864258 0.042664
0.016083 0.001221 0.026398
0.025146 0.001221 0.026398
0.133514 0.006287 0.037781
0.323700 0.015228 0.055817
0.505798 0.023773 0.073212
0.707062 0.033264 0.093964
0.809021 0.038055 0.109192
0.845276 0.039764 0.122375
0.869476 0.040894 0.136169
0.887726 0.041748 0.140900
0.901947 0.042419 0.132233
0.907318 0.042664 0.103241
0.016998 0.010834 0.026855
0.026062 0.010834 0.026855
0.133972 0.015869 0.037781
0.324158 0.024811 0.055786
0.506256 0.033386 0.073212
0.707520 0.042847 0.093964
0.809479 0.047638 0.109192
0.845734 0.049347 0.122467
0.869904 0.050476 0.136108
0.888153 0.051331 0.140808
0.902374 0.052002 0.132355
0.907776 0.052246 0.103210
0.005096 0.087341 0.024567
0.014648 0.087769 0.025452
0.102264 0.075165 0.026123
0.310150 0.049896 0.033203
0.496246 0.037354 0.054840
0.702057 0.046844 0.074524
0.808533 0.057098 0.095612
0.845673 0.058838 0.111267
0.870209 0.059998 0.128448
0.888550 0.060852 0.136230
0.902802 0.061523 0.129913
0.908142 0.059723 0.099915
0.012390 0.263611 0.023804
0.021973 0.264069 0.024689
0.043304 0.251678 0.023102
0.260773 0.226074 0.021851
0.470703 0.200928 0.031708
0.682892 0.149872 0.041687
0.803894 0.047363 0.052338
0.843231 0.049225 0.070557
0.869446 0.059052 0.089508
0.888794 0.070343 0.119293
0.903259 0.071045 0.121429
0.907928 0.055176 0.082245
0.020538 0.436584 0.025208
0.034180 0.437042 0.030121
0.058685 0.429352 0.032013
0.136017 0.408203 0.028748
0.417633 0.376953 0.029205
0.646484 0.354919 0.039978
0.799622 0.303070 0.047180
0.841309 0.182373 0.049133
0.867310 0.050354 0.063904
0.887482 0.051300 0.065796
0.902649 0.059692 0.081909
0.907776 0.052246 0.067688
0.031189 0.611725 0.028778
0.049438 0.612183 0.038361
0.075653 0.608246 0.045288
0.082977 0.590454 0.037323
0.335754 0.572235 0.036469
0.581055 0.530975 0.036896
0.791290 0.494476 0.046783
0.839722 0.421997 0.049042
0.866486 0.297791 0.050323
0.886536 0.051270 0.056763
0.902191 0.052002 0.058228
0.907776 0.052246 0.058716
0.051575 0.780273 0.036682
0.069977 0.780731 0.046295
0.091919 0.779938 0.052490
0.100555 0.775574 0.046051
0.108551 0.764557 0.045532
0.495056 0.757751 0.045197
0.762634 0.708344 0.045441
0.836700 0.639374 0.048920
0.865692 0.552338 0.050293
0.886108 0.403870 0.051239
0.901947 0.054657 0.051971
0.907776 0.054749 0.052246
0.067810 0.836914 0.039368
0.085907 0.837372 0.048950
0.097260 0.837158 0.048950
0.106171 0.836243 0.048889
0.115143 0.834106 0.048798
0.128479 0.828369 0.048523
0.625397 0.826599 0.048431
0.828735 0.781891 0.048553
0.863922 0.730804 0.050201
0.885437 0.686249 0.051208
0.901642 0.538818 0.051971
0.907776 0.063721 0.052246
0.072571 0.863922 0.040619
0.090759 0.864380 0.050201
0.099884 0.864319 0.050201
0.108826 0.864105 0.050201
0.117889 0.863617 0.050171
0.126709 0.862488 0.050140
0.142456 0.859222 0.049988
0.773285 0.858124 0.049927
0.859375 0.813721 0.049988
0.884064 0.775482 0.051147
0.901001 0.748657 0.051941
0.907776 0.684296 0.052246
0.074371 0.882660 0.041504
0.092529 0.883118 0.051086
0.101654 0.883087 0.051086
0.110596 0.883087 0.051086
0.119720 0.882996 0.051086
0.128662 0.882782 0.051086
0.137512 0.882355 0.051056
0.154694 0.880676 0.050995
0.847992 0.879974 0.050964
0.880646 0.835876 0.050995
0.899750 0.809509 0.051880
0.907776 0.792694 0.052246
0.075623 0.897491 0.042206
0.093933 0.897919 0.051788
0.103027 0.897919 0.051788
0.112091 0.897888 0.051788
0.120972 0.897858 0.051788
0.130066 0.897827 0.051788
0.138947 0.897766 0.051788
0.148010 0.897552 0.051788
0.163605 0.897064 0.051758
0.889771 0.896576 0.051727
0.896881 0.852509 0.051758
0.907776 0.836761 0.052246
0.076660 0.907318 0.042664
0.094849 0.907776 0.052246
0.103851 0.907776 0.052246
0.113037 0.907776 0.052246
0.122009 0.907776 0.052246
0.130981 0.907776 0.052246
0.139984 0.907776 0.052246
0.148956 0.907776 0.052246
0.157715 0.907776 0.052246
0.169434 0.907776 0.052246
0.907776 0.896698 0.052246
0.907776 0.865173 0.052246
0.013031 0.004852 0.103546
0.022125 0.004852 0.103546
0.129822 0.006104 0.110352
0.322205 0.015137 0.127808
0.504944 0.023743 0.143463
0.706635 0.033234 0.161316
0.808990 0.038055 0.168854
0.845276 0.039764 0.172119
0.869476 0.040894 0.176025
0.887726 0.041748 0.171661
0.901947 0.042419 0.153625
0.907318 0.042664 0.120972
0.014465 0.014954 0.104004
0.023071 0.014465 0.104004
0.130249 0.015686 0.110321
0.322662 0.024750 0.127808
0.505371 0.033325 0.143372
0.707062 0.042816 0.161194
0.809448 0.047638 0.168915
0.845734 0.049347 0.172241
0.869904 0.050476 0.175903
0.888153 0.051331 0.171661
0.902374 0.052002 0.153717
0.907776 0.052246 0.120972
0.005524 0.092773 0.101624
0.015076 0.092773 0.102081
0.095367 0.076508 0.096344
0.307800 0.061188 0.115143
0.495209 0.042389 0.129608
0.701874 0.052094 0.146973
0.808502 0.057098 0.155243
0.845642 0.058838 0.161407
0.870209 0.059998 0.168182
0.888550 0.060852 0.166931
0.902802 0.061523 0.151276
0.908234 0.061798 0.119659
0.012390 0.263794 0.091248
0.022003 0.264252 0.092194
0.031860 0.252106 0.080261
0.257477 0.227356 0.081512
0.469574 0.201080 0.084625
0.682617 0.147888 0.083710
0.804474 0.073059 0.103607
0.844086 0.068268 0.119965
0.869934 0.069458 0.139435
0.888794 0.070343 0.150055
0.903259 0.071045 0.142975
0.908661 0.071289 0.115234
0.020538 0.436707 0.084045
0.030121 0.437134 0.084961
0.039276 0.429840 0.073029
0.125000 0.405457 0.052856
0.413605 0.374756 0.048523
0.644165 0.351746 0.052368
0.799225 0.298431 0.057098
0.841217 0.175751 0.058624
0.867676 0.059875 0.081970
0.888397 0.070831 0.102966
0.903625 0.080475 0.123688
0.908325 0.063934 0.089905
0.028778 0.611755 0.076324
0.038361 0.612213 0.077179
0.047699 0.608429 0.068359
0.083069 0.591370 0.054626
0.327972 0.569427 0.045868
0.577606 0.528564 0.046234
0.790649 0.491577 0.056244
0.839661 0.417847 0.058563
0.866669 0.292084 0.059845
0.886963 0.060791 0.074921
0.902618 0.061523 0.076294
0.908234 0.061798 0.076874
0.036682 0.780273 0.061554
0.046295 0.780731 0.062622
0.055756 0.780090 0.057007
0.098755 0.776489 0.065063
0.108429 0.764709 0.055054
0.489868 0.756775 0.054657
0.761444 0.707794 0.054871
0.836609 0.636749 0.058411
0.865875 0.548645 0.059784
0.886414 0.399597 0.060760
0.902405 0.061523 0.067474
0.908234 0.061798 0.067993
0.039368 0.836914 0.040527
0.056458 0.837372 0.048950
0.078644 0.837616 0.058472
0.106262 0.836914 0.063202
0.114990 0.834534 0.058319
0.126160 0.828705 0.058044
0.621399 0.826477 0.057953
0.828613 0.782135 0.058044
0.864166 0.729248 0.059723
0.885773 0.683929 0.060730
0.902039 0.536133 0.061493
0.908234 0.064484 0.061798
0.061523 0.863922 0.040619
0.079834 0.864380 0.050201
0.099243 0.864777 0.059753
0.108856 0.864563 0.059723
0.117859 0.864075 0.059723
0.126740 0.862946 0.059662
0.140961 0.859619 0.059509
0.770752 0.858337 0.059448
0.859619 0.814301 0.059509
0.884430 0.775238 0.060669
0.901428 0.747833 0.061462
0.908234 0.683411 0.061798
0.065125 0.882660 0.041504
0.083374 0.883118 0.051086
0.101624 0.883545 0.060638
0.110657 0.883545 0.060638
0.119690 0.883453 0.060638
0.128693 0.883209 0.060608
0.137482 0.882812 0.060608
0.153687 0.881104 0.060516
0.846954 0.880371 0.060486
0.881042 0.836578 0.060516
0.900177 0.809875 0.061401
0.908234 0.792725 0.061798
0.066650 0.897491 0.042206
0.084839 0.897919 0.051788
0.103027 0.898376 0.061340
0.112000 0.898346 0.061310
0.120972 0.898315 0.061310
0.129974 0.898285 0.061310
0.138947 0.898193 0.061310
0.147919 0.898010 0.061310
0.163147 0.897491 0.061279
0.889282 0.897034 0.061249
0.897308 0.853424 0.061279
0.908234 0.837341 0.061798
0.067566 0.907318 0.042664
0.085876 0.907776 0.052246
0.103943 0.908234 0.061798
0.113037 0.908234 0.061798
0.121948 0.908234 0.061798
0.131012 0.908234 0.061798
0.139923 0.908234 0.061798
0.148804 0.908234 0.061798
0.157684 0.908234 0.061798
0.169250 0.908234 0.061798
0.908234 0.897705 0.061798
0.908234 0.866089 0.061798
0.012451 0.022186 0.264954
0.012451 0.013062 0.264954
0.110657 0.012390 0.263672
0.316864 0.014893 0.281555
0.501862 0.023590 0.299866
0.705017 0.033142 0.320862
0.808716 0.038025 0.326843
0.845215 0.039734 0.327637
0.869476 0.040894 0.322479
0.887726 0.041748 0.282776
0.901947 0.042419 0.223724
0.907318 0.042664 0.162994
0.015472 0.034180 0.265106
0.022034 0.031372 0.265411
0.111603 0.021973 0.264130
0.317322 0.024475 0.281586
0.502319 0.033173 0.299805
0.705475 0.042755 0.320892
0.809174 0.047607 0.326874
0.845673 0.049347 0.327545
0.869904 0.050476 0.322357
0.888153 0.051331 0.282806
0.902374 0.052002 0.223907
0.907776 0.052246 0.163147
0.012451 0.108246 0.265076
0.022064 0.108246 0.265533
0.083160 0.084869 0.261658
0.302002 0.059479 0.273285
0.492126 0.042206 0.290771
0.700073 0.052002 0.311646
0.808258 0.057098 0.317871
0.845581 0.058838 0.319489
0.870178 0.059998 0.315552
0.888550 0.060852 0.277069
0.902802 0.061523 0.220917
0.908234 0.061798 0.161621
0.012543 0.266541 0.255798
0.022125 0.266998 0.256775
0.031494 0.257599 0.251190
0.255005 0.240479 0.255768
0.471375 0.223267 0.273529
0.683777 0.177521 0.288025
0.804352 0.077972 0.286713
0.844025 0.068237 0.287384
0.869904 0.069458 0.288727
0.888794 0.070343 0.256378
0.903259 0.071045 0.210632
0.908661 0.071289 0.156738
0.020538 0.437134 0.255676
0.030151 0.437592 0.256561
0.039307 0.430328 0.248566
0.093903 0.405792 0.222809
0.415436 0.389130 0.238831
0.648407 0.365173 0.242920
0.806091 0.308136 0.231873
0.847015 0.199768 0.223785
0.868561 0.078827 0.220551
0.888824 0.079773 0.213501
0.903625 0.080475 0.187988
0.909119 0.080719 0.146851
0.028778 0.611938 0.248901
0.038361 0.612366 0.249817
0.047699 0.608612 0.243805
0.056396 0.591827 0.215363
0.311829 0.571472 0.204102
0.576294 0.536896 0.195557
0.794403 0.496307 0.187256
0.842682 0.413971 0.151886
0.867615 0.274109 0.098328
0.887878 0.082214 0.115662
0.903961 0.089905 0.145966
0.909515 0.088867 0.128540
0.036682 0.780304 0.206787
0.046295 0.780762 0.207672
0.055756 0.780151 0.203613
0.065063 0.776550 0.184387
0.073975 0.765503 0.125122
0.473297 0.754883 0.106567
0.757965 0.706604 0.092346
0.835663 0.626801 0.078583
0.865356 0.532013 0.069244
0.886505 0.380737 0.070251
0.902832 0.071014 0.085419
0.908661 0.071289 0.085999
0.039368 0.836945 0.132843
0.048950 0.837402 0.133850
0.058472 0.837616 0.131134
0.067932 0.837158 0.119965
0.077271 0.835480 0.090607
0.123474 0.828796 0.068939
0.605591 0.824707 0.067352
0.826874 0.780518 0.067444
0.863617 0.720856 0.069183
0.885895 0.671814 0.070221
0.902466 0.523254 0.070984
0.908661 0.071289 0.077026
0.040619 0.863922 0.069153
0.050201 0.864380 0.070068
0.059753 0.864777 0.069397
0.074097 0.865021 0.069244
0.106293 0.864990 0.078644
0.126678 0.863464 0.070129
0.135437 0.859924 0.069000
0.761047 0.857941 0.068909
0.859192 0.814240 0.068970
0.884583 0.770844 0.070160
0.901825 0.741791 0.070953
0.908661 0.677429 0.071289
0.056091 0.882660 0.041504
0.074432 0.883118 0.051086
0.092590 0.883545 0.060638
0.110657 0.883972 0.070129
0.119598 0.883911 0.070129
0.128723 0.883667 0.070129
0.137604 0.883270 0.070099
0.150055 0.881500 0.070007
0.842957 0.880554 0.069977
0.881287 0.837128 0.070007
0.900604 0.808655 0.070923
0.908661 0.790497 0.071289
0.057434 0.897491 0.042206
0.075745 0.897919 0.051788
0.094025 0.898376 0.061340
0.112061 0.898804 0.070831
0.121155 0.898773 0.070831
0.130066 0.898743 0.070831
0.138947 0.898651 0.070831
0.147980 0.898438 0.070801
0.161285 0.897949 0.070801
0.887543 0.897430 0.070770
0.897705 0.854309 0.070770
0.908661 0.837311 0.071289
0.058502 0.907318 0.042664
0.076691 0.907776 0.052246
0.094849 0.908234 0.061798
0.113007 0.908661 0.071289
0.121979 0.908661 0.071289
0.130981 0.908661 0.071289
0.139984 0.908661 0.071289
0.148987 0.908661 0.071289
0.157776 0.908661 0.071289
0.168396 0.908661 0.071289
0.908661 0.899048 0.071289
0.908661 0.866943 0.071289
0.019897 0.039978 0.423187
0.019897 0.030823 0.423187
0.084106 0.019775 0.420898
0.291504 0.019806 0.421417
0.495941 0.023315 0.449432
0.701904 0.033020 0.471161
0.808258 0.037994 0.473145
0.845062 0.039734 0.470703
0.869415 0.040894 0.473358
0.887726 0.041748 0.469482
0.901917 0.042419 0.426208
0.907318 0.042664 0.264313
0.019897 0.049133 0.423187
0.029480 0.049103 0.423645
0.085083 0.029388 0.421356
0.292419 0.029388 0.421875
0.496399 0.032898 0.449432
0.702362 0.042603 0.471069
0.808716 0.047607 0.473145
0.845520 0.049316 0.470734
0.869873 0.050476 0.473389
0.888153 0.051331 0.469330
0.902344 0.052002 0.426117
0.907776 0.052246 0.264252
0.019928 0.123444 0.423706
0.029510 0.123352 0.424164
0.070984 0.105560 0.420685
0.278595 0.062225 0.418854
0.486023 0.041931 0.443298
0.695831 0.051788 0.464844
0.807800 0.057068 0.467255
0.845459 0.058838 0.465210
0.870148 0.059998 0.469025
0.888519 0.060852 0.466187
0.902802 0.061523 0.422791
0.908234 0.061798 0.262054
0.020050 0.293549 0.426361
0.029633 0.293457 0.426788
0.038849 0.280548 0.420502
0.246460 0.252533 0.420624
0.464783 0.220978 0.431763
0.679047 0.174713 0.449402
0.803741 0.077118 0.446991
0.843933 0.068237 0.443573
0.869873 0.069458 0.452271
0.888794 0.070343 0.454590
0.903259 0.071045 0.411377
0.908661 0.071289 0.254669
0.020599 0.437988 0.410370
0.030182 0.438416 0.411194
0.039368 0.431274 0.406311
0.071442 0.404877 0.387939
0.414825 0.404449 0.415375
0.650421 0.391113 0.435059
0.810577 0.340912 0.434235
0.847168 0.206360 0.408966
0.868530 0.078827 0.409851
0.888824 0.079773 0.427399
0.903595 0.080475 0.385742
0.909119 0.080719 0.240295
0.028778 0.612183 0.412506
0.038391 0.612640 0.413422
0.047699 0.608856 0.409943
0.056427 0.592407 0.392334
0.284119 0.574646 0.384552
0.580292 0.555664 0.401123
0.803162 0.515717 0.398010
0.852661 0.433258 0.367950
0.877686 0.317902 0.359863
0.888184 0.089172 0.360138
0.903961 0.089905 0.335754
0.909576 0.090179 0.219025
0.036682 0.780304 0.403412
0.046295 0.780762 0.404388
0.055756 0.780212 0.402405
0.065094 0.776611 0.391663
0.074005 0.765869 0.357788
0.464020 0.766479 0.371185
0.767426 0.731293 0.364166
0.846893 0.647125 0.333527
0.875366 0.542877 0.294617
0.893524 0.370331 0.230255
0.904175 0.099274 0.214020
0.910004 0.099548 0.176514
0.039368 0.836975 0.361633
0.048950 0.837433 0.362549
0.058472 0.837646 0.361115
0.067932 0.837189 0.354340
0.077271 0.835541 0.336273
0.086426 0.829742 0.279877
0.585999 0.831512 0.264313
0.832092 0.794128 0.243286
0.867615 0.716095 0.189362
0.887115 0.645874 0.113281
0.902863 0.488434 0.080444
0.909119 0.080719 0.095093
0.040619 0.863953 0.207458
0.050232 0.864410 0.208252
0.059753 0.864807 0.207764
0.069244 0.865021 0.203308
0.078644 0.864990 0.192108
0.088043 0.864319 0.166687
0.119995 0.860962 0.097260
0.736053 0.856079 0.078247
0.857422 0.812347 0.078308
0.884216 0.757690 0.079559
0.902191 0.724640 0.080414
0.909119 0.660950 0.080719
0.041504 0.882660 0.069427
0.051086 0.883118 0.070374
0.060638 0.883545 0.070679
0.070923 0.883972 0.070129
0.093506 0.884338 0.079559
0.120453 0.884552 0.088989
0.137482 0.883850 0.082703
0.146240 0.881836 0.079437
0.832672 0.880402 0.079376
0.881104 0.837067 0.079407
0.901001 0.804016 0.080353
0.909119 0.784546 0.080719
0.048462 0.897491 0.042206
0.066864 0.897919 0.051788
0.085022 0.898346 0.061310
0.102966 0.898804 0.070831
0.121063 0.899200 0.080261
0.130035 0.899170 0.080261
0.139038 0.899078 0.080261
0.148010 0.898895 0.080261
0.156921 0.898346 0.080231
0.883392 0.897766 0.080200
0.898041 0.854919 0.080200
0.909119 0.836304 0.080719
0.049408 0.907318 0.042664
0.067688 0.907776 0.052246
0.085968 0.908234 0.061798
0.104004 0.908661 0.071289
0.121979 0.909119 0.080719
0.130890 0.909119 0.080719
0.139984 0.909119 0.080719
0.148865 0.909119 0.080719
0.157776 0.909119 0.080719
0.166687 0.909119 0.080719
0.909119 0.901245 0.080719
0.909119 0.867859 0.080719
0.027710 0.055664 0.589111
0.027710 0.046478 0.589111
0.042542 0.027557 0.585938
0.273376 0.027557 0.586029
0.462769 0.027588 0.586731
0.695099 0.032684 0.626373
0.807465 0.037964 0.621277
0.844940 0.039734 0.610016
0.869354 0.040894 0.609253
0.887665 0.041748 0.610504
0.901917 0.042419 0.599121
0.907318 0.042664 0.535370
0.027710 0.064850 0.589111
0.037292 0.064789 0.589569
0.043457 0.037140 0.586365
0.274261 0.037140 0.586456
0.463776 0.037170 0.587189
0.695557 0.042267 0.626343
0.807922 0.047546 0.621155
0.845367 0.049316 0.610016
0.869812 0.050476 0.609161
0.888092 0.051331 0.610474
0.902344 0.052002 0.599030
0.907776 0.052246 0.535370
0.027710 0.139496 0.589569
0.037323 0.139465 0.590027
0.048553 0.120331 0.586121
0.258331 0.065491 0.584473
0.454163 0.046539 0.583740
0.688751 0.051453 0.621521
0.806946 0.057037 0.616913
0.845306 0.058838 0.605499
0.870087 0.059998 0.605652
0.888519 0.060852 0.607849
0.902802 0.061523 0.597168
0.908234 0.061798 0.533569
0.027802 0.311066 0.591309
0.037384 0.311066 0.591766
0.046692 0.298187 0.587433
0.229218 0.268280 0.587067
0.441772 0.223328 0.585449
0.671173 0.170044 0.609741
0.802765 0.075775 0.602386
0.843750 0.068237 0.588348
0.869781 0.069458 0.591736
0.888763 0.070343 0.598846
0.903229 0.071045 0.590942
0.908661 0.071289 0.528015
0.027924 0.474670 0.593933
0.037506 0.474762 0.594391
0.046844 0.467316 0.590637
0.063507 0.438721 0.575439
0.410309 0.419739 0.586578
0.642029 0.389008 0.598541
0.809418 0.339203 0.594635
0.846710 0.202850 0.561890
0.868500 0.078827 0.557526
0.888763 0.079773 0.577698
0.903595 0.080475 0.577026
0.909119 0.080719 0.516144
0.028809 0.612518 0.566772
0.038391 0.612946 0.567780
0.047729 0.609344 0.565613
0.056458 0.593384 0.554047
0.258575 0.572357 0.551147
0.578491 0.571136 0.578888
0.807831 0.542114 0.586548
0.856750 0.460968 0.552765
0.877533 0.316162 0.521179
0.888184 0.089172 0.527313
0.903931 0.089905 0.550568
0.909576 0.090179 0.494873
0.036713 0.780396 0.559448
0.046295 0.780853 0.560455
0.055786 0.780304 0.559387
0.065094 0.776855 0.552338
0.074036 0.766449 0.529968
0.435028 0.769073 0.539734
0.771606 0.749451 0.558441
0.855316 0.664581 0.519867
0.884155 0.560089 0.483856
0.901947 0.410797 0.467407
0.904144 0.099274 0.483429
0.910004 0.099548 0.446808
0.039368 0.837036 0.532074
0.048950 0.837463 0.532928
0.058472 0.837708 0.532379
0.067932 0.837280 0.527740
0.077271 0.835632 0.515503
0.086426 0.830048 0.478027
0.577515 0.842255 0.493927
0.842987 0.817657 0.486481
0.879578 0.740295 0.446106
0.900543 0.668579 0.402588
0.914703 0.486237 0.332794
0.910431 0.108948 0.300903
0.040619 0.863953 0.475006
0.050232 0.864410 0.475800
0.059753 0.864807 0.475830
0.069244 0.865021 0.473724
0.078674 0.865021 0.467438
0.088043 0.864349 0.452881
0.097260 0.861053 0.401031
0.718140 0.868591 0.373199
0.868469 0.836060 0.351715
0.893280 0.760071 0.293030
0.906036 0.691681 0.165070
0.909576 0.613312 0.090179
0.041504 0.882660 0.251801
0.051086 0.883118 0.252594
0.060638 0.883545 0.252899
0.070129 0.883972 0.251129
0.079559 0.884338 0.246765
0.088989 0.884552 0.237976
0.098358 0.884583 0.217560
0.107666 0.882996 0.123749
0.804047 0.879120 0.088745
0.880005 0.835571 0.088776
0.901154 0.789825 0.089783
0.909576 0.768127 0.090179
0.042206 0.897491 0.048248
0.054474 0.897919 0.051788
0.072754 0.898346 0.061310
0.091461 0.898804 0.070831
0.110260 0.899200 0.080261
0.130066 0.899628 0.089722
0.138916 0.899536 0.089691
0.147797 0.899323 0.089691
0.156616 0.898773 0.089661
0.875122 0.898010 0.089630
0.898285 0.855255 0.089661
0.909576 0.832550 0.090179
0.042664 0.907318 0.044769
0.058716 0.907776 0.052246
0.076874 0.908234 0.061798
0.095001 0.908661 0.071289
0.113068 0.909119 0.080719
0.130981 0.909576 0.090179
0.139984 0.909576 0.090179
0.148804 0.909576 0.090179
0.157806 0.909576 0.090179
0.166595 0.909576 0.090179
0.909576 0.904388 0.090179
0.909576 0.868774 0.090179
0.036041 0.073822 0.766174
0.037476 0.065948 0.766235
0.035950 0.054077 0.764252
0.235779 0.035919 0.763611
0.442505 0.035919 0.764099
0.645447 0.035980 0.765045
0.806061 0.037903 0.789185
0.844574 0.039703 0.768524
0.869232 0.040863 0.762848
0.887634 0.041748 0.764771
0.901917 0.042419 0.765930
0.907318 0.042664 0.739716
0.036041 0.082916 0.766174
0.045624 0.082947 0.766632
0.045532 0.072235 0.764709
0.236725 0.045502 0.764069
