assets/configs/ColorAnd3dLutPreset/CubeLUTFiles/Reign.CUBE
#Created by: Adobe Photoshop Export Color Lookup Plugin
#Copyright: (C) Copyright 2016 Wondershare Inc.
TITLE "Reign"
#LUT size
LUT_3D_SIZE 32
#data domain
DOMAIN_MIN 0.0 0.0 0.0
DOMAIN_MAX 1.0 1.0 1.0
#LUT data points
0.028137 0.028137 0.028137
0.035614 0.032898 0.032928
0.044250 0.037903 0.037994
0.054260 0.042755 0.042999
0.066162 0.046875 0.047272
0.081024 0.050201 0.050781
0.098755 0.052795 0.053467
0.118774 0.054688 0.056000
0.139526 0.056519 0.058044
0.160248 0.058472 0.059845
0.181030 0.060120 0.061737
0.202301 0.061584 0.063477
0.224182 0.062805 0.065460
0.246674 0.063843 0.067596
0.269165 0.065002 0.068512
0.291718 0.066010 0.069061
0.314606 0.066681 0.070007
0.337646 0.067200 0.070862
0.361115 0.067444 0.072632
0.384613 0.067688 0.074158
0.406982 0.068176 0.073547
0.429688 0.068115 0.074738
0.451599 0.068420 0.074310
0.473358 0.068695 0.074158
0.495941 0.068542 0.076630
0.517029 0.069183 0.075806
0.539215 0.069061 0.078156
0.561249 0.069122 0.079193
0.582611 0.069824 0.077057
0.605377 0.070068 0.077301
0.630188 0.069702 0.081055
0.652954 0.070648 0.078491
0.044006 0.048767 0.041290
0.051453 0.054077 0.046783
0.060638 0.059265 0.051178
0.071228 0.063843 0.055084
0.084320 0.067719 0.058441
0.100922 0.070648 0.060944
0.120697 0.072693 0.062653
0.142761 0.074280 0.063904
0.164856 0.075531 0.064941
0.186371 0.076935 0.066101
0.207764 0.078339 0.067261
0.229309 0.079590 0.068359
0.251038 0.080750 0.069366
0.272949 0.081787 0.070312
0.294800 0.082672 0.071136
0.316742 0.083405 0.071869
0.338623 0.083984 0.072479
0.360382 0.084442 0.072968
0.382111 0.084839 0.073456
0.403778 0.085205 0.073944
0.425201 0.085510 0.074432
0.446411 0.085876 0.074951
0.467438 0.086273 0.075531
0.488617 0.086670 0.076111
0.510254 0.087067 0.076721
0.532257 0.087433 0.077271
0.554810 0.087799 0.077850
0.577850 0.088135 0.078400
0.601471 0.088440 0.078918
0.625641 0.088745 0.079407
0.650452 0.089050 0.079956
0.675507 0.089355 0.080475
0.057953 0.071259 0.050323
0.065887 0.076508 0.056122
0.074005 0.081726 0.060669
0.084381 0.086365 0.063873
0.098389 0.089966 0.066223
0.116364 0.092407 0.067719
0.137970 0.094025 0.068542
0.161346 0.094910 0.068787
0.184479 0.095734 0.068970
0.206421 0.096741 0.069397
0.227844 0.097778 0.069946
0.249268 0.098816 0.070526
0.270752 0.099854 0.071167
0.291809 0.100616 0.071625
0.312653 0.101257 0.072021
0.333496 0.101807 0.072418
0.354370 0.102325 0.072815
0.375336 0.102905 0.073303
0.396149 0.103455 0.073853
0.416840 0.103973 0.074402
0.437744 0.104431 0.074890
0.458954 0.104889 0.075378
0.480804 0.105469 0.075958
0.503052 0.106049 0.076569
0.525696 0.106598 0.077087
0.548767 0.107056 0.077576
0.572327 0.107483 0.078003
0.596588 0.107971 0.078461
0.621613 0.108521 0.078979
0.646851 0.108917 0.079407
0.672516 0.109222 0.079712
0.698273 0.109558 0.080078
0.069580 0.094666 0.055115
0.077911 0.099548 0.060883
0.085907 0.104584 0.065857
0.095337 0.109283 0.069489
0.108826 0.112915 0.071289
0.127899 0.115082 0.071960
0.150421 0.115936 0.071747
0.174774 0.116180 0.071198
0.198608 0.116516 0.070831
0.220825 0.117188 0.070831
0.242218 0.117981 0.071045
0.263062 0.118622 0.071228
0.283691 0.119232 0.071442
0.304138 0.119873 0.071747
0.324524 0.120514 0.072174
0.344910 0.121246 0.072693
0.365448 0.121918 0.073242
0.386047 0.122498 0.073700
0.406982 0.123077 0.074127
0.428406 0.123718 0.074554
0.450348 0.124390 0.075073
0.472839 0.125153 0.075653
0.495605 0.125854 0.076111
0.518768 0.126465 0.076508
0.542419 0.127106 0.076904
0.566650 0.127777 0.077362
0.591309 0.128387 0.077728
0.616608 0.129028 0.078125
0.642151 0.129517 0.078369
0.668060 0.129974 0.078613
0.694336 0.130371 0.078796
0.720734 0.130829 0.079041
0.078979 0.118469 0.056244
0.087799 0.122986 0.062042
0.096039 0.127625 0.067322
0.105011 0.132111 0.071686
0.117310 0.135712 0.074036
0.135590 0.137604 0.074066
0.158844 0.137939 0.073181
0.183777 0.137665 0.072021
0.207825 0.137421 0.071167
0.230072 0.137726 0.070923
0.251251 0.138214 0.070953
0.271973 0.138763 0.071136
0.292480 0.139404 0.071472
0.312805 0.140076 0.071869
0.333282 0.140808 0.072296
0.354095 0.141602 0.072784
0.375275 0.142395 0.073212
0.396881 0.143188 0.073639
0.418884 0.144043 0.074097
0.441254 0.144806 0.074463
0.464233 0.145660 0.074860
0.487640 0.146545 0.075287
0.511353 0.147369 0.075653
0.535461 0.148132 0.075958
0.559967 0.148865 0.076233
0.585083 0.149689 0.076569
0.610443 0.150391 0.076813
0.636139 0.151001 0.076965
0.662170 0.151550 0.077118
0.688446 0.152100 0.077209
0.715179 0.152649 0.077362
0.742157 0.153381 0.077728
0.086578 0.141998 0.054718
0.095764 0.146057 0.060577
0.104370 0.150299 0.066162
0.113251 0.154358 0.071136
0.124542 0.157562 0.074463
0.141235 0.159332 0.074921
0.164062 0.159454 0.073578
0.189392 0.158844 0.072083
0.213959 0.158569 0.071198
0.236328 0.158691 0.070892
0.257690 0.159119 0.070923
0.278717 0.159668 0.071075
0.299805 0.160400 0.071350
0.321045 0.161346 0.071777
0.342438 0.162323 0.072205
0.364105 0.163269 0.072571
0.386169 0.164185 0.072876
0.408661 0.165131 0.073212
0.431671 0.166199 0.073578
0.455170 0.167236 0.073944
0.478912 0.168182 0.074188
0.502930 0.169067 0.074371
0.527283 0.169922 0.074585
0.552094 0.170807 0.074768
0.577362 0.171753 0.075012
0.602814 0.172577 0.075165
0.628510 0.173309 0.075287
0.654572 0.174042 0.075409
0.681030 0.174774 0.075562
0.707642 0.175446 0.075684
0.734802 0.176270 0.075958
0.761719 0.177002 0.076172
0.092926 0.164856 0.051544
0.102386 0.168427 0.057648
0.111115 0.171997 0.063385
0.120087 0.175507 0.068848
0.131042 0.178558 0.073303
0.146667 0.180511 0.075073
0.168304 0.181030 0.074127
0.193909 0.180542 0.072540
0.218750 0.180115 0.071320
0.241699 0.180359 0.070770
0.263885 0.181061 0.070709
0.285858 0.181915 0.070862
0.307892 0.182922 0.071075
0.329926 0.183960 0.071320
0.352112 0.185028 0.071564
0.374695 0.186188 0.071869
0.397705 0.187317 0.072113
0.421051 0.188446 0.072357
0.444794 0.189575 0.072571
0.468811 0.190613 0.072723
0.493164 0.191620 0.072845
0.517822 0.192627 0.072968
0.542725 0.193573 0.073059
0.568085 0.194611 0.073212
0.593628 0.195587 0.073395
0.619415 0.196503 0.073547
0.645447 0.197388 0.073669
0.671844 0.198242 0.073792
0.698730 0.199219 0.074066
0.725708 0.200134 0.074310
0.752930 0.201019 0.074554
0.780151 0.201965 0.074890
0.098389 0.186646 0.047638
0.108124 0.189819 0.053955
0.117279 0.193237 0.060150
0.126678 0.196655 0.066193
0.137726 0.199707 0.071625
0.152618 0.201935 0.074677
0.173157 0.203094 0.074463
0.198242 0.203094 0.072662
0.223969 0.203033 0.071350
0.247742 0.203583 0.070648
0.270630 0.204407 0.070312
0.293457 0.205566 0.070282
0.316254 0.206696 0.070282
0.339081 0.207916 0.070374
0.362061 0.209106 0.070496
0.385345 0.210358 0.070618
0.409088 0.211609 0.070770
0.433075 0.212830 0.070892
0.457306 0.213959 0.070953
0.481812 0.215027 0.071014
0.506653 0.216125 0.071075
0.531830 0.217285 0.071228
0.557281 0.218414 0.071411
0.582855 0.219482 0.071533
0.608643 0.220520 0.071655
0.634735 0.221558 0.071808
0.661255 0.222687 0.072113
0.688202 0.223877 0.072449
0.715332 0.224976 0.072754
0.742706 0.226166 0.073181
0.770569 0.227448 0.073700
0.798615 0.228912 0.074432
0.103821 0.208221 0.043762
0.113922 0.211426 0.050323
0.123413 0.214966 0.056671
0.133270 0.218628 0.062988
0.144867 0.222107 0.069214
0.159546 0.224762 0.073486
0.179169 0.226379 0.074280
0.203461 0.226959 0.072632
0.229370 0.227325 0.070953
0.253967 0.228119 0.070099
0.277710 0.229279 0.069641
0.301056 0.230408 0.069275
0.324432 0.231628 0.069031
0.347931 0.232941 0.068939
0.371521 0.234253 0.068909
0.395447 0.235596 0.068909
0.419678 0.236877 0.068939
0.444122 0.238098 0.068970
0.468842 0.239349 0.069031
0.493896 0.240570 0.069122
0.519196 0.241791 0.069244
0.544769 0.243042 0.069427
0.570526 0.244263 0.069611
0.596558 0.245514 0.069824
0.622864 0.246796 0.070160
0.649475 0.248108 0.070496
0.676636 0.249603 0.071045
0.704102 0.251129 0.071625
0.731964 0.252655 0.072266
0.760010 0.254211 0.072937
0.788391 0.255829 0.073700
0.817047 0.257660 0.074646
0.109314 0.230774 0.039490
0.119904 0.234406 0.046204
0.129852 0.238312 0.052704
0.140259 0.242310 0.059326
0.152130 0.245819 0.065887
0.166901 0.248779 0.071167
0.186066 0.250916 0.073151
0.209625 0.252075 0.072113
0.235016 0.252838 0.070251
0.260071 0.253845 0.069122
0.284302 0.255005 0.068390
0.308258 0.256256 0.067841
0.332245 0.257599 0.067474
0.356201 0.258942 0.067200
0.380432 0.260437 0.067108
0.404755 0.261841 0.067047
0.429413 0.263153 0.067017
0.454315 0.264465 0.067017
0.479553 0.265839 0.067139
0.505127 0.267242 0.067322
0.531006 0.268677 0.067596
0.557007 0.270081 0.067871
0.583252 0.271515 0.068207
0.609894 0.273071 0.068695
0.637024 0.274841 0.069366
0.664520 0.276672 0.070099
0.692169 0.278412 0.070831
0.720123 0.280151 0.071564
0.748444 0.281921 0.072327
0.777161 0.283844 0.073242
0.806274 0.285736 0.074127
0.835388 0.287659 0.075012
0.115051 0.254974 0.034607
0.126007 0.258972 0.041412
0.136414 0.263153 0.048035
0.147217 0.267273 0.054779
0.159607 0.270935 0.061768
0.174591 0.274048 0.067871
0.193329 0.276398 0.070984
0.216339 0.278076 0.070862
0.241150 0.279205 0.069214
0.265778 0.280426 0.067780
0.290405 0.281647 0.066864
0.314972 0.283020 0.066284
0.339447 0.284454 0.065826
0.364044 0.286041 0.065582
0.388550 0.287476 0.065338
0.413300 0.288940 0.065247
0.438568 0.290527 0.065308
0.464050 0.292084 0.065430
0.489868 0.293701 0.065674
0.515991 0.295349 0.066010
0.542450 0.296997 0.066437
0.569214 0.298828 0.067017
0.596344 0.300751 0.067749
0.623688 0.302673 0.068481
0.651367 0.304657 0.069305
0.679291 0.306641 0.070129
0.707489 0.308624 0.070984
0.736084 0.310577 0.071808
0.765045 0.312531 0.072571
0.794373 0.314575 0.073425
0.823761 0.316437 0.074188
0.853149 0.318329 0.074951
0.120850 0.280701 0.028961
0.132050 0.284790 0.035797
0.142792 0.289062 0.042450
0.153992 0.293304 0.049347
0.166931 0.297089 0.056763
0.182312 0.300232 0.063629
0.200989 0.302826 0.067963
0.223236 0.304626 0.068756
0.247467 0.306091 0.067688
0.271790 0.307739 0.066437
0.296295 0.309265 0.065430
0.321198 0.310699 0.064728
0.346313 0.312347 0.064362
0.371307 0.313995 0.064087
0.396423 0.315704 0.063995
0.421875 0.317505 0.064056
0.447632 0.319305 0.064209
0.473907 0.321289 0.064575
0.500397 0.323242 0.065063
0.527222 0.325226 0.065613
0.554291 0.327209 0.066193
0.581726 0.329315 0.066956
0.609436 0.331512 0.067780
0.637421 0.333679 0.068634
0.665558 0.335754 0.069427
0.693970 0.337799 0.070190
0.722626 0.339844 0.070923
0.751801 0.341949 0.071716
0.781250 0.343994 0.072479
0.810699 0.345917 0.073120
0.840393 0.347717 0.073730
0.869995 0.349579 0.074341
0.126404 0.307312 0.022369
0.137909 0.311523 0.029327
0.149078 0.315918 0.036163
0.160706 0.320251 0.043304
0.174225 0.324097 0.051147
0.190125 0.327271 0.058838
0.208771 0.329865 0.064240
0.230591 0.331879 0.066223
0.254272 0.333710 0.065948
0.278168 0.335693 0.065094
0.302612 0.337830 0.064331
0.327606 0.339722 0.063721
0.353119 0.341492 0.063354
0.378693 0.343353 0.063232
0.404602 0.345520 0.063416
0.430756 0.347687 0.063721
0.457367 0.349976 0.064148
0.484070 0.352112 0.064545
0.511078 0.354279 0.065063
0.538544 0.356598 0.065735
0.566223 0.358826 0.066376
0.594177 0.361084 0.067078
0.622375 0.363342 0.067810
0.650696 0.365479 0.068481
0.679260 0.367615 0.069153
0.708191 0.369812 0.069885
0.737244 0.371857 0.070526
0.766693 0.373901 0.071167
0.796234 0.375793 0.071747
0.825836 0.377563 0.072205
0.855621 0.379272 0.072662
0.885345 0.381042 0.073181
0.131927 0.334747 0.015259
0.143799 0.339020 0.022461
0.155457 0.343628 0.029602
0.167572 0.348053 0.037079
0.181580 0.351868 0.045349
0.197998 0.354950 0.053711
0.216919 0.357697 0.060272
0.238678 0.360107 0.063599
0.262024 0.362396 0.064392
0.285675 0.364899 0.064240
0.309814 0.367401 0.063843
0.334778 0.369843 0.063446
0.360626 0.372284 0.063354
0.386932 0.374603 0.063477
0.413300 0.376923 0.063660
0.440125 0.379395 0.064087
0.467133 0.381775 0.064484
0.494385 0.384155 0.064941
0.522003 0.386597 0.065460
0.549866 0.388947 0.065918
0.578064 0.391296 0.066467
0.606323 0.393555 0.066986
0.634766 0.395752 0.067505
0.663422 0.397919 0.068024
0.692383 0.400085 0.068634
0.721558 0.402191 0.069183
0.750763 0.404144 0.069672
0.780151 0.405914 0.070038
0.809692 0.407593 0.070404
0.839264 0.409210 0.070709
0.869141 0.410828 0.071075
0.898956 0.412537 0.071533
0.137665 0.362946 0.008118
0.149994 0.367371 0.015594
0.162079 0.372070 0.023041
0.174652 0.376587 0.030884
0.189362 0.380524 0.039673
0.206543 0.383820 0.048828
0.225952 0.386810 0.056549
0.247803 0.389648 0.061279
0.271088 0.392548 0.063324
0.294495 0.395569 0.063995
0.318451 0.398560 0.064117
0.343262 0.401459 0.064056
0.368988 0.404266 0.063965
0.395416 0.407043 0.064117
0.422363 0.409637 0.064362
0.449463 0.412109 0.064606
0.476868 0.414551 0.064850
0.504669 0.417084 0.065216
0.532562 0.419495 0.065552
0.560822 0.421936 0.065918
0.589203 0.424194 0.066223
0.617676 0.426392 0.066559
0.646423 0.428558 0.066925
0.675201 0.430603 0.067230
0.704224 0.432587 0.067596
0.733368 0.434479 0.067902
0.762512 0.436188 0.068176
0.791931 0.437805 0.068390
0.821655 0.439484 0.068726
0.851379 0.441071 0.069061
0.881439 0.442719 0.069458
0.911224 0.444305 0.069885
0.143799 0.392029 0.002228
0.156738 0.396790 0.009003
0.169281 0.401642 0.016815
0.182465 0.406403 0.025085
0.197937 0.410645 0.034515
0.216064 0.414337 0.044586
0.236145 0.417633 0.053406
0.258148 0.420776 0.059357
0.281097 0.423920 0.062378
0.304260 0.427338 0.063873
0.328003 0.430817 0.064575
0.352570 0.434113 0.064789
0.378021 0.437256 0.064728
0.404175 0.440186 0.064667
0.430969 0.442902 0.064667
0.458496 0.445496 0.064819
0.486328 0.448029 0.065002
0.514282 0.450439 0.065125
0.542511 0.452881 0.065338
0.570770 0.455048 0.065399
0.599243 0.457153 0.065460
0.627899 0.459229 0.065613
0.656677 0.461273 0.065796
0.685577 0.463196 0.065948
0.714569 0.464996 0.066101
0.743683 0.466705 0.066284
0.773010 0.468384 0.066528
0.802734 0.470154 0.066864
0.832642 0.471863 0.067230
0.862488 0.473450 0.067566
0.892456 0.474945 0.067932
0.922211 0.476440 0.068359
0.150848 0.422546 0.000000
0.164276 0.427551 0.002960
0.177521 0.432770 0.011261
0.191376 0.437958 0.020050
0.207520 0.442505 0.029999
0.226349 0.446320 0.040649
0.246918 0.449677 0.050293
0.269012 0.452942 0.057220
0.291809 0.456390 0.061218
0.314636 0.460083 0.063385
0.337952 0.463806 0.064545
0.362183 0.467377 0.065033
0.387238 0.470673 0.065033
0.413025 0.473724 0.064880
0.439545 0.476624 0.064728
0.466858 0.479279 0.064636
0.494781 0.481628 0.064575
0.522919 0.483917 0.064514
0.551117 0.486053 0.064423
0.579498 0.488068 0.064331
0.608215 0.490143 0.064331
0.636902 0.492065 0.064331
0.665771 0.493988 0.064392
0.694763 0.495850 0.064514
0.723907 0.497620 0.064636
0.753265 0.499451 0.064880
0.782776 0.501160 0.065155
0.812500 0.502838 0.065460
0.842316 0.504364 0.065765
0.872070 0.505798 0.066040
0.901825 0.507050 0.066284
0.931458 0.508392 0.066620
0.158875 0.454529 0.000000
0.172791 0.459778 0.000122
0.186432 0.465240 0.006073
0.200806 0.470734 0.015228
0.217499 0.475464 0.025482
0.236786 0.479187 0.036469
0.257812 0.482544 0.046692
0.280060 0.485901 0.054474
0.302734 0.489502 0.059357
0.325165 0.493317 0.062164
0.348083 0.497192 0.063812
0.371735 0.500763 0.064545
0.396271 0.504089 0.064697
0.421631 0.507263 0.064575
0.447662 0.510101 0.064270
0.474518 0.512695 0.063904
0.502167 0.515076 0.063629
0.530334 0.517120 0.063385
0.558716 0.519196 0.063263
0.587402 0.521240 0.063171
0.616150 0.523193 0.063080
0.645111 0.525146 0.063141
0.674042 0.526978 0.063171
0.703125 0.528778 0.063232
0.732391 0.530548 0.063416
0.761810 0.532288 0.063660
0.791229 0.533844 0.063812
0.820709 0.535187 0.063934
0.850220 0.536407 0.063995
0.879761 0.537567 0.064087
0.909424 0.538666 0.064178
0.938751 0.539642 0.064240
0.167358 0.487671 0.000000
0.181732 0.493256 0.000000
0.195679 0.498871 0.001801
0.210327 0.504395 0.010010
0.227295 0.508972 0.020355
0.247070 0.512665 0.031677
0.268585 0.515991 0.042480
0.291016 0.519318 0.051025
0.313538 0.522888 0.056671
0.335510 0.526611 0.060059
0.357788 0.530334 0.062103
0.380859 0.533844 0.063141
0.404938 0.537231 0.063568
0.429779 0.540375 0.063568
0.455414 0.543304 0.063354
0.481842 0.545929 0.062958
0.509094 0.548309 0.062561
0.537109 0.550507 0.062256
0.565735 0.552643 0.062195
0.594513 0.554565 0.062103
0.623474 0.556488 0.062042
0.652405 0.558289 0.062012
0.681366 0.559998 0.061981
0.710510 0.561707 0.062073
0.739563 0.563141 0.062042
0.768707 0.564545 0.062012
0.797913 0.565796 0.061981
0.827118 0.566833 0.061829
0.856354 0.567719 0.061615
0.885529 0.568451 0.061340
0.914734 0.569061 0.061005
0.943634 0.569580 0.060669
0.175934 0.521759 0.000000
0.190521 0.527405 0.000000
0.204681 0.533051 0.000061
0.219543 0.538422 0.004089
0.236816 0.542938 0.014587
0.257019 0.546478 0.026184
0.278931 0.549591 0.037445
0.301453 0.552612 0.046570
0.323639 0.555847 0.052795
0.345215 0.559448 0.056854
0.367126 0.563202 0.059509
0.389801 0.566833 0.061096
0.413330 0.570190 0.061890
0.437805 0.573486 0.062256
0.462982 0.576447 0.062225
0.489014 0.579163 0.061951
0.516083 0.581787 0.061707
0.543701 0.584045 0.061371
0.571960 0.586060 0.061127
0.600769 0.587891 0.061005
0.629578 0.589478 0.060791
0.658356 0.590973 0.060577
0.687317 0.592499 0.060486
0.716187 0.593842 0.060272
0.745056 0.595001 0.060028
0.773773 0.595886 0.059601
0.802490 0.596619 0.059113
0.831390 0.597260 0.058594
0.860382 0.597809 0.058075
0.889191 0.598114 0.057373
0.917877 0.598175 0.056519
0.946289 0.598175 0.055695
0.184296 0.556305 0.000000
0.198975 0.561798 0.000000
0.213226 0.567322 0.000000
0.228271 0.572479 0.000702
0.245819 0.576813 0.008087
0.266327 0.580017 0.019897
0.288574 0.582764 0.031525
0.311157 0.585480 0.041260
0.333282 0.588623 0.048248
0.354767 0.592285 0.053070
0.376404 0.596100 0.056458
0.398773 0.599823 0.058716
0.421875 0.603271 0.060028
0.445801 0.606506 0.060730
0.470520 0.609528 0.060974
0.496216 0.612396 0.061005
0.522644 0.614868 0.060730
0.549744 0.617035 0.060333
0.577362 0.618835 0.059814
0.605591 0.620422 0.059357
0.634216 0.621704 0.058960
0.662933 0.622986 0.058594
0.691376 0.623901 0.058014
0.719879 0.624725 0.057404
0.748352 0.625427 0.056732
0.776794 0.625916 0.056000
0.805298 0.626373 0.055206
0.833740 0.626465 0.054199
0.862244 0.626465 0.053131
0.890686 0.626373 0.052032
0.919128 0.626068 0.050842
0.947266 0.625763 0.049652
0.192169 0.590668 0.000000
0.206848 0.595825 0.000000
0.221161 0.601105 0.000000
0.236450 0.606171 0.000000
0.254272 0.610321 0.002533
0.275208 0.613373 0.013184
0.297852 0.615845 0.025299
0.320801 0.618439 0.035736
0.343048 0.621613 0.043579
0.364471 0.625275 0.049225
0.385803 0.629028 0.053253
0.407684 0.632629 0.056061
0.430328 0.636017 0.057892
0.453735 0.639252 0.059021
0.477844 0.642151 0.059509
0.502747 0.644714 0.059509
0.528534 0.647064 0.059235
0.554932 0.648987 0.058655
0.581818 0.650513 0.057861
0.609314 0.651794 0.057068
0.637238 0.652740 0.056152
0.665466 0.653442 0.055328
0.693726 0.654053 0.054474
0.721802 0.654358 0.053406
0.749847 0.654480 0.052246
0.778046 0.654663 0.051178
0.806183 0.654663 0.049957
0.834412 0.654480 0.048615
0.862579 0.654083 0.047180
0.890747 0.653625 0.045715
0.919037 0.653076 0.044220
0.947174 0.652679 0.042847
0.199432 0.624451 0.000000
0.214355 0.629608 0.000000
0.228973 0.634949 0.000000
0.244537 0.639893 0.000000
0.262695 0.643890 0.000336
0.284027 0.646759 0.006470
0.307159 0.649078 0.019104
0.330505 0.651520 0.030243
0.352814 0.654480 0.038788
0.373993 0.657959 0.045074
0.394836 0.661438 0.049622
0.416168 0.664734 0.052856
0.438202 0.667969 0.055084
0.460968 0.670990 0.056488
0.484375 0.673706 0.057159
0.508423 0.675934 0.057129
0.533234 0.677765 0.056610
0.558746 0.679321 0.055786
0.585022 0.680725 0.054810
0.611725 0.681702 0.053589
0.638855 0.682281 0.052246
0.666290 0.682556 0.050842
0.694092 0.682678 0.049530
0.721954 0.682648 0.048157
0.749969 0.682648 0.046814
0.777771 0.682343 0.045288
0.805695 0.682007 0.043732
0.833710 0.681519 0.042084
0.861755 0.680939 0.040375
0.889893 0.680328 0.038727
0.917908 0.679474 0.036865
0.945709 0.678680 0.035095
0.206787 0.658417 0.000000
0.222076 0.663666 0.000000
0.236877 0.668823 0.000000
0.252625 0.673584 0.000000
0.271027 0.677338 0.000000
0.292725 0.679962 0.002106
0.316223 0.682037 0.012817
0.339752 0.684113 0.024414
0.361877 0.686615 0.033417
0.382629 0.689636 0.040100
0.403076 0.692810 0.045074
0.423889 0.695923 0.048737
0.445190 0.698761 0.051178
0.467010 0.701324 0.052612
0.489532 0.703583 0.053284
0.512787 0.705536 0.053253
0.536835 0.707184 0.052704
0.561523 0.708435 0.051666
0.586792 0.709320 0.050293
0.612732 0.710022 0.048798
0.639191 0.710388 0.047119
0.666016 0.710510 0.045349
0.693329 0.710449 0.043671
0.720947 0.710175 0.041992
0.748657 0.709778 0.040283
0.776398 0.709320 0.038513
0.804047 0.708618 0.036621
0.831818 0.707825 0.034637
0.859772 0.707062 0.032715
0.887634 0.706116 0.030701
0.915466 0.704987 0.028564
0.942902 0.703766 0.026398
0.214325 0.692474 0.000000
0.229675 0.697388 0.000000
0.244568 0.702332 0.000000
0.260468 0.706818 0.000000
0.278992 0.710266 0.000000
0.300903 0.712555 0.000336
0.324463 0.714081 0.005890
0.347992 0.715607 0.017731
0.369934 0.717621 0.027069
0.390198 0.720154 0.033966
0.410126 0.722870 0.039185
0.430237 0.725555 0.043060
0.450836 0.728058 0.045685
0.471832 0.730194 0.047241
0.493439 0.732025 0.047882
0.515839 0.733643 0.047821
0.539154 0.735046 0.047241
0.563110 0.736115 0.046143
0.587646 0.736816 0.044647
0.612854 0.737244 0.042877
0.638641 0.737457 0.040924
0.665039 0.737549 0.039001
0.691742 0.737366 0.036987
0.718811 0.736847 0.034882
0.746185 0.736115 0.032837
0.773682 0.735321 0.030731
0.801178 0.734406 0.028595
0.828888 0.733429 0.026398
0.856415 0.732178 0.024017
0.883911 0.730804 0.021606
0.911469 0.729370 0.019135
0.938690 0.727844 0.016663
0.221558 0.725952 0.000000
0.236847 0.730408 0.000000
0.251648 0.734924 0.000000
0.267517 0.739044 0.000000
0.286133 0.742218 0.000000
0.307953 0.743896 0.000000
0.331421 0.744720 0.001556
0.354797 0.745575 0.009735
0.376526 0.747101 0.019226
0.396484 0.749237 0.026428
0.415863 0.751556 0.031860
0.435242 0.753693 0.035797
0.455017 0.755707 0.038513
0.475372 0.757568 0.040222
0.496368 0.759308 0.041107
0.518097 0.760742 0.041168
0.540619 0.761871 0.040558
0.563843 0.762756 0.039459
0.587769 0.763367 0.037903
0.612366 0.763702 0.036041
0.637543 0.763794 0.033936
0.663177 0.763611 0.031677
0.689270 0.763214 0.029327
0.715759 0.762573 0.026886
0.742584 0.761597 0.024414
0.769745 0.760468 0.022003
0.796997 0.759216 0.019531
0.824341 0.757843 0.016968
0.851654 0.756256 0.014313
0.878815 0.754486 0.011566
0.905975 0.752594 0.008698
0.932892 0.750763 0.005981
0.227997 0.758209 0.000000
0.243195 0.762299 0.000000
0.257965 0.766541 0.000000
0.273499 0.770020 0.000000
0.291779 0.772461 0.000000
0.313477 0.773590 0.000000
0.336945 0.773926 0.000000
0.360229 0.774231 0.002472
0.381775 0.775269 0.010071
0.401245 0.776886 0.017334
0.420105 0.778778 0.022919
0.439056 0.780640 0.027069
0.458282 0.782379 0.030029
0.478088 0.784088 0.032013
0.498505 0.785645 0.033081
0.519592 0.786926 0.033295
0.541412 0.787842 0.032776
0.563904 0.788483 0.031616
0.587128 0.788940 0.030029
0.611115 0.789185 0.028137
0.635620 0.789093 0.025848
0.660522 0.788635 0.023315
0.685852 0.787933 0.020599
0.711670 0.787018 0.017853
0.737976 0.785950 0.015106
0.764557 0.784607 0.012299
0.791351 0.782898 0.009430
0.818268 0.781036 0.006500
0.845276 0.779083 0.003510
0.872162 0.776978 0.001709
0.899109 0.774841 0.001160
0.925507 0.772461 0.000641
0.233185 0.789001 0.000000
0.248199 0.792755 0.000000
0.262634 0.796417 0.000000
0.277985 0.799469 0.000000
0.295990 0.801331 0.000000
0.317505 0.801819 0.000000
0.340942 0.801697 0.000000
0.364349 0.801697 0.000000
0.385681 0.802246 0.001831
0.404907 0.803497 0.006897
0.423370 0.805084 0.012665
0.441956 0.806732 0.017090
0.460815 0.808350 0.020386
0.480042 0.809845 0.022583
0.499756 0.811096 0.023743
0.520142 0.812073 0.024078
