assets/configs/ColorAnd3dLutPreset/CubeLUTFiles/Reign.CUBE
#Created by: Adobe Photoshop Export Color Lookup Plugin
#Copyright: (C) Copyright 2016 Wondershare Inc.
TITLE "Reign"
#LUT size
LUT_3D_SIZE 5
#data domain
#LUT data points
DOMAIN_MIN 0.000000 0.000000 0.000000
DOMAIN_MAX 0.903226 0.903226 0.903226
0.028137 0.028137 0.028137
0.118774 0.054688 0.056000
0.269165 0.065002 0.068512
0.429688 0.068115 0.074738
0.582611 0.069824 0.077057
0.098389 0.186646 0.047638
0.198242 0.203094 0.072662
0.362061 0.209106 0.070496
0.531830 0.217285 0.071228
0.715332 0.224976 0.072754
0.137665 0.362946 0.008118
0.247803 0.389648 0.061279
0.422363 0.409637 0.064362
0.617676 0.426392 0.066559
0.821655 0.439484 0.068726
0.192169 0.590668 0.000000
0.320801 0.618439 0.035736
0.477844 0.642151 0.059509
0.665466 0.653442 0.055328
0.862579 0.654083 0.047180
0.237244 0.818634 0.000000
0.367279 0.828186 0.000000
0.500122 0.835571 0.013123
0.652069 0.834991 0.003021
0.827820 0.821075 0.000000
0.032959 0.040497 0.076996
0.135406 0.060730 0.138855
0.286621 0.067261 0.175079
0.440308 0.068970 0.195160
0.593872 0.070435 0.207886
0.060669 0.204620 0.140503
0.200684 0.207031 0.204163
0.368225 0.212219 0.215149
0.539825 0.219910 0.225952
0.725677 0.228119 0.237518
0.102844 0.383606 0.115051
0.266907 0.393951 0.199249
0.427917 0.415619 0.239990
0.625122 0.430969 0.250122
0.829132 0.442932 0.259186
0.162567 0.611908 0.086914
0.338837 0.623383 0.181335
0.487885 0.643311 0.251740
0.665527 0.654144 0.253265
0.861847 0.652588 0.247070
0.208160 0.833374 0.035156
0.376953 0.828400 0.123871
0.516022 0.827820 0.197418
0.649628 0.828613 0.204376
0.818970 0.812958 0.180786
0.032623 0.052612 0.149475
0.145233 0.066345 0.243256
0.301331 0.068481 0.294220
0.448822 0.069824 0.320374
0.605774 0.071075 0.342072
0.023987 0.219421 0.263550
0.183807 0.217133 0.337494
0.373749 0.215515 0.363831
0.546722 0.223175 0.383698
0.734955 0.232208 0.404999
0.039001 0.411499 0.244965
0.216248 0.420471 0.328857
0.433319 0.421356 0.420837
0.630768 0.435425 0.437988
0.834503 0.446808 0.452057
0.093323 0.643494 0.224579
0.295258 0.647614 0.315399
0.509216 0.642273 0.422638
0.664734 0.653992 0.452545
0.860748 0.650360 0.448700
0.140076 0.858643 0.172974
0.337158 0.843781 0.258209
0.532196 0.822021 0.354767
0.651825 0.819977 0.402618
0.809509 0.804230 0.382660
0.027283 0.064178 0.242981
0.146332 0.072876 0.361694
0.309753 0.069458 0.423279
0.457397 0.070221 0.452057
0.619781 0.071350 0.483337
0.000854 0.230438 0.396027
0.167114 0.227234 0.476349
0.374054 0.219727 0.522339
0.555054 0.225861 0.547729
0.745789 0.236237 0.576569
0.000000 0.435089 0.399109
0.169037 0.442657 0.496826
0.417511 0.433716 0.598389
0.635681 0.439850 0.626465
0.839203 0.450745 0.645905
0.017700 0.675140 0.381744
0.218933 0.678589 0.473236
0.452484 0.665833 0.570160
0.663361 0.653229 0.652710
0.857910 0.648041 0.650848
0.054565 0.886902 0.325684
0.255615 0.869629 0.405182
0.484100 0.836395 0.491669
0.665619 0.809570 0.574829
0.799042 0.794525 0.583435
0.017334 0.075165 0.355286
0.141449 0.079529 0.489777
0.310089 0.071960 0.557526
0.464935 0.071045 0.592163
0.634003 0.071075 0.633362
0.000000 0.240936 0.533203
0.149231 0.237488 0.621796
0.364563 0.226898 0.684265
0.560211 0.229645 0.721313
0.757385 0.239807 0.755981
0.000000 0.454437 0.567871
0.138947 0.458862 0.675446
0.396973 0.447052 0.777191
0.633545 0.445618 0.823059
0.844696 0.453522 0.842407
0.000000 0.702515 0.558228
0.153534 0.703186 0.656250
0.395264 0.684326 0.760895
0.636902 0.660095 0.844940
0.854126 0.645386 0.850952
0.000000 0.913483 0.492645
0.167786 0.894592 0.570679
0.394714 0.859833 0.652466
0.595306 0.825226 0.722595
0.788208 0.784393 0.784210
