assets/configs/ColorAnd3dLutPreset/CubeLUTFiles/Reign.CUBE
#Created by: Adobe Photoshop Export Color Lookup Plugin
#Copyright: (C) Copyright 2016 Wondershare Inc.
TITLE "Reign"
#LUT size
LUT_3D_SIZE 8
#data domain
#LUT data points
DOMAIN_MIN 0.000000 0.000000 0.000000
DOMAIN_MAX 0.903226 0.903226 0.903226
0.028137 0.028137 0.028137
0.066162 0.046875 0.047272
0.139526 0.056519 0.058044
0.224182 0.062805 0.065460
0.314606 0.066681 0.070007
0.406982 0.068176 0.073547
0.495941 0.068542 0.076630
0.582611 0.069824 0.077057
0.078979 0.118469 0.056244
0.117310 0.135712 0.074036
0.207825 0.137421 0.071167
0.292480 0.139404 0.071472
0.375275 0.142395 0.073212
0.464233 0.145660 0.074860
0.559967 0.148865 0.076233
0.662170 0.151550 0.077118
0.103821 0.208221 0.043762
0.144867 0.222107 0.069214
0.229370 0.227325 0.070953
0.324432 0.231628 0.069031
0.419678 0.236877 0.068939
0.519196 0.241791 0.069244
0.622864 0.246796 0.070160
0.731964 0.252655 0.072266
0.126404 0.307312 0.022369
0.174225 0.324097 0.051147
0.254272 0.333710 0.065948
0.353119 0.341492 0.063354
0.457367 0.349976 0.064148
0.566223 0.358826 0.066376
0.679260 0.367615 0.069153
0.796234 0.375793 0.071747
0.150848 0.422546 0.000000
0.207520 0.442505 0.029999
0.291809 0.456390 0.061218
0.387238 0.470673 0.065033
0.494781 0.481628 0.064575
0.608215 0.490143 0.064331
0.723907 0.497620 0.064636
0.842316 0.504364 0.065765
0.184296 0.556305 0.000000
0.245819 0.576813 0.008087
0.333282 0.588623 0.048248
0.421875 0.603271 0.060028
0.522644 0.614868 0.060730
0.634216 0.621704 0.058960
0.748352 0.625427 0.056732
0.862244 0.626465 0.053131
0.214325 0.692474 0.000000
0.278992 0.710266 0.000000
0.369934 0.717621 0.027069
0.450836 0.728058 0.045685
0.539154 0.735046 0.047241
0.638641 0.737457 0.040924
0.746185 0.736115 0.032837
0.856415 0.732178 0.024017
0.237244 0.818634 0.000000
0.298920 0.828918 0.000000
0.388611 0.828400 0.000000
0.462402 0.833374 0.009460
0.540344 0.836792 0.013245
0.628601 0.835907 0.005890
0.725220 0.830719 0.000549
0.827820 0.821075 0.000000
0.031464 0.035126 0.052887
0.073547 0.052002 0.084900
0.149719 0.059784 0.104828
0.235229 0.064728 0.121155
0.324677 0.067535 0.133148
0.414154 0.068481 0.140900
0.500549 0.069214 0.146423
0.589233 0.070068 0.151489
0.063171 0.129333 0.099945
0.115936 0.140411 0.129578
0.210266 0.138916 0.140350
0.294952 0.140625 0.143799
0.379181 0.143677 0.148499
0.469604 0.146820 0.153442
0.566498 0.149780 0.158295
0.669525 0.152222 0.162811
0.088226 0.217285 0.093567
0.147247 0.225830 0.125153
0.231445 0.229645 0.149902
0.327850 0.233612 0.151611
0.423737 0.238678 0.155060
0.523560 0.243439 0.158417
0.627869 0.248657 0.162445
0.737946 0.254974 0.167725
0.113098 0.317108 0.078125
0.176300 0.328949 0.112946
0.260345 0.335358 0.153748
0.355804 0.344360 0.156494
0.461182 0.352875 0.160400
0.571167 0.361725 0.165802
0.684753 0.370392 0.171234
0.801727 0.378204 0.176086
0.139709 0.433014 0.057861
0.209808 0.448883 0.098572
0.304443 0.458008 0.152008
0.391449 0.473816 0.167023
0.497467 0.484619 0.168915
0.611267 0.492645 0.170898
0.727539 0.499908 0.173615
0.845947 0.506134 0.176727
0.174072 0.566986 0.039429
0.246887 0.583221 0.081512
0.348297 0.589264 0.139709
0.429382 0.604584 0.166351
0.524963 0.616730 0.171448
0.635254 0.623108 0.170715
0.749023 0.625977 0.169250
0.862518 0.626129 0.166290
0.204437 0.702118 0.013275
0.279022 0.715942 0.057159
0.384399 0.716766 0.118042
0.460510 0.726166 0.150726
0.541870 0.733795 0.159088
0.637970 0.736603 0.154694
0.744507 0.734863 0.147003
0.854309 0.730133 0.138550
0.226074 0.825439 0.000000
0.296478 0.832397 0.018524
0.400665 0.825958 0.076874
0.473389 0.829315 0.111481
0.544739 0.832947 0.123840
0.627838 0.832458 0.120178
0.721619 0.827026 0.108307
0.822876 0.816559 0.093811
0.033264 0.042297 0.086060
0.077057 0.057404 0.130188
0.159454 0.062378 0.158813
0.245209 0.066223 0.181885
0.333130 0.068359 0.199310
0.420044 0.068848 0.210510
0.505127 0.069763 0.218719
0.595612 0.070587 0.226898
0.046631 0.138519 0.159851
0.103882 0.146942 0.195801
0.212189 0.140472 0.211060
0.296936 0.142090 0.216644
0.382294 0.145203 0.224396
0.473999 0.148285 0.232544
0.571960 0.151184 0.240662
0.675415 0.153534 0.248260
0.059052 0.229614 0.153564
0.119568 0.238312 0.185333
0.233368 0.231812 0.231750
0.330475 0.235657 0.236938
0.426666 0.240601 0.243103
0.527069 0.245483 0.249268
0.632233 0.251068 0.256195
0.743011 0.257660 0.264191
0.081360 0.331604 0.140686
0.150543 0.342163 0.175415
0.271301 0.336731 0.232361
0.358643 0.347412 0.252502
0.465179 0.355804 0.259705
0.575714 0.364563 0.267853
0.689575 0.373108 0.275696
0.806396 0.380493 0.282532
0.110046 0.448608 0.125061
0.188690 0.462769 0.166260
0.316254 0.461121 0.231506
0.397797 0.476166 0.270203
0.500000 0.487427 0.275696
0.614288 0.494995 0.279938
0.730988 0.501923 0.285004
0.848907 0.507538 0.289642
0.146210 0.582520 0.110626
0.227722 0.595947 0.153503
0.357849 0.592560 0.221313
0.441315 0.604736 0.269348
0.527893 0.618042 0.283691
0.635895 0.624084 0.284058
0.749268 0.626038 0.283234
0.862457 0.625366 0.281006
0.178375 0.716187 0.088104
0.261383 0.726959 0.132721
0.390869 0.718842 0.200592
0.473907 0.723480 0.249420
0.546875 0.731659 0.270416
0.637390 0.735260 0.269745
0.742523 0.733276 0.262573
0.851959 0.727814 0.254456
0.200378 0.836426 0.054108
0.278595 0.840515 0.094818
0.403870 0.826569 0.159119
0.486145 0.825012 0.206390
0.552460 0.828156 0.231873
0.628265 0.828369 0.234924
0.718018 0.822998 0.224548
0.817627 0.811737 0.209717
0.033234 0.049225 0.126556
0.077911 0.062988 0.181183
0.167145 0.064850 0.219757
0.254303 0.067261 0.247681
0.340515 0.068756 0.268066
0.425415 0.069305 0.281372
0.510193 0.070251 0.291840
0.602234 0.070923 0.303314
0.035339 0.145416 0.225342
0.095245 0.151978 0.263245
0.211121 0.142578 0.284943
0.299988 0.143341 0.291595
0.386230 0.146484 0.301819
0.479065 0.149628 0.313599
0.577728 0.152313 0.325317
0.681610 0.154541 0.336212
0.034119 0.239868 0.223999
0.096039 0.248383 0.260498
0.224640 0.237549 0.311127
0.333038 0.237701 0.323059
0.429535 0.242462 0.332458
0.530945 0.247437 0.342377
0.637299 0.253326 0.352966
0.748962 0.259949 0.364166
0.046570 0.346283 0.212280
0.115326 0.357239 0.248932
0.245148 0.350189 0.302826
0.361481 0.350403 0.350006
0.468567 0.358917 0.360199
0.579498 0.367737 0.370575
0.693481 0.376038 0.380310
0.809998 0.382904 0.388672
0.072235 0.466217 0.200165
0.151886 0.480591 0.241760
0.296417 0.474518 0.303070
0.410553 0.477264 0.363586
0.502441 0.490112 0.383362
0.617401 0.497284 0.390076
0.733978 0.503906 0.397064
0.851166 0.508972 0.402679
0.106750 0.600708 0.188049
0.191345 0.613312 0.230255
0.341797 0.604126 0.296112
0.454865 0.605652 0.358429
0.533173 0.618591 0.394867
0.636414 0.624969 0.397552
0.749268 0.625824 0.397186
0.862366 0.624451 0.395905
0.139923 0.733429 0.167053
0.227112 0.742340 0.210327
0.376007 0.727600 0.277039
0.483368 0.722992 0.335419
0.556732 0.728607 0.376190
0.637604 0.733490 0.384369
0.740204 0.731354 0.377808
0.849396 0.725250 0.370087
0.162415 0.850769 0.132172
0.245514 0.852966 0.171783
0.389069 0.832825 0.236053
0.491974 0.823547 0.290741
0.563934 0.822723 0.331604
0.631073 0.823364 0.347229
0.714569 0.818512 0.340118
0.812286 0.806824 0.325134
0.031616 0.056000 0.174133
0.076996 0.068573 0.238190
0.171478 0.067688 0.285919
0.261505 0.068207 0.317993
0.346741 0.068848 0.339691
0.430328 0.069702 0.354126
0.516113 0.070679 0.366943
0.609589 0.071198 0.381439
0.025024 0.151459 0.293030
0.086395 0.156921 0.332153
0.205750 0.146027 0.358612
0.301819 0.144836 0.369904
0.390869 0.147614 0.382446
0.484741 0.150696 0.396820
0.583893 0.153320 0.411316
0.687805 0.155457 0.425140
0.015076 0.247955 0.300140
0.080139 0.255920 0.341064
0.215149 0.243500 0.392059
0.333008 0.240234 0.412750
0.433228 0.244232 0.423248
0.535095 0.249512 0.435333
0.642120 0.255829 0.449036
0.754303 0.262512 0.463165
0.015350 0.359222 0.292908
0.084808 0.370087 0.333557
0.220093 0.361511 0.393860
0.354401 0.356537 0.445709
0.471893 0.362305 0.460510
0.583008 0.371002 0.473419
0.697174 0.378754 0.485840
0.813690 0.385040 0.496429
0.034332 0.483337 0.282684
0.113373 0.498108 0.326080
0.257843 0.492157 0.387085
0.384705 0.491180 0.443024
0.504791 0.492706 0.492126
0.619751 0.499725 0.500977
0.735901 0.506012 0.509094
0.852509 0.510590 0.515228
0.064087 0.619232 0.271820
0.148499 0.631866 0.314789
0.302551 0.621704 0.377502
0.435303 0.617340 0.435730
0.545441 0.617859 0.494568
0.636627 0.625519 0.511108
0.749268 0.625397 0.511566
0.861877 0.623505 0.511017
0.095215 0.751740 0.252045
0.182770 0.759674 0.294189
0.339020 0.742157 0.355835
0.466797 0.731079 0.412384
0.568085 0.726440 0.466980
0.640411 0.730957 0.497437
0.737823 0.729340 0.493042
0.846680 0.722443 0.485626
0.116241 0.866760 0.215302
0.201233 0.868042 0.253235
0.354858 0.844574 0.313477
0.476532 0.829071 0.368011
0.571350 0.819641 0.418213
0.638672 0.817230 0.453278
0.711823 0.813385 0.454803
0.806549 0.801514 0.440002
0.028320 0.062531 0.228271
0.074402 0.074005 0.300629
0.172852 0.070831 0.355804
0.265564 0.069458 0.391785
0.351562 0.069183 0.414154
0.434937 0.069946 0.429108
0.522491 0.070892 0.444885
0.617706 0.071320 0.462585
0.014709 0.157135 0.362732
0.077240 0.161804 0.402557
0.198639 0.149994 0.432587
0.300415 0.147186 0.450500
0.394562 0.148956 0.466614
0.490448 0.151581 0.483398
0.590179 0.154053 0.500244
0.694427 0.156281 0.516266
0.000885 0.255066 0.379059
0.066895 0.262604 0.423340
0.205200 0.249420 0.475006
0.327515 0.244415 0.503174
0.435303 0.246368 0.518005
0.539886 0.251526 0.531616
0.647614 0.258087 0.547089
0.760437 0.264984 0.563446
0.000000 0.370178 0.380096
0.060913 0.380524 0.425049
0.204926 0.369843 0.489685
0.344147 0.364105 0.540924
0.472321 0.366211 0.564789
0.587341 0.373871 0.577881
0.701050 0.381256 0.591156
0.817383 0.387360 0.603760
0.000702 0.498993 0.373138
0.078552 0.513672 0.419556
0.225006 0.506561 0.484833
0.357269 0.503296 0.546204
0.496002 0.498871 0.598694
0.621765 0.502258 0.611267
0.737091 0.507996 0.620270
0.853394 0.511963 0.627960
0.021881 0.636902 0.362335
0.105957 0.649597 0.406799
0.259552 0.639221 0.469452
0.392181 0.634674 0.526001
0.515564 0.630859 0.578827
0.636414 0.625610 0.625092
0.748352 0.624939 0.626312
0.860321 0.622742 0.625946
0.049316 0.769684 0.342133
0.135956 0.776794 0.383759
0.292053 0.758514 0.443085
0.423676 0.746185 0.495392
0.544617 0.735596 0.545441
0.650452 0.727264 0.598083
0.735229 0.727173 0.608612
0.843964 0.719452 0.601837
0.067047 0.882996 0.303162
0.151611 0.883698 0.340393
0.307587 0.859253 0.397339
0.437134 0.841187 0.447235
0.551636 0.825256 0.495575
0.647247 0.812103 0.543854
0.711945 0.807312 0.567749
0.800568 0.795959 0.554749
0.023560 0.068939 0.288849
0.070343 0.079315 0.368011
0.171875 0.074066 0.428284
0.266541 0.071075 0.467224
0.353912 0.070007 0.490479
0.439117 0.070282 0.506531
0.528687 0.070892 0.525146
0.625885 0.071259 0.546509
0.004303 0.162415 0.433777
0.067902 0.166656 0.473907
0.190979 0.154358 0.507874
0.296722 0.150391 0.532288
0.395691 0.150848 0.553528
0.495117 0.152527 0.572937
0.596191 0.154663 0.591766
0.701202 0.157013 0.610138
0.000000 0.261841 0.459778
0.054382 0.269043 0.506866
0.194885 0.255371 0.559875
0.319733 0.249451 0.593689
0.433411 0.249695 0.614746
0.543488 0.253876 0.631073
0.653351 0.260345 0.648102
0.767029 0.267242 0.666321
0.000000 0.379639 0.470886
0.041443 0.389435 0.519257
0.192108 0.377563 0.585785
0.333740 0.371857 0.637665
0.466553 0.372070 0.669067
0.589417 0.376862 0.685822
0.705322 0.383362 0.699219
0.821777 0.389374 0.712524
0.000000 0.512909 0.469604
0.048981 0.527008 0.519501
0.200684 0.517609 0.589417
0.340790 0.511749 0.653107
0.483490 0.506287 0.703705
0.620239 0.505310 0.724823
0.739410 0.509674 0.732513
0.854645 0.513031 0.739624
0.000000 0.653107 0.459595
0.066742 0.665466 0.506287
0.221558 0.654236 0.571655
0.355957 0.648254 0.631104
0.484253 0.641632 0.687683
0.623566 0.629578 0.735199
0.747101 0.624573 0.739594
0.858307 0.621979 0.739624
0.004303 0.786438 0.437653
0.089996 0.792755 0.479309
0.245270 0.773987 0.538055
0.376099 0.761414 0.589325
0.496643 0.750488 0.636963
0.615570 0.738007 0.682983
0.732391 0.724670 0.724304
0.840271 0.716370 0.717957
0.017609 0.898804 0.395386
0.101410 0.898987 0.432159
0.256866 0.874115 0.487488
0.386444 0.855438 0.535004
0.504578 0.837952 0.578766
0.619629 0.818604 0.621735
0.719055 0.800354 0.666382
0.794495 0.790283 0.669403
0.017334 0.075165 0.355286
0.064972 0.084473 0.439880
0.169098 0.077423 0.503296
0.265167 0.073059 0.543823
0.353882 0.071411 0.567810
0.442200 0.070984 0.586914
0.534790 0.071045 0.608704
0.634003 0.071075 0.633362
0.000000 0.167542 0.506165
0.058228 0.171417 0.546631
0.182861 0.158966 0.585052
0.291656 0.154205 0.615784
0.394501 0.153381 0.642487
0.497589 0.153931 0.665527
0.601318 0.155426 0.686310
0.707703 0.157715 0.706635
0.000000 0.268494 0.542419
0.041809 0.275360 0.592041
0.184235 0.261414 0.646912
0.310822 0.254883 0.685242
0.428589 0.253967 0.712189
0.543976 0.257019 0.733002
0.658020 0.262787 0.752136
0.773468 0.269348 0.771942
0.000000 0.388336 0.564117
0.024567 0.397827 0.615479
0.179840 0.385254 0.682861
0.322906 0.379639 0.736084
0.458008 0.378662 0.772919
0.586792 0.381042 0.795471
0.707916 0.385651 0.810394
0.826141 0.391205 0.824097
0.000000 0.525299 0.570404
0.023773 0.538513 0.623444
0.181244 0.527008 0.696259
0.326477 0.519501 0.759888
0.470581 0.513611 0.809753
0.611786 0.510406 0.837585
0.739075 0.511505 0.848022
0.856201 0.513550 0.853638
0.000000 0.667603 0.562531
0.031860 0.679230 0.611633
0.190186 0.666351 0.680634
0.329254 0.657898 0.742889
0.464569 0.648163 0.799866
0.607422 0.634613 0.843658
0.741852 0.624969 0.856201
0.857208 0.620667 0.854156
0.000000 0.801514 0.538696
0.046692 0.806915 0.581024
0.202332 0.787292 0.641174
0.333832 0.773773 0.694122
0.455933 0.761414 0.743927
0.580048 0.746399 0.793640
0.715454 0.726562 0.835388
0.836060 0.713226 0.832520
0.000000 0.913483 0.492645
0.052185 0.913269 0.529541
0.206940 0.887909 0.584412
0.335632 0.868683 0.631073
0.452728 0.850586 0.673157
0.567169 0.830597 0.713043
0.678772 0.808441 0.750427
0.788208 0.784393 0.784210
