assets/configs/ColorAnd3dLutPreset/CubeLUTFiles/SLog 709 Cinematic.CUBE
#Created by: Adobe Photoshop Export Color Lookup Plugin
#Copyright: (C) Copyright 2024 Wondershare Andy Zhang
TITLE "SLog 709 Cinematic"
#LUT size
LUT_3D_SIZE 4
#data domain
#LUT data points
DOMAIN_MIN 0.000000 0.000000 0.000000
DOMAIN_MAX 0.818182 0.818182 0.818182
0.042175 0.041290 0.029724
0.464142 0.015411 0.000000
0.707825 0.000000 0.080872
0.777222 0.000000 0.631683
0.000000 0.297516 0.009888
0.353088 0.407379 0.000000
0.876495 0.263214 0.000000
0.770477 0.000000 0.607941
0.000000 0.479736 0.015930
0.000000 0.479523 0.015930
0.954254 0.880402 0.000000
1.000000 0.864258 0.000000
0.000000 0.495819 0.016449
0.000000 0.495819 0.016449
0.000000 0.495819 0.016449
1.000000 0.932373 0.000000
0.109802 0.000000 0.428284
0.551575 0.000000 0.508484
0.745880 0.000000 0.556671
0.819916 0.000000 0.724243
0.000000 0.286224 0.365356
0.329529 0.336182 0.343933
0.857849 0.161652 0.376678
0.790375 0.000000 0.665344
0.000000 0.480438 0.015961
0.000000 0.477814 0.015869
0.951385 0.850800 0.000000
1.000000 0.878204 0.370880
0.000000 0.495819 0.016449
0.000000 0.495819 0.016449
0.000000 0.495819 0.016449
1.000000 0.932373 0.000000
0.007690 0.029724 0.741028
0.647858 0.000488 0.812378
0.844818 0.000000 0.793884
0.918091 0.212494 0.884155
0.000000 0.366638 0.768524
0.455811 0.428711 0.865936
0.893219 0.279633 0.855164
0.870819 0.000000 0.799164
0.000000 0.589233 0.787689
0.000000 0.588837 0.788971
0.910980 0.914795 0.875244
1.000000 0.862915 0.900421
0.000000 0.530975 0.080750
0.000000 0.534973 0.117554
0.000000 0.567719 0.207214
0.998444 1.000000 0.368103
0.658478 0.688751 0.964661
0.830658 0.693085 0.975250
0.968170 0.649536 0.979767
0.975647 0.566711 0.959167
0.472626 0.743256 0.959442
0.765778 0.768341 0.979919
0.969055 0.741669 0.988525
0.988068 0.676758 0.974091
0.000000 0.616089 0.853119
0.000000 0.650024 0.870941
0.934052 0.936768 1.000000
1.000000 0.917999 0.997284
0.000000 0.691681 0.882050
0.000000 0.691681 0.882050
0.000000 0.691711 0.882080
1.000000 1.000000 1.000000
