assets/configs/ColorAnd3dLutPreset/CubeLUTFiles/SLog 709 Cinematic.CUBE
#Created by: Adobe Photoshop Export Color Lookup Plugin
#Copyright: (C) Copyright 2024 Wondershare Andy Zhang
TITLE "SLog 709 Cinematic"
#LUT size
LUT_3D_SIZE 6
#data domain
#LUT data points
DOMAIN_MIN 0.000000 0.000000 0.000000
DOMAIN_MAX 0.909091 0.909091 0.909091
0.042175 0.041290 0.029724
0.262604 0.000031 0.007019
0.583771 0.019379 0.000000
0.707825 0.000000 0.080872
0.751953 0.000000 0.501740
0.842926 0.000000 0.761444
0.000336 0.132050 0.013489
0.132294 0.153137 0.000092
0.667145 0.135040 0.000000
0.711578 0.023621 0.000000
0.749634 0.000000 0.480774
0.839264 0.000000 0.755676
0.000000 0.390320 0.012970
0.000000 0.389618 0.012939
0.614319 0.644196 0.000000
0.975372 0.672485 0.000000
0.939026 0.376984 0.114502
0.783997 0.000000 0.649628
0.000000 0.479736 0.015930
0.000000 0.479645 0.015930
0.000000 0.479340 0.015930
0.954254 0.880402 0.000000
1.000000 0.876709 0.000000
1.000000 0.815460 0.534546
0.000000 0.495819 0.016449
0.000000 0.495819 0.016449
0.000000 0.495819 0.016449
0.000000 0.495819 0.016449
1.000000 0.927734 0.000000
1.000000 0.923340 0.000000
0.000000 0.495819 0.016449
0.000000 0.495819 0.016449
0.000000 0.495819 0.016449
0.000000 0.495819 0.016449
0.000000 0.495819 0.016449
1.000000 0.934814 0.000000
0.049744 0.009949 0.272491
0.319641 0.000000 0.301239
0.632843 0.000000 0.317963
0.729736 0.000000 0.423309
0.766418 0.000000 0.592224
0.863770 0.000031 0.793762
0.000000 0.119324 0.134644
0.119781 0.130585 0.134064
0.635529 0.030670 0.108490
0.727203 0.000000 0.235077
0.763977 0.000000 0.580994
0.860779 0.000031 0.789124
0.000000 0.373413 0.012390
0.000000 0.367767 0.012207
0.624481 0.575073 0.000000
0.938019 0.523285 0.000000
0.935516 0.351288 0.366272
0.790436 0.000000 0.664215
0.000000 0.480072 0.015930
0.000000 0.479980 0.015930
0.000000 0.479706 0.015930
0.954895 0.880981 0.000000
1.000000 0.859375 0.000000
1.000000 0.813293 0.623108
0.000000 0.495819 0.016449
0.000000 0.495819 0.016449
0.000000 0.495819 0.016449
0.000000 0.495819 0.016449
1.000000 0.927734 0.000000
1.000000 0.950439 0.000000
0.000000 0.495819 0.016449
0.000000 0.495819 0.016449
0.000000 0.495819 0.016449
0.000000 0.495819 0.016449
0.000000 0.495819 0.016449
1.000000 0.934814 0.000000
0.056793 0.000000 0.506805
0.404846 0.000000 0.611237
0.678772 0.000000 0.625580
0.781342 0.000000 0.671265
0.825592 0.000000 0.733673
0.895538 0.015961 0.843353
0.000000 0.152832 0.578613
0.186523 0.156982 0.598755
0.665894 0.030090 0.593567
0.771118 0.000000 0.565155
0.802307 0.000000 0.691254
0.894165 0.013306 0.841034
0.000000 0.432831 0.562836
0.000000 0.431671 0.568695
0.593292 0.584991 0.560699
0.924225 0.489410 0.554474
0.934875 0.354462 0.665649
0.807587 0.000000 0.699554
0.000000 0.524658 0.276794
0.000000 0.527679 0.291534
0.000000 0.535461 0.329956
0.941925 0.903839 0.050812
1.000000 0.899750 0.372101
1.000000 0.808014 0.774750
0.000000 0.495819 0.016449
0.000000 0.495819 0.016449
0.000000 0.495819 0.016449
0.000000 0.495819 0.016449
1.000000 0.927734 0.000000
1.000000 0.989807 0.226501
0.000000 0.495819 0.016449
0.000000 0.495819 0.016449
0.000000 0.495819 0.016449
0.000000 0.495819 0.016449
0.000000 0.495819 0.016449
1.000000 0.934814 0.000000
0.007690 0.029724 0.741028
0.476929 0.004333 0.799622
0.765472 0.000000 0.812683
0.844818 0.000000 0.793884
0.917969 0.211060 0.883789
0.918091 0.212494 0.884155
0.000000 0.290527 0.741425
0.269928 0.309692 0.824127
0.760590 0.246765 0.861084
0.864197 0.071991 0.818756
0.862091 0.000000 0.788849
0.918091 0.212494 0.884155
0.000000 0.455688 0.791199
0.000000 0.449066 0.788391
0.640076 0.595398 0.900391
0.923645 0.505280 0.887177
0.947388 0.409271 0.878937
0.889893 0.009857 0.824371
0.000000 0.589233 0.787689
0.000000 0.588928 0.788330
0.000000 0.588715 0.790100
0.910980 0.914795 0.875244
1.000000 0.893494 0.884216
0.999847 0.796448 0.923309
0.000000 0.640167 0.691864
0.000000 0.640472 0.694366
0.000000 0.641235 0.701141
0.000000 0.643036 0.719055
1.000000 0.999451 0.675049
0.998566 1.000000 0.808960
0.000000 0.495819 0.016449
0.000000 0.495819 0.016449
0.000000 0.495819 0.016449
0.000000 0.495819 0.016449
0.000000 0.495819 0.016449
1.000000 0.934814 0.000000
0.425873 0.545502 0.924835
0.661835 0.568573 0.945679
0.860992 0.546448 0.958984
0.956024 0.499176 0.960419
0.957886 0.450684 0.938934
0.918091 0.212494 0.884155
0.224396 0.586273 0.917999
0.558960 0.622894 0.948578
0.842896 0.621857 0.967285
0.958099 0.568298 0.968262
0.968262 0.530609 0.952332
0.922394 0.235413 0.889862
0.000000 0.522217 0.832611
0.042389 0.676208 0.923920
0.752319 0.753937 0.974762
0.959564 0.719482 0.981567
0.983643 0.681305 0.969543
0.972565 0.544067 0.954041
0.000000 0.611847 0.850403
0.000000 0.611633 0.850403
0.000000 0.711060 0.897552
0.920715 0.921356 0.991577
1.000000 0.904388 0.990265
1.000000 0.852081 0.986938
0.000000 0.669983 0.867340
0.000000 0.669983 0.867340
0.000000 0.670044 0.867401
0.000000 0.668152 0.866333
0.997711 1.000000 0.987793
1.000000 0.999298 0.989594
0.000000 0.668243 0.834747
0.000000 0.668274 0.835022
0.000000 0.668457 0.835785
0.000000 0.669006 0.837982
0.000000 0.670532 0.844299
0.998138 1.000000 0.943634
0.824066 0.819641 0.987061
0.864990 0.819122 0.988983
0.923859 0.810944 0.991455
0.979889 0.794067 0.993408
0.993988 0.776489 0.986450
0.988983 0.685059 0.975189
0.794739 0.834320 0.987488
0.847717 0.840546 0.989929
0.917084 0.834686 0.993042
0.979462 0.818481 0.995300
0.995972 0.802032 0.989349
0.992615 0.720367 0.979797
0.698364 0.868500 0.985626
0.779053 0.875854 0.990295
0.892487 0.883759 0.995697
0.976532 0.871735 0.999115
0.999939 0.858337 0.995575
0.999817 0.797791 0.989105
0.000000 0.717194 0.899719
0.045776 0.831146 0.950653
0.703491 0.928802 0.991089
0.954437 0.951813 1.000000
1.000000 0.946594 0.998230
1.000000 0.921844 0.997406
0.000000 0.673523 0.874969
0.000000 0.673523 0.874969
0.000000 0.673492 0.874939
0.337067 0.922607 0.976807
0.999542 1.000000 1.000000
1.000000 0.999512 0.999969
0.000000 0.695587 0.884827
0.000000 0.695587 0.884827
0.000000 0.695587 0.884827
0.000000 0.695587 0.884827
0.000000 0.746094 0.904419
1.000000 1.000000 1.000000
