assets/configs/ColorAnd3dLutPreset/CubeLUTFiles/SLog 709 Cinematic.CUBE
#Created by: Adobe Photoshop Export Color Lookup Plugin
#Copyright: (C) Copyright 2024 Wondershare Andy Zhang
TITLE "SLog 709 Cinematic"
#LUT size
LUT_3D_SIZE 12
#data domain
DOMAIN_MIN 0.0 0.0 0.0
DOMAIN_MAX 1.0 1.0 1.0
#LUT data points
0.042175 0.041290 0.029724
0.066223 0.042236 0.029297
0.262604 0.000031 0.007019
0.464142 0.015411 0.000000
0.583771 0.019379 0.000000
0.656769 0.021820 0.000000
0.707825 0.000000 0.080872
0.735809 0.000000 0.322632
0.751953 0.000000 0.501740
0.777222 0.000000 0.631683
0.842926 0.000000 0.761444
0.906616 0.098907 0.863037
0.041565 0.047943 0.029938
0.050140 0.049377 0.029144
0.185822 0.023315 0.010529
0.409515 0.013611 0.000000
0.561188 0.018646 0.000000
0.646729 0.021484 0.000000
0.704163 0.000000 0.036285
0.734833 0.000000 0.302826
0.750946 0.000000 0.493164
0.776093 0.000000 0.628296
0.841400 0.000000 0.759033
0.906281 0.095428 0.862335
0.000336 0.132050 0.013489
0.000397 0.129608 0.014160
0.132294 0.153137 0.000092
0.449890 0.178802 0.000000
0.667145 0.135040 0.000000
0.732971 0.033478 0.000000
0.711578 0.023621 0.000000
0.725464 0.000000 0.191467
0.749634 0.000000 0.480774
0.774597 0.000000 0.623322
0.839264 0.000000 0.755676
0.905762 0.090546 0.861389
0.000000 0.297516 0.009888
0.000000 0.296417 0.009857
0.000000 0.284058 0.009430
0.353088 0.407379 0.000000
0.723083 0.461639 0.000000
0.866364 0.424927 0.000000
0.876495 0.263214 0.000000
0.851898 0.095428 0.002533
0.789490 0.000000 0.296448
0.770477 0.000000 0.607941
0.835449 0.000000 0.749573
0.904846 0.081970 0.859650
0.000000 0.390320 0.012970
0.000000 0.390045 0.012939
0.000000 0.389618 0.012939
0.013336 0.451416 0.000000
0.614319 0.644196 0.000000
0.903229 0.705200 0.000000
0.975372 0.672485 0.000000
0.961792 0.490997 0.000000
0.939026 0.376984 0.114502
0.887482 0.145111 0.487854
0.783997 0.000000 0.649628
0.903198 0.066589 0.856628
0.000000 0.442902 0.014709
0.000000 0.442780 0.014709
0.000000 0.442596 0.014709
0.000000 0.442291 0.014679
0.257996 0.618683 0.000000
0.839966 0.806946 0.000000
0.984283 0.832886 0.000000
1.000000 0.815430 0.000000
1.000000 0.705811 0.000000
0.989899 0.627136 0.328613
0.945587 0.389465 0.669159
0.822144 0.001495 0.716156
0.000000 0.479736 0.015930
0.000000 0.479706 0.015930
0.000000 0.479645 0.015930
0.000000 0.479523 0.015930
0.000000 0.479340 0.015930
0.517242 0.743896 0.000000
0.954254 0.880402 0.000000
1.000000 0.896484 0.000000
1.000000 0.876709 0.000000
1.000000 0.864258 0.000000
1.000000 0.815460 0.534546
0.985077 0.637970 0.831024
0.000000 0.495819 0.016449
0.000000 0.495819 0.016449
0.000000 0.495819 0.016449
0.000000 0.495819 0.016449
0.000000 0.495819 0.016449
0.000000 0.495819 0.016449
0.740662 0.820374 0.000000
0.999512 0.912384 0.000000
1.000000 0.921875 0.000000
1.000000 0.907227 0.000000
1.000000 0.948029 0.124054
1.000000 0.932831 0.725952
0.000000 0.495819 0.016449
0.000000 0.495819 0.016449
0.000000 0.495819 0.016449
0.000000 0.495819 0.016449
0.000000 0.495819 0.016449
0.000000 0.495819 0.016449
0.000000 0.495819 0.016449
0.903046 0.889160 0.000000
1.000000 0.927734 0.000000
1.000000 0.934326 0.000000
1.000000 0.923340 0.000000
1.000000 0.990417 0.469696
0.000000 0.495819 0.016449
0.000000 0.495819 0.016449
0.000000 0.495819 0.016449
0.000000 0.495819 0.016449
0.000000 0.495819 0.016449
0.000000 0.495819 0.016449
0.000000 0.495819 0.016449
0.000000 0.495819 0.016449
0.976135 0.910614 0.000000
1.000000 0.932373 0.000000
1.000000 0.936279 0.000000
1.000000 0.953125 0.000000
0.000000 0.495819 0.016449
0.000000 0.495819 0.016449
0.000000 0.495819 0.016449
0.000000 0.495819 0.016449
0.000000 0.495819 0.016449
0.000000 0.495819 0.016449
0.000000 0.495819 0.016449
0.000000 0.495819 0.016449
0.000000 0.495819 0.016449
1.000000 0.922363 0.000000
1.000000 0.934814 0.000000
1.000000 0.936768 0.000000
0.000000 0.495819 0.016449
0.000000 0.495819 0.016449
0.000000 0.495819 0.016449
0.000000 0.495819 0.016449
0.000000 0.495819 0.016449
0.000000 0.495819 0.016449
0.000000 0.495819 0.016449
0.000000 0.495819 0.016449
0.000000 0.495819 0.016449
0.000000 0.495819 0.016449
1.000000 0.929443 0.000000
1.000000 0.936523 0.000000
0.041443 0.041595 0.047272
0.073669 0.041260 0.053528
0.276215 0.000000 0.044708
0.479279 0.000000 0.023743
0.606445 0.000000 0.050201
0.682007 0.000000 0.144348
0.719177 0.000000 0.278809
0.742401 0.000000 0.418518
0.757965 0.000000 0.546814
0.784790 0.000000 0.652771
0.852417 0.000000 0.776245
0.908936 0.120728 0.867188
0.039154 0.049286 0.038483
0.049011 0.048584 0.037964
0.180481 0.010193 0.029846
0.410461 0.012939 0.000000
0.567352 0.006653 0.000000
0.667633 0.000000 0.065521
0.717590 0.000000 0.254913
0.741150 0.000000 0.405670
0.757019 0.000000 0.540588
0.783600 0.000000 0.649506
0.850952 0.000000 0.773865
0.908569 0.117218 0.866455
0.000824 0.124146 0.015625
0.001740 0.119324 0.017426
0.136047 0.138367 0.000488
0.437103 0.149200 0.000000
0.636749 0.085358 0.000000
0.708801 0.023529 0.000000
0.717133 0.000000 0.053040
0.730011 0.000000 0.298340
0.755737 0.000000 0.531555
0.781952 0.000000 0.645081
0.848938 0.000000 0.770813
0.908081 0.112457 0.865723
0.000000 0.301117 0.010010
0.000000 0.298767 0.009918
0.000000 0.282684 0.009399
0.355133 0.392944 0.000000
0.706818 0.408813 0.000000
0.827454 0.312927 0.000000
0.856659 0.214996 0.000000
0.854156 0.051788 0.123077
0.793610 0.000000 0.364655
0.775116 0.000000 0.624298
0.845306 0.000000 0.765228
0.907196 0.104065 0.864044
0.000000 0.391296 0.013000
0.000000 0.391022 0.012970
0.000000 0.390625 0.012970
0.017303 0.457520 0.000000
0.617615 0.647339 0.000000
0.898529 0.682007 0.000000
0.951996 0.564087 0.000000
0.953400 0.474152 0.000000
0.937195 0.373169 0.259918
0.889069 0.146820 0.530457
0.786621 0.000000 0.655823
0.905609 0.089172 0.861145
0.000000 0.443359 0.014709
0.000000 0.443237 0.014709
0.000000 0.443054 0.014709
0.000000 0.442749 0.014709
0.265045 0.621765 0.000000
0.841125 0.807861 0.000000
0.984467 0.833771 0.000000
1.000000 0.756348 0.000000
1.000000 0.709473 0.000000
0.988220 0.624512 0.408997
0.945862 0.390137 0.691467
0.827454 0.002502 0.724945
0.000000 0.479889 0.015930
0.000000 0.479858 0.015930
0.000000 0.479767 0.015930
0.000000 0.479675 0.015930
0.000000 0.479492 0.015930
0.520813 0.745117 0.000000
0.954529 0.880646 0.000000
1.000000 0.896729 0.000000
1.000000 0.850342 0.000000
1.000000 0.871765 0.021973
1.000000 0.814545 0.574646
0.984985 0.637939 0.840027
0.000000 0.495819 0.016449
0.000000 0.495819 0.016449
0.000000 0.495819 0.016449
0.000000 0.495819 0.016449
0.000000 0.495819 0.016449
0.000000 0.495819 0.016449
0.742218 0.820770 0.000000
0.999542 0.912415 0.000000
1.000000 0.921875 0.000000
1.000000 0.900391 0.000000
1.000000 0.950195 0.215149
1.000000 0.932892 0.744293
0.000000 0.495819 0.016449
0.000000 0.495819 0.016449
0.000000 0.495819 0.016449
0.000000 0.495819 0.016449
0.000000 0.495819 0.016449
0.000000 0.495819 0.016449
0.000000 0.495819 0.016449
0.903564 0.889221 0.000000
1.000000 0.927734 0.000000
1.000000 0.934326 0.000000
1.000000 0.933838 0.000000
1.000000 0.991333 0.506683
0.000000 0.495819 0.016449
0.000000 0.495819 0.016449
0.000000 0.495819 0.016449
0.000000 0.495819 0.016449
0.000000 0.495819 0.016449
0.000000 0.495819 0.016449
0.000000 0.495819 0.016449
0.000000 0.495819 0.016449
0.976318 0.910767 0.000000
1.000000 0.932373 0.000000
1.000000 0.936279 0.000000
1.000000 0.960205 0.000000
0.000000 0.495819 0.016449
0.000000 0.495819 0.016449
0.000000 0.495819 0.016449
0.000000 0.495819 0.016449
0.000000 0.495819 0.016449
0.000000 0.495819 0.016449
0.000000 0.495819 0.016449
0.000000 0.495819 0.016449
0.000000 0.495819 0.016449
1.000000 0.922607 0.000000
1.000000 0.934814 0.000000
1.000000 0.936768 0.000000
0.000000 0.495819 0.016449
0.000000 0.495819 0.016449
0.000000 0.495819 0.016449
0.000000 0.495819 0.016449
0.000000 0.495819 0.016449
0.000000 0.495819 0.016449
0.000000 0.495819 0.016449
0.000000 0.495819 0.016449
0.000000 0.495819 0.016449
0.000000 0.495819 0.016449
1.000000 0.929443 0.000000
1.000000 0.936523 0.000000
0.049744 0.009949 0.272491
0.111023 0.001556 0.289185
0.319641 0.000000 0.301239
0.519592 0.000000 0.304565
0.632843 0.000000 0.317963
0.698090 0.000000 0.356720
0.729736 0.000000 0.423309
0.751556 0.000000 0.507507
0.766418 0.000000 0.592224
0.796906 0.000000 0.680176
0.863770 0.000031 0.793762
0.911835 0.149689 0.872559
0.003967 0.042450 0.184692
0.032562 0.036407 0.176849
0.195221 0.001190 0.189148
0.436951 0.000000 0.195862
0.593018 0.000000 0.220215
0.681458 0.000000 0.285675
0.726440 0.000000 0.400299
0.750427 0.000000 0.498871
0.765411 0.000000 0.587524
0.795471 0.000000 0.677002
0.862518 0.000031 0.791779
0.911499 0.146362 0.872070
0.000000 0.119324 0.134644
0.000000 0.116852 0.144135
0.119781 0.130585 0.134064
0.428192 0.118530 0.116089
0.635529 0.030670 0.108490
0.714691 0.000000 0.149017
0.727203 0.000000 0.235077
0.734955 0.000000 0.390625
0.763977 0.000000 0.580994
0.793518 0.000000 0.672821
0.860779 0.000031 0.789124
0.911041 0.141785 0.871033
0.000000 0.262390 0.017365
0.000000 0.262024 0.024567
0.000000 0.242035 0.030914
0.346924 0.331757 0.000000
0.677490 0.335632 0.000061
0.817291 0.277771 0.006927
0.857361 0.192963 0.129120
0.855774 0.044525 0.287933
0.799713 0.000000 0.437134
0.780579 0.000000 0.641266
0.857635 0.000000 0.784363
0.910217 0.133636 0.869629
0.000000 0.373413 0.012390
0.000000 0.371033 0.012329
0.000000 0.367767 0.012207
0.032959 0.420502 0.000000
0.624481 0.575073 0.000000
0.870056 0.575439 0.000000
0.938019 0.523285 0.000000
0.950165 0.467407 0.060638
0.935516 0.351288 0.366272
0.891357 0.149719 0.579559
0.790436 0.000000 0.664215
0.908752 0.119080 0.866913
0.000000 0.443970 0.014740
0.000000 0.443848 0.014740
0.000000 0.443695 0.014740
0.000000 0.443359 0.014709
0.273956 0.623749 0.000000
0.838745 0.790833 0.000000
0.974213 0.770630 0.000000
1.000000 0.736572 0.000000
1.000000 0.715515 0.048035
0.986328 0.621246 0.491821
0.946228 0.391357 0.718781
0.834198 0.003937 0.736084
0.000000 0.480072 0.015930
0.000000 0.480042 0.015930
0.000000 0.479980 0.015930
0.000000 0.479889 0.015930
0.000000 0.479706 0.015930
0.525848 0.746826 0.000000
0.954895 0.880981 0.000000
1.000000 0.883789 0.000000
1.000000 0.859375 0.000000
1.000000 0.876495 0.142548
1.000000 0.813293 0.623108
0.984863 0.637970 0.850616
0.000000 0.495819 0.016449
0.000000 0.495819 0.016449
0.000000 0.495819 0.016449
0.000000 0.495819 0.016449
0.000000 0.495819 0.016449
0.000000 0.495819 0.016449
0.744354 0.821350 0.000000
0.999573 0.912445 0.000000
1.000000 0.921875 0.000000
1.000000 0.916016 0.000000
1.000000 0.952240 0.320831
1.000000 0.932800 0.766785
0.000000 0.495819 0.016449
0.000000 0.495819 0.016449
0.000000 0.495819 0.016449
0.000000 0.495819 0.016449
0.000000 0.495819 0.016449
0.000000 0.495819 0.016449
0.000000 0.495819 0.016449
0.904327 0.889526 0.000000
1.000000 0.927734 0.000000
1.000000 0.934326 0.000000
1.000000 0.950439 0.000000
1.000000 0.992432 0.551117
0.000000 0.495819 0.016449
0.000000 0.495819 0.016449
0.000000 0.495819 0.016449
0.000000 0.495819 0.016449
0.000000 0.495819 0.016449
0.000000 0.495819 0.016449
0.000000 0.495819 0.016449
0.000000 0.495819 0.016449
0.976501 0.910950 0.000000
1.000000 0.932373 0.000000
1.000000 0.936279 0.000000
1.000000 0.976807 0.000000
0.000000 0.495819 0.016449
0.000000 0.495819 0.016449
0.000000 0.495819 0.016449
0.000000 0.495819 0.016449
0.000000 0.495819 0.016449
0.000000 0.495819 0.016449
0.000000 0.495819 0.016449
0.000000 0.495819 0.016449
0.000000 0.495819 0.016449
1.000000 0.922607 0.000000
1.000000 0.934814 0.000000
1.000000 0.936768 0.000000
0.000000 0.495819 0.016449
0.000000 0.495819 0.016449
0.000000 0.495819 0.016449
0.000000 0.495819 0.016449
0.000000 0.495819 0.016449
0.000000 0.495819 0.016449
0.000000 0.495819 0.016449
0.000000 0.495819 0.016449
0.000000 0.495819 0.016449
0.000000 0.495819 0.016449
1.000000 0.929443 0.000000
1.000000 0.936523 0.000000
0.109802 0.000000 0.428284
0.179657 0.000000 0.471680
0.381836 0.000000 0.510284
0.551575 0.000000 0.508484
0.655701 0.000000 0.509064
0.716248 0.000000 0.523712
0.745880 0.000000 0.556671
0.767151 0.000000 0.599335
0.783905 0.000000 0.650116
0.819916 0.000000 0.724243
0.877655 0.000580 0.815338
0.916687 0.197998 0.881409
0.065613 0.002899 0.384521
0.092346 0.000000 0.374146
0.239929 0.000000 0.397369
0.457886 0.000000 0.406342
0.607513 0.000000 0.417358
0.691711 0.000000 0.448181
0.737640 0.000000 0.520813
0.765961 0.000000 0.594666
0.782593 0.000000 0.646759
0.818359 0.000000 0.721466
0.876862 0.000488 0.813965
0.916351 0.194885 0.880951
0.000000 0.136780 0.407715
0.000000 0.131195 0.405273
0.132050 0.135498 0.404022
0.442200 0.102448 0.395844
0.646484 0.023712 0.380859
0.726898 0.000000 0.380829
0.744873 0.000000 0.408081
0.742676 0.000000 0.483948
0.780121 0.000000 0.639954
0.816193 0.000000 0.717560
0.875763 0.000336 0.812286
0.915955 0.190613 0.880188
0.000000 0.286224 0.365356
0.000000 0.285065 0.371246
0.000000 0.259094 0.344666
0.329529 0.336182 0.343933
0.677185 0.313690 0.323364
0.816803 0.247284 0.331116
0.857849 0.161652 0.376678
0.859253 0.039215 0.458832
0.811523 0.000000 0.529999
0.790375 0.000000 0.665344
0.873779 0.000153 0.809357
0.915161 0.183014 0.878693
0.000000 0.408752 0.251678
0.000000 0.409546 0.260376
0.000000 0.410583 0.272064
0.002106 0.450806 0.233673
0.603577 0.580719 0.140350
0.862885 0.571930 0.097961
0.932159 0.514740 0.226257
0.944580 0.457642 0.376678
0.934143 0.351929 0.513275
0.895752 0.155945 0.647034
0.796265 0.000000 0.676910
0.913818 0.169434 0.876190
0.000000 0.434753 0.029083
0.000000 0.436310 0.035675
0.000000 0.438263 0.044525
0.000000 0.441956 0.059570
0.224915 0.609314 0.000000
0.828888 0.764740 0.000000
0.968201 0.768219 0.000000
0.996643 0.749969 0.047089
0.997040 0.714600 0.353943
0.983887 0.616089 0.602112
0.947083 0.394012 0.757355
0.845062 0.006531 0.754181
0.000000 0.480438 0.015961
0.000000 0.479950 0.015930
0.000000 0.479218 0.015900
0.000000 0.477814 0.015869
0.000000 0.475403 0.015778
0.528168 0.736847 0.000000
0.951385 0.850800 0.000000
1.000000 0.865723 0.000000
1.000000 0.886993 0.004486
1.000000 0.878204 0.370880
1.000000 0.811310 0.690582
0.984833 0.638367 0.866760
0.000000 0.495819 0.016449
0.000000 0.495819 0.016449
0.000000 0.495819 0.016449
0.000000 0.495819 0.016449
0.000000 0.495819 0.016449
0.000000 0.495819 0.016449
0.747803 0.822296 0.000000
0.999634 0.912750 0.000000
1.000000 0.905762 0.000000
1.000000 0.944336 0.000000
1.000000 0.954742 0.453339
1.000000 0.932739 0.801544
0.000000 0.495819 0.016449
0.000000 0.495819 0.016449
0.000000 0.495819 0.016449
0.000000 0.495819 0.016449
0.000000 0.495819 0.016449
0.000000 0.495819 0.016449
0.000000 0.495819 0.016449
0.905579 0.889893 0.000000
1.000000 0.927734 0.000000
1.000000 0.934326 0.000000
1.000000 0.974365 0.000031
1.000000 0.993866 0.618591
0.000000 0.495819 0.016449
0.000000 0.495819 0.016449
0.000000 0.495819 0.016449
0.000000 0.495819 0.016449
0.000000 0.495819 0.016449
0.000000 0.495819 0.016449
0.000000 0.495819 0.016449
0.000000 0.495819 0.016449
0.976837 0.911011 0.000000
1.000000 0.932373 0.000000
1.000000 0.936279 0.000000
1.000000 0.993805 0.026276
0.000000 0.495819 0.016449
0.000000 0.495819 0.016449
0.000000 0.495819 0.016449
0.000000 0.495819 0.016449
0.000000 0.495819 0.016449
0.000000 0.495819 0.016449
0.000000 0.495819 0.016449
0.000000 0.495819 0.016449
0.000000 0.495819 0.016449
1.000000 0.922607 0.000000
1.000000 0.934814 0.000000
1.000000 0.936768 0.000000
0.000000 0.495819 0.016449
0.000000 0.495819 0.016449
0.000000 0.495819 0.016449
0.000000 0.495819 0.016449
0.000000 0.495819 0.016449
0.000000 0.495819 0.016449
0.000000 0.495819 0.016449
0.000000 0.495819 0.016449
0.000000 0.495819 0.016449
0.000000 0.495819 0.016449
1.000000 0.929443 0.000000
1.000000 0.936523 0.000000
0.056793 0.000000 0.506805
0.216400 0.000000 0.567810
0.404846 0.000000 0.611237
0.586426 0.000000 0.633942
0.678772 0.000000 0.625580
0.750519 0.000000 0.650665
0.781342 0.000000 0.671265
0.804230 0.000000 0.696442
0.825592 0.000000 0.733673
0.862091 0.000031 0.791168
0.895538 0.015961 0.843353
0.918091 0.212494 0.884155
0.072266 0.000488 0.517212
0.131683 0.000000 0.518097
0.286469 0.000000 0.549835
0.492004 0.000000 0.561676
0.611694 0.000000 0.541046
0.699310 0.000000 0.558624
0.751373 0.000000 0.606628
0.798645 0.000000 0.686340
0.823730 0.000000 0.730804
0.860809 0.000031 0.789154
0.894928 0.014679 0.842499
0.918091 0.212494 0.884155
0.000000 0.152832 0.578613
0.000000 0.139954 0.564270
0.186523 0.156982 0.598755
0.483521 0.113892 0.620941
0.665894 0.030090 0.593567
0.748047 0.000000 0.573456
0.771118 0.000000 0.565155
0.752563 0.000000 0.567719
0.802307 0.000000 0.691254
0.859009 0.000031 0.786438
0.894165 0.013306 0.841034
0.918091 0.212494 0.884155
0.000000 0.295898 0.591248
0.000000 0.294464 0.592957
0.000000 0.277618 0.572266
0.350769 0.345184 0.617615
0.680634 0.318054 0.607147
0.818665 0.247192 0.593903
0.862457 0.159790 0.596375
0.868988 0.046234 0.623718
0.831299 0.000000 0.635651
0.803223 0.000000 0.692810
0.892761 0.010742 0.838928
0.918091 0.212494 0.884155
0.000000 0.432831 0.562836
0.000000 0.432404 0.565308
0.000000 0.431671 0.568695
0.000000 0.480255 0.555695
0.593292 0.584991 0.560699
0.851776 0.557343 0.550964
0.924225 0.489410 0.554474
0.940613 0.437195 0.599060
0.934875 0.354462 0.665649
0.902954 0.170807 0.725983
0.807587 0.000000 0.699554
0.918091 0.212494 0.884155
0.000000 0.522980 0.479950
0.000000 0.523560 0.484070
0.000000 0.524323 0.489502
0.000000 0.525574 0.498871
0.093689 0.684601 0.452179
0.810455 0.792328 0.395599
0.955261 0.777252 0.412781
0.987213 0.746826 0.485107
0.991089 0.706818 0.599945
0.981537 0.600739 0.712677
0.948822 0.400360 0.805145
0.865356 0.011780 0.784912
0.000000 0.524658 0.276794
0.000000 0.525940 0.282867
0.000000 0.527679 0.291534
0.000000 0.530670 0.306030
0.000000 0.535461 0.329956
0.471252 0.794617 0.098267
0.941925 0.903839 0.050812
1.000000 0.906677 0.159912
1.000000 0.899750 0.372101
1.000000 0.876434 0.584412
1.000000 0.808014 0.774750
0.984955 0.640259 0.888672
0.000000 0.494354 0.016418
0.000000 0.493988 0.016388
0.000000 0.493469 0.016388
0.000000 0.492584 0.016357
0.000000 0.491272 0.016327
0.000000 0.491547 0.016327
0.750061 0.819061 0.000000
0.999207 0.919922 0.000000
1.000000 0.948975 0.000000
1.000000 0.963074 0.265564
1.000000 0.956573 0.609039
1.000000 0.932098 0.848022
0.000000 0.495819 0.016449
0.000000 0.495819 0.016449
0.000000 0.495819 0.016449
0.000000 0.495819 0.016449
0.000000 0.495819 0.016449
0.000000 0.495819 0.016449
0.000000 0.495819 0.016449
0.907776 0.890503 0.000000
1.000000 0.927734 0.000000
1.000000 0.942627 0.000000
1.000000 0.989807 0.226501
1.000000 0.995422 0.706512
0.000000 0.495819 0.016449
0.000000 0.495819 0.016449
0.000000 0.495819 0.016449
0.000000 0.495819 0.016449
0.000000 0.495819 0.016449
0.000000 0.495819 0.016449
0.000000 0.495819 0.016449
0.000000 0.495819 0.016449
0.977448 0.911102 0.000000
1.000000 0.932373 0.000000
1.000000 0.936279 0.000000
0.998291 1.000000 0.305634
0.000000 0.495819 0.016449
0.000000 0.495819 0.016449
0.000000 0.495819 0.016449
0.000000 0.495819 0.016449
0.000000 0.495819 0.016449
0.000000 0.495819 0.016449
0.000000 0.495819 0.016449
0.000000 0.495819 0.016449
0.000000 0.495819 0.016449
1.000000 0.922607 0.000000
1.000000 0.934814 0.000000
1.000000 0.936768 0.000000
0.000000 0.495819 0.016449
0.000000 0.495819 0.016449
0.000000 0.495819 0.016449
0.000000 0.495819 0.016449
0.000000 0.495819 0.016449
0.000000 0.495819 0.016449
0.000000 0.495819 0.016449
0.000000 0.495819 0.016449
0.000000 0.495819 0.016449
0.000000 0.495819 0.016449
1.000000 0.929443 0.000000
1.000000 0.936523 0.000000
0.030212 0.000000 0.592102
0.246216 0.000000 0.650635
0.424011 0.000000 0.688354
0.601532 0.000000 0.712097
0.724487 0.000000 0.726440
0.780029 0.000000 0.724792
0.837952 0.000000 0.772278
0.876740 0.000458 0.814484
0.885498 0.002472 0.827515
0.898773 0.025787 0.848480
0.913818 0.169312 0.876190
0.918091 0.212494 0.884155
0.000000 0.058289 0.629852
0.112732 0.016327 0.648102
0.341919 0.001312 0.684509
0.546021 0.000000 0.701965
0.682526 0.000000 0.695618
0.724701 0.000000 0.655518
0.768982 0.000000 0.668732
0.827454 0.000000 0.742615
0.884796 0.002014 0.826385
0.898315 0.021790 0.847809
0.913513 0.166412 0.875763
0.918091 0.212494 0.884155
0.000000 0.196198 0.673584
0.000427 0.173218 0.662445
0.233887 0.204498 0.725372
0.520935 0.169403 0.759277
0.718781 0.086426 0.761810
0.783569 0.000000 0.720825
0.808319 0.000000 0.700165
0.799042 0.000000 0.678680
0.824829 0.000000 0.732208
0.897614 0.018951 0.846558
0.913116 0.162354 0.875000
0.918091 0.212494 0.884155
0.000000 0.309692 0.705933
0.000000 0.308563 0.706055
0.000000 0.307526 0.718933
0.396729 0.365204 0.778870
0.709656 0.331543 0.794128
0.827393 0.264374 0.768005
0.873291 0.185059 0.756165
0.884399 0.079773 0.755127
0.862061 0.009033 0.739197
0.819153 0.000000 0.722961
0.912384 0.155121 0.873566
0.918091 0.212494 0.884155
0.000000 0.440277 0.721039
0.000000 0.439606 0.721680
0.000000 0.438721 0.722534
0.005188 0.500153 0.754120
0.610626 0.583954 0.794922
0.847168 0.546600 0.783478
0.921448 0.487793 0.774078
0.940643 0.439697 0.779083
0.938507 0.365814 0.794769
0.914185 0.207886 0.801941
0.835449 0.000000 0.745087
0.918091 0.212494 0.884155
0.000000 0.533630 0.701447
0.000000 0.533478 0.702393
0.000000 0.533081 0.703674
0.000000 0.532715 0.705933
0.054718 0.699249 0.736023
0.795593 0.789154 0.743774
0.943695 0.766998 0.742035
0.979889 0.728485 0.748016
0.986938 0.690460 0.783112
0.980072 0.599426 0.826843
0.952454 0.416565 0.855499
0.891266 0.030701 0.824249
0.000000 0.575500 0.639343
0.000000 0.575623 0.640869
0.000000 0.575836 0.642853
0.000000 0.576019 0.646393
0.000000 0.576355 0.652313
0.432678 0.858185 0.649689
0.921204 0.917542 0.614655
0.995300 0.911560 0.633423
1.000000 0.899261 0.690918
1.000000 0.872803 0.774841
0.999939 0.798828 0.855347
0.985718 0.647247 0.915314
0.000000 0.613068 0.537933
0.000000 0.613556 0.540619
0.000000 0.614166 0.544281
0.000000 0.615265 0.550812
0.000000 0.617096 0.561798
0.000000 0.619812 0.579559
0.712860 0.915619 0.418335
0.989105 0.969543 0.399841
1.000000 0.972839 0.482269
1.000000 0.969543 0.619476
1.000000 0.957764 0.767120
1.000000 0.929718 0.899536
0.000000 0.496979 0.016510
0.000000 0.498505 0.016541
0.000000 0.500946 0.016632
0.000000 0.504852 0.016754
0.000000 0.511200 0.016968
0.000000 0.520874 0.021881
0.000000 0.542603 0.118164
0.878632 0.903778 0.000000
1.000000 0.977814 0.001068
1.000000 0.992065 0.262482
1.000000 0.997345 0.580902
1.000000 0.996765 0.807129
0.000000 0.495819 0.016449
0.000000 0.495819 0.016449
0.000000 0.495819 0.016449
0.000000 0.495819 0.016449
0.000000 0.495819 0.016449
0.000000 0.495819 0.016449
0.000000 0.495819 0.016449
0.000000 0.495819 0.016449
0.978455 0.911316 0.000000
1.000000 0.932373 0.000000
1.000000 0.985168 0.003540
0.992889 1.000000 0.606293
0.000000 0.495819 0.016449
0.000000 0.495819 0.016449
0.000000 0.495819 0.016449
0.000000 0.495819 0.016449
0.000000 0.495819 0.016449
0.000000 0.495819 0.016449
0.000000 0.495819 0.016449
0.000000 0.495819 0.016449
0.000000 0.495819 0.016449
1.000000 0.922607 0.000000
1.000000 0.934814 0.000000
1.000000 0.936768 0.000000
0.000000 0.495819 0.016449
0.000000 0.495819 0.016449
0.000000 0.495819 0.016449
0.000000 0.495819 0.016449
0.000000 0.495819 0.016449
0.000000 0.495819 0.016449
0.000000 0.495819 0.016449
0.000000 0.495819 0.016449
0.000000 0.495819 0.016449
0.000000 0.495819 0.016449
1.000000 0.929443 0.000000
1.000000 0.936523 0.000000
0.007690 0.029724 0.741028
0.298859 0.008759 0.774872
0.476929 0.004333 0.799622
0.647858 0.000488 0.812378
0.765472 0.000000 0.812683
0.808685 0.000000 0.788147
0.844818 0.000000 0.793884
0.887573 0.006653 0.836609
0.917969 0.211060 0.883789
0.918091 0.212494 0.884155
0.918091 0.212494 0.884155
0.918091 0.212494 0.884155
0.000000 0.247040 0.740784
0.123718 0.236938 0.789124
0.411133 0.231476 0.820648
0.622498 0.155914 0.836029
