assets/configs/ColorAnd3dLutPreset/CubeLUTFiles/Sparta 300.CUBE
#Created by: Adobe Photoshop Export Color Lookup Plugin
#Copyright: (C) Copyright 2016 Wondershare Inc.
TITLE "300"
#LUT size
LUT_3D_SIZE 8
#data domain
#LUT data points
DOMAIN_MIN 0.000000 0.000000 0.000000
DOMAIN_MAX 0.903226 0.903226 0.903226
0.000000 0.000000 0.000000
0.060028 0.001282 0.000305
0.153931 0.004639 0.001556
0.249725 0.011566 0.004089
0.345062 0.022003 0.007751
0.443024 0.033112 0.013458
0.542084 0.049316 0.021484
0.643799 0.065918 0.033905
0.004852 0.051666 0.001404
0.063782 0.053558 0.002228
0.155884 0.071228 0.004211
0.250854 0.085022 0.007172
0.348236 0.098297 0.011078
0.448883 0.112671 0.020813
0.550476 0.128052 0.032990
0.653442 0.144470 0.045990
0.026917 0.144226 0.007141
0.091492 0.145844 0.007660
0.164764 0.150879 0.009308
0.251129 0.164154 0.014587
0.349213 0.181854 0.025421
0.448364 0.197021 0.036072
0.550903 0.212799 0.048340
0.656555 0.229950 0.061432
0.056458 0.238220 0.018036
0.119690 0.239380 0.019257
0.190857 0.243042 0.023010
0.266113 0.247742 0.026855
0.353271 0.260895 0.038666
0.450745 0.279236 0.050812
0.553650 0.297150 0.063812
0.661072 0.316406 0.077179
0.085999 0.334961 0.038727
0.149475 0.336060 0.040741
0.219971 0.339325 0.044067
0.292908 0.343048 0.047638
0.371277 0.347992 0.052277
0.461609 0.362915 0.064392
0.555756 0.379547 0.076813
0.669403 0.406189 0.092834
0.116943 0.433228 0.060516
0.181793 0.435425 0.063141
0.250092 0.437653 0.065857
0.323914 0.441345 0.069611
0.400757 0.446838 0.074615
0.480225 0.452606 0.079865
0.575195 0.469788 0.092834
0.679382 0.493713 0.107697
0.149017 0.533722 0.083466
0.214691 0.536072 0.086670
0.282623 0.538635 0.089355
0.355865 0.543060 0.093689
0.434021 0.549194 0.097595
0.517853 0.559509 0.103638
0.603119 0.568298 0.109955
0.706177 0.593506 0.125031
0.185059 0.640045 0.108215
0.252533 0.644501 0.112061
0.324768 0.651001 0.115295
0.400848 0.658569 0.120270
0.480682 0.665894 0.125244
0.562561 0.675018 0.130249
0.647675 0.684937 0.135773
0.734253 0.695282 0.142822
0.000000 0.001373 0.044037
0.062714 0.003021 0.049622
0.158051 0.008179 0.056732
0.255646 0.016693 0.064850
0.354095 0.027252 0.075012
0.454498 0.041412 0.086060
0.555420 0.056976 0.097046
0.656525 0.072754 0.108612
0.008942 0.059296 0.054260
0.085419 0.073395 0.057190
0.176483 0.082458 0.065308
0.270203 0.094116 0.074951
0.366058 0.106506 0.084625
0.463470 0.120911 0.095764
0.562439 0.135376 0.106842
0.666962 0.152649 0.119537
0.032898 0.150238 0.064545
0.110474 0.163422 0.075104
0.184265 0.167877 0.079132
0.276581 0.182465 0.089142
0.373260 0.194763 0.098724
0.473816 0.207489 0.109497
0.576752 0.221619 0.121155
0.681183 0.238159 0.134003
0.061584 0.243866 0.082031
0.138214 0.257507 0.094513
0.209259 0.260590 0.097595
0.285461 0.265839 0.102509
0.376282 0.280273 0.113647
0.479156 0.297974 0.127014
0.584106 0.315491 0.139313
0.696289 0.336029 0.153198
0.091187 0.339691 0.103058
0.167236 0.353119 0.115356
0.237610 0.356262 0.117615
0.312958 0.360931 0.122375
0.391632 0.365967 0.128601
0.484497 0.382812 0.141541
0.595001 0.408691 0.157928
0.710358 0.436584 0.172760
0.121887 0.437927 0.125092
0.199463 0.453217 0.138123
0.270355 0.456268 0.141754
0.344696 0.461060 0.145660
0.423645 0.467743 0.151489
0.506378 0.475464 0.157806
0.610046 0.500122 0.173798
0.719543 0.528564 0.190002
0.154083 0.538635 0.148163
0.236725 0.559387 0.163483
0.309021 0.565125 0.167511
0.385498 0.571838 0.172089
0.466583 0.580414 0.177856
0.551239 0.589996 0.184387
0.637085 0.600586 0.191467
0.740356 0.624451 0.206726
0.190033 0.645233 0.173370
0.281555 0.675140 0.191406
0.355621 0.681732 0.195435
0.432587 0.689941 0.199982
0.512634 0.698334 0.205536
0.595764 0.707642 0.212463
0.680878 0.717224 0.218384
0.767639 0.727753 0.225372
0.001434 0.004974 0.106171
0.076477 0.007141 0.115448
0.160797 0.011871 0.124634
0.254456 0.028351 0.139557
0.354156 0.041748 0.154297
0.454712 0.054993 0.167023
0.555878 0.069519 0.178619
0.659210 0.084930 0.190338
0.018311 0.074005 0.121552
0.101349 0.089844 0.136292
0.180023 0.094971 0.141602
0.274963 0.106812 0.154633
0.373749 0.117767 0.166260
0.475189 0.130371 0.176910
0.577271 0.144287 0.187592
0.681152 0.161316 0.200378
0.039612 0.157776 0.135071
0.118073 0.171631 0.146881
0.201904 0.184143 0.159180
0.294006 0.192780 0.167450
0.389771 0.203949 0.177826
0.488312 0.216614 0.188171
0.590912 0.231140 0.201263
0.697083 0.247528 0.214355
0.068634 0.251495 0.154694
0.145874 0.264648 0.166840
0.226776 0.276642 0.177490
0.304016 0.281738 0.182831
0.401184 0.297516 0.195099
0.503693 0.312042 0.205994
0.611938 0.328979 0.219025
0.721710 0.347137 0.231659
0.098511 0.347809 0.175476
0.174713 0.360107 0.186462
0.256683 0.373688 0.198730
0.332092 0.378906 0.203918
0.413940 0.386230 0.209991
0.515564 0.407806 0.225983
0.628723 0.434174 0.241272
0.741486 0.457672 0.254791
0.128601 0.444885 0.195953
0.206757 0.460876 0.209473
0.292236 0.477325 0.223114
0.369720 0.484375 0.228607
0.451141 0.492279 0.234406
0.538025 0.503021 0.242279
0.640747 0.527588 0.259064
0.754425 0.558441 0.276276
0.160248 0.544861 0.218262
0.244476 0.567169 0.234955
0.336151 0.591217 0.251740
0.413940 0.599701 0.256592
0.495361 0.607727 0.262390
0.580780 0.617432 0.269226
0.666901 0.628052 0.276794
0.770569 0.654236 0.295380
0.196564 0.652130 0.243439
0.289825 0.683746 0.263092
0.384460 0.712830 0.281586
0.462067 0.720001 0.287048
0.542175 0.728455 0.293030
0.625305 0.737671 0.299194
0.710175 0.747498 0.305389
0.797546 0.758057 0.313477
0.007111 0.016113 0.187256
0.088409 0.020050 0.195282
0.174866 0.027130 0.204529
0.260803 0.036377 0.213043
0.356049 0.053558 0.228485
0.452972 0.067383 0.243408
0.556274 0.082214 0.258209
0.660156 0.096863 0.272186
0.029938 0.090332 0.201630
0.114777 0.104919 0.216095
0.194885 0.110840 0.221954
0.279083 0.118195 0.230072
0.373413 0.131836 0.243896
0.476868 0.145172 0.258759
0.579041 0.158203 0.271881
0.685760 0.173676 0.284607
0.053192 0.172729 0.215240
0.132172 0.186829 0.228027
0.217560 0.199188 0.240875
0.298706 0.205322 0.246674
0.395325 0.217010 0.260132
0.497559 0.228516 0.272186
0.602203 0.241302 0.283997
0.711731 0.257996 0.297668
0.075134 0.259186 0.229248
0.153687 0.272919 0.241364
0.235168 0.284668 0.252716
0.324036 0.299530 0.266388
0.419739 0.309326 0.276215
0.521667 0.323700 0.288635
0.627045 0.339478 0.301697
0.738342 0.360291 0.317139
0.105682 0.354309 0.249054
0.182922 0.368622 0.261749
0.265106 0.382538 0.274414
0.352417 0.396790 0.288086
0.437347 0.406158 0.294769
0.546783 0.431915 0.311859
0.658295 0.453888 0.326233
0.769531 0.473083 0.339691
0.135803 0.452362 0.269562
0.214752 0.467926 0.283966
0.301239 0.486450 0.298889
0.396362 0.509583 0.316101
0.479919 0.518921 0.323578
0.567200 0.529297 0.330688
0.673645 0.557556 0.349976
0.786743 0.585114 0.366516
0.167938 0.552582 0.292694
0.253510 0.576050 0.310242
0.345490 0.600800 0.327423
0.443237 0.627838 0.347076
0.525238 0.636658 0.353668
0.609924 0.645325 0.359467
0.697083 0.657227 0.368744
0.799377 0.681641 0.387085
0.204803 0.660706 0.317963
0.299194 0.693146 0.339233
0.394623 0.722076 0.358887
0.489960 0.748505 0.377350
0.570312 0.756561 0.383453
0.653595 0.766907 0.391327
0.738373 0.775024 0.398071
0.825653 0.786194 0.405762
0.015533 0.034454 0.270996
0.098724 0.037476 0.276672
0.186890 0.043732 0.285187
0.274323 0.051544 0.294189
0.361938 0.060913 0.304138
0.457703 0.077423 0.319031
0.554688 0.093597 0.333344
0.661346 0.109131 0.351440
0.039917 0.106293 0.282501
0.126648 0.120575 0.296692
0.207550 0.125488 0.303192
0.292969 0.132690 0.311066
0.380005 0.141052 0.320251
0.476227 0.157898 0.335083
0.579071 0.172119 0.351013
0.686310 0.187164 0.366638
0.064362 0.187775 0.296631
0.144745 0.201050 0.309784
0.233185 0.216034 0.323395
0.315094 0.221588 0.329803
0.399414 0.228729 0.337433
0.498627 0.244690 0.353119
0.606476 0.258362 0.369202
0.717957 0.275208 0.385101
0.088837 0.274323 0.311066
0.167389 0.287750 0.323944
0.251587 0.301239 0.337036
0.340698 0.316132 0.351166
0.424652 0.321991 0.357025
0.531189 0.340271 0.375092
0.641998 0.357086 0.390839
0.753632 0.373535 0.405396
0.112091 0.362000 0.324738
0.190491 0.376801 0.338654
0.272858 0.390564 0.351624
0.362396 0.406586 0.365326
0.463715 0.430756 0.385040
0.570282 0.448547 0.398865
0.676605 0.466064 0.413879
0.785431 0.485870 0.428955
0.142578 0.460205 0.346405
0.222595 0.477051 0.361481
0.311279 0.496429 0.377472
0.406921 0.519409 0.395050
0.508636 0.546600 0.415405
0.595459 0.556915 0.423889
0.705811 0.584839 0.442841
0.813690 0.605438 0.456665
0.175842 0.560852 0.369415
0.262817 0.585693 0.387909
0.356293 0.611115 0.406677
0.454041 0.638763 0.426941
0.552460 0.663727 0.446167
0.637024 0.673218 0.453369
0.724640 0.684052 0.462036
0.830811 0.714142 0.486115
0.214264 0.670715 0.395599
0.309631 0.703156 0.418030
0.404297 0.732819 0.439850
0.500122 0.759033 0.458282
0.599274 0.787994 0.482574
0.682770 0.796875 0.490479
0.767853 0.806671 0.499725
0.854004 0.817322 0.508453
0.024231 0.051605 0.354340
0.108856 0.054993 0.360077
0.196411 0.059509 0.367584
0.285828 0.067078 0.377319
0.375793 0.075867 0.386566
0.465851 0.085846 0.395874
0.562408 0.102325 0.411499
0.662140 0.120239 0.426880
0.050659 0.123749 0.365784
0.136688 0.137024 0.379913
0.220093 0.141754 0.386627
0.306213 0.148132 0.394440
0.394684 0.156738 0.402618
0.484802 0.166412 0.412292
0.583801 0.183289 0.428009
0.686310 0.201080 0.445587
0.075226 0.203430 0.379303
0.157928 0.217590 0.393219
0.246399 0.231598 0.407349
0.329590 0.237030 0.413879
0.416809 0.244965 0.421906
0.505920 0.254303 0.431335
0.608765 0.273407 0.448059
0.724060 0.296051 0.471710
0.100159 0.288513 0.393372
0.180573 0.303375 0.407776
0.266296 0.318176 0.421844
0.360992 0.335358 0.437897
0.447296 0.343719 0.445465
0.539062 0.354645 0.455383
0.648834 0.379028 0.478241
0.761383 0.396576 0.497223
0.124969 0.377441 0.408508
0.204773 0.392944 0.423096
0.289429 0.407440 0.436646
0.386078 0.429657 0.455017
0.490753 0.456512 0.477661
0.581482 0.467072 0.487152
0.688416 0.486755 0.506317
0.798065 0.503326 0.523224
0.149933 0.467926 0.423615
0.231262 0.486053 0.439301
0.319946 0.505951 0.456146
0.416595 0.529297 0.475006
0.519073 0.556641 0.496246
0.623932 0.583466 0.518402
0.726624 0.600800 0.533966
0.831482 0.620148 0.551361
0.182373 0.568604 0.445831
0.271729 0.594818 0.466614
0.365967 0.621521 0.487091
0.464569 0.648804 0.508087
0.563446 0.674042 0.528870
0.665649 0.702698 0.553101
0.752930 0.713715 0.562592
0.859863 0.742371 0.587891
0.223206 0.680389 0.473877
0.319153 0.713287 0.498688
0.414948 0.743164 0.521179
0.511108 0.770081 0.542755
0.610809 0.798462 0.567230
0.710632 0.825653 0.594421
0.795441 0.836365 0.604431
0.881836 0.847260 0.616821
0.031769 0.068634 0.438507
0.117584 0.072571 0.444122
0.206573 0.076721 0.451416
0.297089 0.082825 0.459808
0.387451 0.090881 0.469696
0.478210 0.100067 0.479614
0.570740 0.110382 0.489868
0.670929 0.128448 0.505920
0.058716 0.139984 0.449219
0.147736 0.154236 0.464478
0.230347 0.157562 0.470001
0.318512 0.164185 0.478333
0.407990 0.172760 0.487274
0.499542 0.181641 0.497070
0.590668 0.191925 0.506500
0.694580 0.210815 0.524292
0.085571 0.219330 0.462555
0.169464 0.233215 0.477020
0.259644 0.246918 0.491913
0.344116 0.254547 0.498993
0.433289 0.262726 0.507660
0.524780 0.272491 0.518005
0.618378 0.284058 0.529053
0.730316 0.309845 0.551605
0.111511 0.303619 0.476898
0.193909 0.319550 0.492798
0.281952 0.335022 0.506897
0.383545 0.357910 0.528290
0.472687 0.367554 0.538544
0.564636 0.377777 0.548187
0.658936 0.391418 0.559967
0.767395 0.417145 0.582092
0.137268 0.392242 0.492645
0.219666 0.409241 0.508026
0.309448 0.427673 0.525879
0.411652 0.454987 0.548004
0.515686 0.480743 0.570953
0.606293 0.491638 0.580658
0.697815 0.503021 0.590485
0.805603 0.528290 0.616760
0.162628 0.482941 0.508453
0.248230 0.504486 0.526978
0.341888 0.528412 0.546570
0.442383 0.555542 0.569702
0.544037 0.581604 0.591003
0.648254 0.609253 0.615448
0.738312 0.620972 0.627075
0.843781 0.643768 0.652924
0.189636 0.576996 0.525055
0.281006 0.605103 0.547913
0.375580 0.632446 0.568634
0.473938 0.659393 0.590973
0.574432 0.686523 0.613647
0.676819 0.713593 0.638702
0.778961 0.741882 0.665924
0.879425 0.761139 0.687500
0.232208 0.689514 0.554199
0.328644 0.724365 0.580353
0.425598 0.753845 0.604462
0.521149 0.780640 0.626678
0.621857 0.809662 0.654053
0.723175 0.837372 0.682251
0.822845 0.864075 0.711945
0.907745 0.874817 0.723450
0.039490 0.086639 0.524078
0.126404 0.089722 0.529419
0.216583 0.093903 0.536224
0.307861 0.099487 0.544952
0.398804 0.106476 0.554016
0.491882 0.115845 0.564606
0.584717 0.125519 0.574524
0.679016 0.137177 0.585480
0.068237 0.157867 0.534058
0.156860 0.170349 0.548401
0.241791 0.175385 0.555878
0.330231 0.181305 0.563202
0.420715 0.188477 0.572632
0.513153 0.197571 0.582245
0.607361 0.209045 0.593628
0.701721 0.219940 0.603088
0.096252 0.236328 0.547638
0.181366 0.251495 0.562531
0.273376 0.265991 0.577698
0.361969 0.273804 0.587646
0.453613 0.284302 0.598511
0.546875 0.294128 0.609039
0.643799 0.307129 0.622314
0.740448 0.319763 0.634094
0.122833 0.320587 0.562500
0.206696 0.336182 0.578247
0.302429 0.357483 0.598328
0.405212 0.380554 0.620941
0.495880 0.390747 0.631134
0.587799 0.401917 0.642578
0.683014 0.413910 0.653748
0.777802 0.426697 0.666138
0.149567 0.408508 0.578003
0.233856 0.426056 0.594696
0.332764 0.453003 0.618683
0.435089 0.478424 0.642731
0.541107 0.506927 0.667786
0.631500 0.517914 0.678894
0.722473 0.529938 0.690094
0.815002 0.542664 0.702271
0.177094 0.500366 0.595215
0.267578 0.525574 0.616699
0.366852 0.554962 0.641815
0.465637 0.580933 0.664520
0.569275 0.609009 0.690216
0.674377 0.636963 0.716583
0.764038 0.649567 0.729950
0.853394 0.662231 0.742279
0.207001 0.597046 0.613831
0.302185 0.628265 0.639648
0.400665 0.658661 0.665222
0.498505 0.685333 0.688232
0.600403 0.714050 0.715149
0.703094 0.742218 0.742096
0.804199 0.770355 0.771423
0.891449 0.781281 0.784210
0.240906 0.700226 0.636169
0.337769 0.734894 0.663788
0.435333 0.765076 0.689240
0.531708 0.791748 0.712097
0.633942 0.821411 0.740723
0.735565 0.849396 0.770752
0.834930 0.875946 0.800507
0.936157 0.904602 0.832428
