assets/configs/ColorAnd3dLutPreset/CubeLUTFiles/Sparta 300.CUBE
#Created by: Adobe Photoshop Export Color Lookup Plugin
#Copyright: (C) Copyright 2016 Wondershare Inc.
TITLE "300"
#LUT size
LUT_3D_SIZE 32
#data domain
DOMAIN_MIN 0.0 0.0 0.0
DOMAIN_MAX 1.0 1.0 1.0
#LUT data points
0.000000 0.000000 0.000000
0.007507 0.000336 0.000000
0.018433 0.000671 0.000000
0.037628 0.000671 0.000000
0.060028 0.001282 0.000305
0.083466 0.002167 0.000793
0.107239 0.002655 0.001282
0.130371 0.003510 0.001373
0.153931 0.004639 0.001556
0.177643 0.006042 0.002014
0.201508 0.007843 0.002899
0.225342 0.009491 0.003632
0.249725 0.011566 0.004089
0.272919 0.013763 0.004974
0.296295 0.016449 0.005890
0.320587 0.019562 0.006836
0.345062 0.022003 0.007751
0.369171 0.024353 0.008850
0.393799 0.026825 0.010498
0.418182 0.030060 0.011963
0.443024 0.033112 0.013458
0.467346 0.036835 0.015045
0.492126 0.041260 0.017242
0.516907 0.045471 0.019257
0.542084 0.049316 0.021484
0.567200 0.053406 0.024811
0.592499 0.057526 0.027985
0.618225 0.062225 0.031006
0.643799 0.065918 0.033905
0.670746 0.070343 0.037537
0.696564 0.075104 0.041351
0.722504 0.079407 0.044617
0.001038 0.008179 0.000336
0.008514 0.008179 0.000336
0.020203 0.008514 0.000336
0.039612 0.008850 0.000671
0.062561 0.009460 0.000671
0.086548 0.010681 0.001160
0.109375 0.011475 0.001648
0.133118 0.013428 0.002045
0.156067 0.015045 0.002258
0.179382 0.017120 0.002716
0.202423 0.019653 0.003265
0.226318 0.022491 0.004181
0.250549 0.024963 0.004761
0.274445 0.027344 0.005676
0.297333 0.029785 0.006378
0.321442 0.034119 0.007202
0.345947 0.037750 0.008545
0.370148 0.041199 0.009491
0.394836 0.044861 0.011261
0.419464 0.048492 0.012756
0.444427 0.053070 0.014343
0.468750 0.057098 0.015900
0.493591 0.060760 0.017456
0.518524 0.064819 0.020752
0.543091 0.068665 0.023743
0.569305 0.073303 0.027496
0.595612 0.077789 0.031097
0.621490 0.081726 0.034180
0.646179 0.085419 0.037079
0.672241 0.089996 0.040649
0.698212 0.094055 0.043915
0.724609 0.098724 0.047211
0.002075 0.020752 0.000671
0.009552 0.020752 0.000702
0.022034 0.020752 0.000702
0.037964 0.021484 0.001068
0.061798 0.022797 0.001373
0.085968 0.024536 0.001434
0.108459 0.025391 0.001923
0.132355 0.027466 0.002411
0.156555 0.030151 0.002899
0.180084 0.033112 0.003418
0.203583 0.036163 0.003937
0.227692 0.039856 0.004608
0.252075 0.043457 0.005554
0.275879 0.046997 0.006500
0.299652 0.050385 0.007355
0.323059 0.053986 0.007874
0.347687 0.057617 0.009094
0.371521 0.060791 0.010498
0.396210 0.064423 0.012024
0.420715 0.068024 0.013550
0.445190 0.071716 0.015167
0.469604 0.075989 0.017181
0.494659 0.079742 0.020203
0.520172 0.084076 0.023346
0.544983 0.088226 0.026398
0.570953 0.092346 0.029724
0.596741 0.096619 0.033142
0.622803 0.100830 0.036438
0.648407 0.104797 0.040039
0.674225 0.108887 0.043335
0.700470 0.113678 0.046661
0.726990 0.117889 0.050079
0.003448 0.036011 0.001038
0.012177 0.036011 0.001373
0.025085 0.036011 0.001373
0.039612 0.036652 0.001373
0.060669 0.037750 0.001862
0.084351 0.040375 0.002106
0.108246 0.044250 0.002258
0.131775 0.047363 0.002808
0.155945 0.051392 0.003326
0.179413 0.055176 0.003815
0.202972 0.057556 0.004669
0.226959 0.060486 0.005402
0.250732 0.064117 0.005951
0.275146 0.067596 0.006927
0.299225 0.071136 0.007843
0.323883 0.074432 0.008789
0.349518 0.078064 0.009827
0.373688 0.081268 0.011322
0.397644 0.084198 0.012909
0.422180 0.087891 0.014557
0.447205 0.091644 0.017273
0.471008 0.095398 0.020233
0.496033 0.099274 0.023163
0.521667 0.103485 0.026276
0.547272 0.108307 0.029419
0.573029 0.112122 0.032532
0.598663 0.116058 0.035858
0.624695 0.120270 0.039124
0.650696 0.124634 0.042847
0.676880 0.128967 0.046509
0.703094 0.133789 0.049835
0.729919 0.138031 0.053284
0.004852 0.051666 0.001404
0.014496 0.051666 0.001740
0.028412 0.051697 0.002075
0.045898 0.052429 0.002075
0.063782 0.053558 0.002228
0.085175 0.058319 0.002838
0.107788 0.062469 0.003143
0.131561 0.066528 0.003540
0.155884 0.071228 0.004211
0.179047 0.075012 0.004761
0.202606 0.078705 0.005341
0.226318 0.081329 0.006317
0.250854 0.085022 0.007172
0.274811 0.088409 0.007721
0.298431 0.091644 0.008636
0.322662 0.094727 0.009613
0.348236 0.098297 0.011078
0.372650 0.102234 0.012695
0.397278 0.105621 0.015076
0.422943 0.109558 0.018311
0.448883 0.112671 0.020813
0.474335 0.116119 0.023895
0.498901 0.119812 0.026642
0.524719 0.123718 0.029755
0.550476 0.128052 0.032990
0.575836 0.131866 0.036163
0.601227 0.135864 0.039551
0.628174 0.140747 0.042877
0.653442 0.144470 0.045990
0.679993 0.149261 0.049927
0.706360 0.153290 0.052948
0.733459 0.158508 0.056519
0.007874 0.073517 0.002716
0.018921 0.073792 0.002716
0.035522 0.074219 0.002960
0.052979 0.075439 0.002960
0.070953 0.076599 0.003235
0.089569 0.078156 0.003662
0.110748 0.081665 0.004211
0.131805 0.085022 0.004639
0.154816 0.090210 0.005310
0.178467 0.094330 0.005920
0.202148 0.098267 0.006531
0.225922 0.101959 0.007141
0.250519 0.105804 0.008087
0.274811 0.109192 0.008972
0.298401 0.112305 0.009521
0.321869 0.114990 0.010712
0.347229 0.118713 0.013397
0.371826 0.122284 0.015961
0.396667 0.126129 0.018951
0.421906 0.129883 0.021851
0.448181 0.134338 0.024902
0.472900 0.137360 0.027222
0.499298 0.141205 0.030518
0.524292 0.144989 0.033661
0.549957 0.148834 0.036560
0.577118 0.153320 0.039856
0.602631 0.156708 0.042419
0.629913 0.161133 0.045990
0.656525 0.164795 0.048981
0.683777 0.170288 0.053589
0.710052 0.174713 0.056763
0.737152 0.179352 0.059723
0.012299 0.097198 0.004059
0.027191 0.097473 0.004059
0.042908 0.097656 0.004089
0.060150 0.098602 0.004089
0.077789 0.100189 0.004425
0.096283 0.101440 0.004852
0.114471 0.102112 0.005280
0.135620 0.105560 0.005829
0.157135 0.109863 0.006439
0.179138 0.113373 0.007050
0.202728 0.117767 0.007690
0.225739 0.121246 0.008270
0.250458 0.125732 0.008942
0.274963 0.129120 0.009888
0.299561 0.132568 0.011871
0.323090 0.136261 0.014099
0.347229 0.139709 0.016785
0.371857 0.143097 0.019623
0.396484 0.146545 0.022614
0.421753 0.150513 0.025757
0.447784 0.154510 0.028595
0.472626 0.158539 0.030731
0.498352 0.162354 0.033905
0.525299 0.166840 0.037811
0.550903 0.170074 0.040375
0.577118 0.174652 0.043793
0.603638 0.178741 0.046661
0.629425 0.181976 0.049622
0.656677 0.186523 0.053223
0.683655 0.190521 0.056885
0.711060 0.195404 0.060516
0.739227 0.199829 0.063416
0.019775 0.120880 0.005371
0.034973 0.121094 0.005402
0.050812 0.121368 0.005402
0.067322 0.121582 0.005432
0.084717 0.123138 0.005768
0.102509 0.124908 0.006195
0.120514 0.125366 0.006653
0.139191 0.126343 0.007080
0.161163 0.130554 0.007721
0.182220 0.133545 0.008301
0.203094 0.136444 0.008881
0.225922 0.140198 0.009583
0.250641 0.144989 0.010620
0.275085 0.149170 0.012970
0.299255 0.152924 0.015564
0.324249 0.156952 0.018707
0.347595 0.160339 0.020721
0.371674 0.163635 0.023438
0.396576 0.167450 0.025879
0.421967 0.171478 0.028992
0.448242 0.175964 0.032166
0.472656 0.179382 0.034973
0.497986 0.182953 0.037903
0.524567 0.187195 0.041260
0.550903 0.191376 0.044342
0.576416 0.195587 0.047577
0.602692 0.199768 0.050720
0.629486 0.203583 0.053711
0.656158 0.208374 0.057343
0.684326 0.212158 0.061127
0.710907 0.216339 0.064636
0.739380 0.221252 0.067871
0.026917 0.144226 0.007141
0.042267 0.144409 0.007141
0.058289 0.144623 0.007446
0.074860 0.144806 0.007629
0.091492 0.145844 0.007660
0.109344 0.147461 0.007996
0.127930 0.148438 0.008453
0.145935 0.149231 0.008881
0.164764 0.150879 0.009308
0.185760 0.153839 0.009979
0.206635 0.156647 0.010864
0.227753 0.159576 0.011871
0.251129 0.164154 0.014587
0.275635 0.168945 0.017029
0.299347 0.173248 0.019196
0.324249 0.177368 0.022217
0.349213 0.181854 0.025421
0.372498 0.184662 0.027557
0.396942 0.187927 0.029541
0.422058 0.192200 0.032684
0.448364 0.197021 0.036072
0.473816 0.201111 0.039276
0.498047 0.204010 0.041809
0.524445 0.208496 0.045197
0.550903 0.212799 0.048340
0.576996 0.216492 0.051056
0.603424 0.220764 0.054352
0.630737 0.225250 0.057770
0.656555 0.229950 0.061432
0.684357 0.234253 0.065369
0.711029 0.238007 0.068909
0.739990 0.243530 0.073090
0.033966 0.167542 0.009033
0.049377 0.167725 0.009064
0.065247 0.167603 0.009216
0.081787 0.167938 0.009613
0.098541 0.168884 0.009613
0.115692 0.170013 0.009827
0.134216 0.171051 0.010437
0.152527 0.172150 0.011139
0.170685 0.173492 0.011871
0.189697 0.174622 0.012177
0.210480 0.177307 0.013062
0.231232 0.179993 0.014496
0.253265 0.183655 0.017273
0.276337 0.188080 0.020111
0.300629 0.193146 0.023132
0.324677 0.196838 0.025421
0.349152 0.201111 0.028107
0.373749 0.205475 0.031189
0.398529 0.209290 0.033661
0.422424 0.212463 0.036224
0.448792 0.217285 0.039673
0.474335 0.221710 0.042755
0.499390 0.225494 0.045532
0.524231 0.228882 0.048615
0.551117 0.233948 0.052094
0.577515 0.238098 0.054993
0.604004 0.241730 0.058197
0.631256 0.246521 0.061707
0.657532 0.250397 0.065247
0.685577 0.256104 0.068726
0.712463 0.260590 0.072418
0.741089 0.265747 0.076172
0.041504 0.190796 0.011505
0.057007 0.191711 0.012115
0.072662 0.191193 0.012146
0.088745 0.191101 0.012268
0.105560 0.192047 0.012299
0.122742 0.193176 0.012634
0.140594 0.194122 0.013306
0.158722 0.195312 0.013977
0.176941 0.196533 0.014709
0.195923 0.197632 0.014771
0.214722 0.198486 0.015106
0.235138 0.200897 0.017242
0.257111 0.204498 0.020050
0.279297 0.208374 0.022797
0.301758 0.212372 0.026306
0.325592 0.216797 0.029022
0.349915 0.221191 0.031311
0.374084 0.225525 0.034424
0.399292 0.230011 0.037476
0.423248 0.233337 0.040070
0.449341 0.238342 0.043579
0.475128 0.242676 0.046295
0.499847 0.246338 0.049133
0.525024 0.250488 0.052612
0.551544 0.255402 0.055817
0.577301 0.259399 0.058594
0.604126 0.263550 0.061707
0.631622 0.267639 0.065430
0.658813 0.272064 0.069244
0.686249 0.276550 0.072754
0.714050 0.282257 0.075653
0.743347 0.288055 0.079681
0.049164 0.214294 0.014557
0.064636 0.215088 0.015106
0.079681 0.215149 0.015106
0.095703 0.214874 0.015137
0.112518 0.215393 0.015167
0.129425 0.216492 0.015625
0.146973 0.217529 0.016296
0.165619 0.218536 0.016998
0.183777 0.219666 0.017944
0.202332 0.220886 0.018555
0.221588 0.222198 0.019470
0.240570 0.223114 0.020752
0.261322 0.225708 0.023560
0.283173 0.229187 0.026306
0.305481 0.233093 0.029144
0.327606 0.236633 0.032257
0.350525 0.240417 0.034912
0.374939 0.245117 0.037842
0.400482 0.250397 0.040955
0.424805 0.254333 0.044220
0.450073 0.258728 0.047150
0.475159 0.262695 0.049957
0.501343 0.267303 0.053070
0.526520 0.271454 0.056671
0.552734 0.276123 0.059692
0.579407 0.280701 0.063354
0.605530 0.284882 0.066437
0.632538 0.289154 0.069702
0.659668 0.293854 0.073120
0.688385 0.299255 0.076996
0.716064 0.304688 0.080536
0.745667 0.310425 0.084351
0.056458 0.238220 0.018036
0.072052 0.238525 0.018066
0.087128 0.238800 0.018219
0.102783 0.239075 0.018829
0.119690 0.239380 0.019257
0.136810 0.240051 0.019897
0.153931 0.241058 0.020935
0.172211 0.242004 0.022003
0.190857 0.243042 0.023010
0.209198 0.244385 0.023499
0.227966 0.245544 0.024475
0.247253 0.246796 0.025818
0.266113 0.247742 0.026855
0.287048 0.250214 0.029602
0.309357 0.254089 0.032410
0.331329 0.257507 0.035583
0.353271 0.260895 0.038666
0.375824 0.264557 0.041168
0.400360 0.269348 0.044281
0.425018 0.273743 0.047577
0.450745 0.279236 0.050812
0.475281 0.283325 0.053619
0.501038 0.287903 0.057037
0.527557 0.292419 0.060730
0.553650 0.297150 0.063812
0.580750 0.302399 0.067535
0.607391 0.307098 0.071350
0.635590 0.312592 0.074341
0.661072 0.316406 0.077179
0.691223 0.322815 0.080811
0.719696 0.328796 0.084686
0.748383 0.335022 0.088318
0.063263 0.261780 0.022583
0.079010 0.262177 0.022949
0.094818 0.263306 0.023346
0.110657 0.263580 0.024109
0.126831 0.263794 0.025085
0.144348 0.264130 0.025421
0.162048 0.264648 0.026062
0.179291 0.265625 0.027039
0.197479 0.266724 0.028076
0.215576 0.267853 0.028442
0.234375 0.269073 0.029541
0.253693 0.270294 0.030792
0.272675 0.271667 0.031921
0.291565 0.272736 0.033142
0.313324 0.276093 0.036041
0.335327 0.279419 0.039368
0.357239 0.282654 0.042328
0.379883 0.286102 0.044891
0.402344 0.289734 0.047913
0.426086 0.294220 0.050781
0.451447 0.299011 0.053986
0.476227 0.303619 0.056946
0.501587 0.308105 0.060272
0.528687 0.313171 0.064178
0.554321 0.317993 0.067352
0.581268 0.323730 0.071106
0.608276 0.329071 0.075256
0.636688 0.334106 0.078308
0.664520 0.339630 0.081268
0.693420 0.345673 0.085266
0.721130 0.351257 0.088013
0.750641 0.357880 0.091766
0.070465 0.285614 0.027802
0.086426 0.286194 0.028351
0.102478 0.287292 0.028870
0.118378 0.287750 0.029388
0.134460 0.287964 0.030426
0.151459 0.288055 0.030609
0.169159 0.288513 0.031189
0.186737 0.289520 0.032379
0.204498 0.290558 0.033295
0.222687 0.291748 0.033722
0.241089 0.292572 0.034515
0.260406 0.293823 0.035797
0.279358 0.295441 0.036987
0.298004 0.296387 0.038361
0.317596 0.297638 0.039734
0.340057 0.301300 0.042694
0.362030 0.304657 0.045532
0.383850 0.307373 0.047974
0.406403 0.311279 0.050995
0.429047 0.315613 0.054047
0.451843 0.318176 0.057037
0.477142 0.323578 0.060486
0.503174 0.328918 0.063599
0.529388 0.333710 0.067261
0.556183 0.339050 0.070953
0.581451 0.343933 0.074188
0.609528 0.350006 0.078491
0.637054 0.355316 0.082184
0.665710 0.361511 0.085297
0.695404 0.368530 0.089142
0.723480 0.374603 0.092041
0.752686 0.381226 0.095703
0.077972 0.309906 0.032959
0.093597 0.310089 0.033478
0.110229 0.311279 0.034546
0.126282 0.311737 0.035278
0.141846 0.311981 0.035706
0.158722 0.312012 0.035919
0.175812 0.312439 0.036499
0.193787 0.313446 0.037567
0.211914 0.314606 0.038696
0.230164 0.315796 0.039124
0.248627 0.316559 0.039948
0.267151 0.317688 0.041046
0.286011 0.319397 0.042328
0.304871 0.320282 0.043488
0.324432 0.321411 0.044800
0.344543 0.323212 0.046265
0.366577 0.326416 0.049194
0.388611 0.329376 0.051727
0.410889 0.332550 0.054535
0.433594 0.337036 0.057800
0.456573 0.340485 0.060577
0.478973 0.343719 0.063477
0.503265 0.348022 0.066376
0.528778 0.353790 0.069763
0.556030 0.359467 0.073914
0.583313 0.365112 0.078003
0.610016 0.370422 0.081329
0.638824 0.377350 0.085510
0.667145 0.384003 0.089294
0.696747 0.390717 0.092560
0.725830 0.397583 0.095917
0.755035 0.404785 0.099792
0.085999 0.334961 0.038727
0.101349 0.334534 0.039124
0.118011 0.335632 0.039825
0.133667 0.335968 0.040192
0.149475 0.336060 0.040741
0.166656 0.336914 0.041382
0.183807 0.337189 0.041901
0.201813 0.338104 0.042938
0.219971 0.339325 0.044067
0.237793 0.340393 0.044922
0.255981 0.341064 0.045959
0.274170 0.341766 0.046692
0.292908 0.343048 0.047638
0.311768 0.343842 0.048492
0.331329 0.345062 0.049438
0.351105 0.346313 0.050720
0.371277 0.347992 0.052277
0.393585 0.351593 0.055481
0.416138 0.355072 0.058563
0.438751 0.359192 0.061829
0.461609 0.362915 0.064392
0.483795 0.365936 0.066956
0.506317 0.369171 0.069885
0.530365 0.373657 0.073273
0.555756 0.379547 0.076813
0.584473 0.386200 0.081329
0.612091 0.392761 0.085510
0.640839 0.399506 0.089142
0.669403 0.406189 0.092834
0.700104 0.414124 0.096802
0.729523 0.421509 0.100952
0.757996 0.427979 0.104218
0.093048 0.359070 0.044037
0.108490 0.358643 0.044434
0.125214 0.359772 0.044830
0.141327 0.360138 0.045624
0.157379 0.360291 0.046112
0.174561 0.361237 0.046600
0.191284 0.361816 0.046997
0.209320 0.362823 0.048065
0.227478 0.363525 0.049316
0.245026 0.364685 0.050323
0.262726 0.365234 0.050964
0.280823 0.365112 0.051392
0.299530 0.366150 0.052338
0.318329 0.367584 0.053711
0.337860 0.368683 0.054321
0.357635 0.370026 0.055664
0.377655 0.371826 0.057190
0.397980 0.373840 0.058807
0.420471 0.377472 0.061981
0.442963 0.381531 0.065216
0.465881 0.385284 0.068420
0.488129 0.388519 0.071136
0.510681 0.391724 0.073975
0.535034 0.395844 0.077423
0.558685 0.400055 0.080536
0.586151 0.407837 0.084686
0.614258 0.414520 0.089142
0.643036 0.421326 0.093048
0.671692 0.428558 0.096466
0.702179 0.436859 0.100494
0.732269 0.444580 0.105103
0.760925 0.450806 0.108215
0.101044 0.384033 0.049377
0.116333 0.383606 0.049805
0.132538 0.384064 0.050323
0.149109 0.384766 0.051392
0.165863 0.385437 0.052246
0.182983 0.386078 0.052704
0.199615 0.386383 0.053192
0.216370 0.387451 0.053650
0.234528 0.387817 0.054810
0.252197 0.388397 0.055817
0.270050 0.389587 0.056366
0.288605 0.390228 0.056854
0.307373 0.391144 0.057770
0.326080 0.392426 0.058990
0.345123 0.393799 0.059937
0.364960 0.395081 0.061340
0.385010 0.396362 0.062805
0.405090 0.398346 0.064301
0.425201 0.400146 0.065826
0.447327 0.403656 0.068909
0.470154 0.407135 0.071930
0.493195 0.411041 0.075287
0.516113 0.414825 0.078278
0.540466 0.419312 0.081360
0.564423 0.423553 0.084686
0.589691 0.429688 0.088745
0.615906 0.435516 0.092499
0.644409 0.442535 0.096527
0.673218 0.450073 0.100006
0.703491 0.458771 0.104370
0.732849 0.466431 0.108551
0.763489 0.474396 0.112915
0.108582 0.408478 0.054779
0.125000 0.409332 0.055756
0.140839 0.409424 0.055969
0.156708 0.409332 0.056335
0.173584 0.410126 0.057465
0.190674 0.410706 0.058197
0.207214 0.411072 0.058594
0.224121 0.412048 0.059174
0.241638 0.412384 0.059692
0.259613 0.413086 0.060944
0.278015 0.414276 0.061951
0.296753 0.414948 0.062469
0.315552 0.415894 0.063416
0.334229 0.417023 0.064697
0.353302 0.418488 0.065674
0.373260 0.420715 0.067047
0.393005 0.421448 0.068634
0.412506 0.422363 0.070038
0.432739 0.424652 0.071625
0.452667 0.426392 0.073029
0.474884 0.429504 0.075562
0.497772 0.433380 0.078918
0.521606 0.437805 0.082611
0.546173 0.442688 0.085327
0.569855 0.447021 0.088470
0.595459 0.452911 0.092804
0.620239 0.457703 0.096039
0.646820 0.463959 0.100372
0.675659 0.471405 0.103912
0.706451 0.480804 0.108612
0.734344 0.488220 0.112274
0.765289 0.496826 0.116638
0.116943 0.433228 0.060516
0.133362 0.434113 0.061462
0.148804 0.434509 0.061951
0.164917 0.434662 0.062286
0.181793 0.435425 0.063141
0.198517 0.436127 0.063904
0.215424 0.436432 0.064331
0.232513 0.437164 0.065186
0.250092 0.437653 0.065857
0.267853 0.438080 0.066681
0.286316 0.439575 0.067780
0.305115 0.440796 0.068756
0.323914 0.441345 0.069611
0.342621 0.442596 0.070526
0.361206 0.443451 0.071930
0.380859 0.445374 0.073242
0.400757 0.446838 0.074615
0.420135 0.447479 0.076111
0.439667 0.449341 0.077057
0.460266 0.451294 0.078735
0.480225 0.452606 0.079865
0.502502 0.455566 0.082550
0.526337 0.459900 0.086182
0.550903 0.464844 0.089630
0.575195 0.469788 0.092834
0.600952 0.475616 0.097260
0.625977 0.480927 0.099945
0.653259 0.487823 0.104248
0.679382 0.493713 0.107697
0.708130 0.502441 0.112427
0.736603 0.510101 0.116089
0.766113 0.518585 0.119659
0.124786 0.457947 0.066010
0.141418 0.458832 0.066986
0.157043 0.459167 0.067627
0.172729 0.459534 0.068115
0.189331 0.460144 0.068665
0.205902 0.460510 0.069153
0.223297 0.460846 0.069641
0.240845 0.461578 0.070740
0.258423 0.462891 0.072021
0.276154 0.463409 0.072571
0.294067 0.463928 0.073151
0.312897 0.465393 0.074463
0.331726 0.466583 0.075684
0.350464 0.467834 0.076233
0.369080 0.468872 0.077393
0.387421 0.469391 0.078796
0.407227 0.470642 0.080139
0.427277 0.472137 0.081512
0.446747 0.473724 0.082367
0.466827 0.475342 0.083618
0.487396 0.477051 0.085175
0.507904 0.478668 0.086884
0.531006 0.482452 0.089966
0.555786 0.487640 0.093658
0.581024 0.493469 0.097198
0.607758 0.500366 0.101654
0.633484 0.505981 0.104645
0.660583 0.512451 0.108612
0.686157 0.518524 0.112091
0.713196 0.525940 0.116180
0.738983 0.531433 0.119415
0.768829 0.540436 0.123779
0.132721 0.482849 0.071808
0.148834 0.483521 0.072571
0.165100 0.483887 0.073059
0.180969 0.484222 0.073547
0.197418 0.485413 0.074036
0.213959 0.485901 0.074860
0.230957 0.486298 0.075897
0.248596 0.486725 0.076660
0.266144 0.487579 0.077515
0.283966 0.488159 0.078033
0.302002 0.488892 0.078888
0.320770 0.490143 0.080139
0.339325 0.491119 0.081238
0.357574 0.491852 0.081787
0.377106 0.494263 0.083160
0.395813 0.495483 0.084473
0.415070 0.497009 0.085999
0.435028 0.498138 0.087189
0.455872 0.499542 0.088013
0.475769 0.501190 0.089447
0.495819 0.502838 0.091095
0.516235 0.504425 0.092651
0.537506 0.506622 0.094452
0.563232 0.513580 0.098328
0.588379 0.519073 0.101593
0.614380 0.525177 0.105438
0.640320 0.530640 0.108826
0.666901 0.536865 0.112640
0.692596 0.542938 0.116638
0.719574 0.549988 0.120575
0.744934 0.555542 0.123291
0.771210 0.561859 0.127563
0.141205 0.508423 0.077942
0.156860 0.508850 0.078552
0.173279 0.509369 0.079102
0.189819 0.510010 0.079834
0.206421 0.511230 0.080475
0.223083 0.511902 0.081055
0.239960 0.512390 0.082428
0.257111 0.512878 0.083130
0.274658 0.513336 0.083618
0.292877 0.514557 0.084595
0.310669 0.514954 0.085205
0.329315 0.516022 0.086548
0.348389 0.517639 0.087769
0.366730 0.518463 0.088470
0.385803 0.519867 0.089508
0.405426 0.522369 0.090942
0.424988 0.523743 0.092041
0.445190 0.525818 0.093750
0.466522 0.527588 0.094788
0.487152 0.529938 0.096039
0.507141 0.531647 0.097748
0.527496 0.532990 0.099396
0.548981 0.535339 0.100861
0.571198 0.538757 0.102539
0.595337 0.543304 0.105408
0.621521 0.549377 0.109283
0.646881 0.554810 0.112610
0.673615 0.561584 0.116882
0.699524 0.567993 0.120972
0.726074 0.574921 0.125061
0.751526 0.580902 0.128052
0.777679 0.586700 0.131622
0.149017 0.533722 0.083466
0.164246 0.533691 0.084015
0.180664 0.534210 0.084564
0.197449 0.534912 0.085327
0.214691 0.536072 0.086670
0.231720 0.536896 0.087341
0.248505 0.537354 0.088013
0.265411 0.537933 0.088715
0.282623 0.538635 0.089355
0.301422 0.540802 0.090851
0.319550 0.541718 0.091736
0.336792 0.541473 0.092346
0.355865 0.543060 0.093689
0.376129 0.545563 0.095032
0.394684 0.546265 0.095825
0.413422 0.547333 0.096802
0.434021 0.549194 0.097595
0.454895 0.551605 0.099091
0.476135 0.554749 0.101471
0.496765 0.557068 0.102539
0.517853 0.559509 0.103638
0.538025 0.560577 0.105347
0.559448 0.563171 0.106934
0.581879 0.566254 0.108704
0.603119 0.568298 0.109955
0.628937 0.574249 0.113708
0.654327 0.579926 0.117188
0.680939 0.586853 0.121521
0.706177 0.593506 0.125031
0.732391 0.600647 0.128967
0.758087 0.606201 0.132477
0.784485 0.611969 0.136108
0.158051 0.560425 0.089630
0.173187 0.560211 0.090363
0.189606 0.560608 0.091309
0.206116 0.561127 0.091919
0.223816 0.562500 0.093048
0.240936 0.564148 0.093964
0.257812 0.564758 0.094513
0.275482 0.565277 0.095123
0.292938 0.566101 0.095825
0.311615 0.567749 0.097412
0.330078 0.569366 0.098450
0.347839 0.569794 0.099182
0.366089 0.570435 0.099823
0.386444 0.573090 0.101349
0.406128 0.574890 0.102692
0.425079 0.576447 0.103577
0.445496 0.578522 0.104858
0.465912 0.580139 0.106140
0.486877 0.582367 0.107635
0.507507 0.584717 0.109253
0.528778 0.587036 0.110291
0.549561 0.589539 0.112061
0.570801 0.592194 0.113434
0.592712 0.594696 0.114807
0.614502 0.597229 0.116638
0.636169 0.599579 0.118256
0.661346 0.605621 0.121643
0.687592 0.612305 0.125580
0.713440 0.618256 0.129608
0.739807 0.625305 0.133209
0.765472 0.631012 0.136475
0.791779 0.637573 0.140778
0.166046 0.585968 0.095398
0.181946 0.586609 0.096283
0.198425 0.587067 0.097626
0.214935 0.587585 0.098511
0.232513 0.588989 0.099213
0.250031 0.590637 0.099945
0.267334 0.592194 0.100586
0.284973 0.592865 0.101227
0.303070 0.593628 0.102051
0.321899 0.595093 0.103516
0.340668 0.596832 0.104767
0.358856 0.598236 0.105408
0.377563 0.599579 0.106232
0.397400 0.601685 0.107452
0.417358 0.603821 0.109009
0.436859 0.604919 0.110016
0.457306 0.607208 0.111603
0.477966 0.609711 0.112762
0.497833 0.611206 0.113556
0.518463 0.613586 0.114990
0.539032 0.615936 0.116669
0.560150 0.618225 0.118408
0.581573 0.620026 0.119751
0.603424 0.623291 0.121307
0.625153 0.625824 0.122894
0.646332 0.627686 0.124115
0.668243 0.630798 0.125854
0.694519 0.638336 0.129883
0.720520 0.643951 0.134094
0.746826 0.650635 0.137817
0.772583 0.656494 0.140991
0.799225 0.663239 0.145386
0.175018 0.612061 0.101746
0.191040 0.612915 0.102570
0.206909 0.613403 0.103333
0.224335 0.614563 0.104462
0.242432 0.616608 0.105743
0.260040 0.617828 0.106384
0.277985 0.619507 0.107147
0.295410 0.620331 0.107727
0.313263 0.621429 0.108673
0.332367 0.622955 0.109528
0.351807 0.625336 0.111023
0.370239 0.627167 0.112244
0.389557 0.629608 0.113617
0.409332 0.631622 0.115112
0.428833 0.633240 0.115967
0.448914 0.634705 0.117035
