assets/configs/ColorAnd3dLutPreset/CubeLUTFiles/Star Wars.CUBE
#Created by: Adobe Photoshop Export Color Lookup Plugin
#Copyright: (C) Copyright 2016 Wondershare Inc.
TITLE "Star Wars"
#LUT size
LUT_3D_SIZE 32
#data domain
DOMAIN_MIN 0.0 0.0 0.0
DOMAIN_MAX 1.0 1.0 1.0
#LUT data points
0.011169 0.003052 0.002136
0.028137 0.005463 0.004425
0.048218 0.010986 0.005981
0.069672 0.014526 0.008240
0.089600 0.020020 0.010620
0.111053 0.027222 0.013367
0.133728 0.032745 0.016296
0.157898 0.038116 0.019623
0.182678 0.042847 0.022522
0.209717 0.044250 0.023651
0.236816 0.044830 0.024078
0.262604 0.045166 0.025085
0.288177 0.046875 0.027222
0.314331 0.052246 0.031860
0.342468 0.058868 0.037567
0.374512 0.067902 0.043701
0.410187 0.076843 0.051056
0.444580 0.087585 0.057709
0.477814 0.097504 0.064758
0.507324 0.106964 0.071289
0.537109 0.116211 0.076569
0.566498 0.125854 0.082916
0.594696 0.135101 0.088501
0.621948 0.143799 0.092926
0.645233 0.149841 0.095856
0.668488 0.156616 0.098572
0.690643 0.163544 0.101440
0.712372 0.171387 0.104431
0.733917 0.179382 0.107788
0.758270 0.189362 0.111450
0.784943 0.202301 0.115326
0.809692 0.214355 0.118896
0.011688 0.021393 0.003998
0.026428 0.023254 0.006714
0.046967 0.027832 0.007812
0.067993 0.032013 0.007782
0.083099 0.036407 0.012390
0.104584 0.041870 0.014618
0.123657 0.047729 0.019409
0.149536 0.054871 0.023773
0.179871 0.058960 0.024384
0.208771 0.061249 0.024536
0.236298 0.062408 0.025391
0.262421 0.062134 0.025818
0.287781 0.062622 0.026764
0.314423 0.065125 0.031097
0.342529 0.071655 0.037537
0.374908 0.080231 0.044495
0.409332 0.089966 0.051483
0.443817 0.099976 0.058228
0.477325 0.110718 0.065216
0.506897 0.120361 0.071442
0.536438 0.129303 0.076904
0.565491 0.138702 0.082825
0.594849 0.148712 0.088684
0.623505 0.158264 0.093658
0.648865 0.166229 0.096924
0.671661 0.173615 0.099579
0.693329 0.180359 0.102356
0.714142 0.187683 0.105255
0.734589 0.195892 0.108368
0.757477 0.205078 0.112061
0.782898 0.217499 0.115875
0.807861 0.229675 0.119598
0.015167 0.044250 0.007782
0.027832 0.045990 0.008820
0.044403 0.046997 0.010712
0.068848 0.049805 0.010254
0.089233 0.053711 0.010223
0.108521 0.058350 0.014709
0.124115 0.062622 0.020721
0.151367 0.069275 0.024017
0.171570 0.074188 0.029541
0.194824 0.078918 0.033234
0.223633 0.082581 0.035034
0.254150 0.083771 0.033936
0.284821 0.080688 0.029358
0.312561 0.081757 0.032104
0.342163 0.087433 0.038300
0.374756 0.094971 0.045044
0.408630 0.104279 0.051910
0.442535 0.113953 0.058533
0.475372 0.124115 0.065063
0.506439 0.134430 0.071625
0.535553 0.143616 0.076935
0.565338 0.153137 0.083038
0.594604 0.163422 0.088898
0.624207 0.174103 0.094360
0.650116 0.183380 0.097748
0.673553 0.191345 0.100525
0.695221 0.199188 0.103241
0.715851 0.206360 0.106262
0.736389 0.214722 0.109344
0.757324 0.223358 0.112427
0.783234 0.234558 0.116638
0.808411 0.246033 0.120422
0.017700 0.065216 0.011719
0.031067 0.066956 0.012024
0.045502 0.070068 0.013214
0.064697 0.070892 0.012390
0.089722 0.072357 0.012451
0.112152 0.075500 0.013916
0.135498 0.080414 0.018005
0.154388 0.085144 0.024658
0.171967 0.089264 0.031006
0.201263 0.094055 0.033325
0.225983 0.097626 0.035828
0.245331 0.101868 0.038910
0.268402 0.105286 0.040588
0.294617 0.107666 0.041321
0.324768 0.109192 0.044281
0.361755 0.112213 0.048218
0.403870 0.120758 0.052155
0.439087 0.129517 0.058472
0.472656 0.138855 0.064911
0.504364 0.148926 0.071075
0.534851 0.159515 0.077362
0.566162 0.169708 0.083649
0.595795 0.180176 0.089386
0.624146 0.190979 0.094513
0.650116 0.201782 0.098328
0.673615 0.210297 0.101044
0.695892 0.218506 0.104004
0.717407 0.226532 0.107086
0.738220 0.234894 0.110199
0.760376 0.243042 0.113403
0.785217 0.253784 0.117279
0.809937 0.263855 0.121277
0.021545 0.085938 0.015259
0.034241 0.086914 0.014893
0.047058 0.090393 0.015259
0.066010 0.091125 0.014832
0.088531 0.090637 0.014160
0.113770 0.093079 0.014801
0.136169 0.097778 0.018341
0.161133 0.101685 0.021545
0.185608 0.106171 0.024445
0.205017 0.110260 0.033661
0.223145 0.114594 0.038757
0.249939 0.118225 0.039062
0.274841 0.121643 0.038391
0.292358 0.126465 0.042023
0.311829 0.130585 0.045837
0.337830 0.135010 0.050415
0.369507 0.139191 0.055481
0.406403 0.145599 0.060852
0.451782 0.153839 0.067352
0.494415 0.165314 0.072266
0.529449 0.177429 0.077301
0.564362 0.187256 0.083527
0.593750 0.198944 0.089447
0.621674 0.209656 0.094666
0.647797 0.220428 0.098877
0.673950 0.230713 0.101990
0.697357 0.239777 0.105011
0.719177 0.247864 0.107910
0.740662 0.255829 0.111084
0.767853 0.262878 0.114532
0.792267 0.273804 0.118713
0.815155 0.283813 0.122742
0.024841 0.108246 0.019318
0.036957 0.109497 0.019623
0.050751 0.110657 0.019073
0.066895 0.111603 0.017975
0.088593 0.110077 0.016296
0.112457 0.111969 0.015594
0.135956 0.117188 0.018951
0.160919 0.120605 0.022156
0.187927 0.124115 0.024902
0.214386 0.127441 0.026398
0.238281 0.130737 0.028778
0.254730 0.134613 0.038300
0.270264 0.139008 0.042633
0.294067 0.143402 0.043579
0.322083 0.148651 0.045227
0.342651 0.155396 0.050232
0.363251 0.160950 0.055878
0.388000 0.166504 0.061279
0.419373 0.173676 0.066711
0.455139 0.181519 0.072449
0.494049 0.192566 0.079010
0.538483 0.206238 0.087128
0.582916 0.219330 0.093842
0.617065 0.229797 0.096100
0.644531 0.239929 0.099518
0.671906 0.250519 0.102142
0.699982 0.260956 0.105835
0.725647 0.270020 0.109436
0.748962 0.277863 0.112701
0.776337 0.285889 0.116028
0.800079 0.299042 0.121521
0.821777 0.308960 0.125549
0.028656 0.131470 0.024414
0.042786 0.132263 0.024689
0.054810 0.134613 0.024719
0.066956 0.136322 0.022552
0.085266 0.134888 0.019257
0.111237 0.130646 0.017242
0.135132 0.136932 0.019806
0.159454 0.141998 0.022705
0.186218 0.144989 0.025421
0.215454 0.147247 0.027130
0.241028 0.148865 0.027039
0.262970 0.153503 0.028198
0.283478 0.157562 0.034790
0.299896 0.161926 0.042969
0.315765 0.167175 0.048767
0.341095 0.174011 0.053223
0.371399 0.182190 0.056396
0.399445 0.189301 0.061615
0.423492 0.197205 0.067444
0.448669 0.204437 0.073364
0.476929 0.212585 0.078857
0.510925 0.222168 0.085022
0.547272 0.234314 0.092102
0.586334 0.247833 0.099243
0.628021 0.260529 0.106445
0.668060 0.272736 0.110687
0.701996 0.282928 0.112335
0.732239 0.292969 0.112061
0.759277 0.301422 0.115601
0.785675 0.309998 0.117706
0.809723 0.324677 0.123840
0.829865 0.335510 0.129120
0.032623 0.155182 0.029846
0.045746 0.156067 0.030243
0.058472 0.158264 0.029999
0.070862 0.161316 0.027588
0.087860 0.162262 0.024536
0.111969 0.157959 0.021667
0.136139 0.155334 0.021881
0.160553 0.162354 0.023529
0.183777 0.166931 0.026245
0.213501 0.169556 0.027649
0.240204 0.171173 0.027954
0.264465 0.172852 0.028351
0.287048 0.178040 0.030273
0.309631 0.184631 0.034302
0.330414 0.190277 0.045563
0.349365 0.195648 0.053802
0.370758 0.201996 0.060333
0.398102 0.210236 0.065704
0.431549 0.218292 0.069580
0.464081 0.227814 0.074280
0.489777 0.236786 0.080261
0.517090 0.245483 0.087128
0.545380 0.254547 0.093750
0.579590 0.265411 0.100739
0.616882 0.278320 0.107330
0.655151 0.290070 0.113098
0.692078 0.301575 0.117920
0.728149 0.315216 0.122406
0.761139 0.329224 0.126190
0.792450 0.346741 0.133179
0.817261 0.357391 0.136169
0.838013 0.364746 0.136322
0.034393 0.179504 0.034851
0.047791 0.180603 0.034729
0.060577 0.182587 0.034302
0.071716 0.186066 0.031647
0.083221 0.189789 0.027710
0.107971 0.187469 0.025177
0.136841 0.181152 0.025330
0.161621 0.182190 0.026123
0.185425 0.188049 0.026367
0.211365 0.193848 0.028687
0.242340 0.195801 0.029114
0.267273 0.195953 0.029358
0.289429 0.198914 0.030701
0.311829 0.205170 0.034760
0.335632 0.212158 0.039948
0.359985 0.218750 0.046112
0.385498 0.224945 0.058533
0.410828 0.232788 0.066986
0.434723 0.240570 0.073822
0.464081 0.248993 0.079376
0.500305 0.259064 0.084534
0.537567 0.269196 0.089661
0.568420 0.279205 0.096252
0.595764 0.289368 0.103149
0.624878 0.299805 0.109344
0.654419 0.310150 0.115082
0.688660 0.320160 0.119019
0.719788 0.334167 0.124756
0.750336 0.350494 0.131317
0.778870 0.368134 0.140045
0.808258 0.387177 0.153595
0.833923 0.403351 0.171692
0.034485 0.203827 0.038788
0.047516 0.205261 0.038208
0.060181 0.207458 0.037018
0.070831 0.211212 0.034637
0.082947 0.214996 0.029968
0.099670 0.217712 0.026642
0.134125 0.210205 0.027130
0.163147 0.207550 0.028351
0.190491 0.210602 0.028564
0.215057 0.214874 0.029205
0.242523 0.219666 0.030304
0.271637 0.222076 0.030609
0.293549 0.221741 0.031982
0.316162 0.226685 0.036194
0.340790 0.233429 0.041321
0.367950 0.240936 0.046783
0.394928 0.247986 0.052063
0.423950 0.255981 0.060272
0.454620 0.264984 0.073395
0.481354 0.272827 0.081451
0.505981 0.280975 0.088135
0.536774 0.289734 0.094849
0.573792 0.299927 0.100891
0.614227 0.310547 0.106506
0.647919 0.320862 0.110809
0.676544 0.330627 0.115631
0.701324 0.342590 0.120789
0.724670 0.356720 0.126801
0.748505 0.371246 0.132965
0.773773 0.389038 0.141327
0.801117 0.406738 0.155884
0.826111 0.423950 0.177246
0.031128 0.228485 0.041138
0.045044 0.229706 0.039856
0.057861 0.232086 0.038452
0.070343 0.235382 0.035156
0.081818 0.240814 0.029846
0.097626 0.243561 0.026978
0.123535 0.241364 0.027985
0.160004 0.232727 0.029144
0.194183 0.233002 0.029083
0.221405 0.237610 0.030121
0.246033 0.241211 0.031006
0.274780 0.244781 0.031586
0.300323 0.246735 0.034027
0.322418 0.249298 0.037567
0.346527 0.254822 0.042816
0.373962 0.261963 0.048187
0.402100 0.269196 0.053619
0.431702 0.277100 0.059235
0.460999 0.284821 0.064514
0.494873 0.293457 0.076111
0.527771 0.302795 0.089020
0.554993 0.312408 0.097504
0.581055 0.321747 0.104614
0.610962 0.331360 0.110626
0.649628 0.342072 0.115448
0.688141 0.353485 0.118317
0.720764 0.364532 0.121643
0.743378 0.381134 0.128601
0.763367 0.397217 0.135925
0.783722 0.413147 0.147339
0.803833 0.428711 0.161377
0.822571 0.443634 0.181427
0.026184 0.252960 0.042511
0.042358 0.253479 0.040344
0.055634 0.256287 0.037750
0.069641 0.260315 0.034332
0.082092 0.265350 0.029724
0.097870 0.269165 0.026428
0.120819 0.268646 0.027222
0.151611 0.263641 0.028625
0.190704 0.258484 0.029236
0.226135 0.261505 0.029633
0.251770 0.266449 0.031036
0.278656 0.268555 0.032806
0.307434 0.271393 0.036469
0.330139 0.273560 0.040375
0.354462 0.277588 0.044403
0.382172 0.284119 0.050049
0.410431 0.290985 0.055450
0.440186 0.298492 0.061096
0.470184 0.306030 0.066406
0.501068 0.312958 0.071930
0.534546 0.320435 0.079590
0.570679 0.331573 0.093842
0.602356 0.342865 0.104706
0.629730 0.353119 0.112061
0.656036 0.363434 0.117462
0.683807 0.375641 0.121643
0.716003 0.390320 0.127045
0.747772 0.405273 0.133514
0.777740 0.422363 0.140472
0.797974 0.437653 0.152313
0.813782 0.451965 0.172638
0.829834 0.466064 0.193909
0.024628 0.276642 0.044617
0.039490 0.277039 0.042297
0.054016 0.279816 0.038513
0.068298 0.284210 0.034943
0.081818 0.289246 0.029205
0.100189 0.293243 0.026764
0.123413 0.294373 0.027252
0.149109 0.291626 0.028198
0.181549 0.287659 0.028839
0.225952 0.287354 0.029114
0.256073 0.290985 0.030304
0.283752 0.294891 0.033264
0.313080 0.295563 0.038269
0.339325 0.298035 0.042572
0.364288 0.301178 0.047089
0.391022 0.306244 0.051605
0.419769 0.313263 0.057220
0.449463 0.320099 0.062744
0.479095 0.327118 0.068268
0.509460 0.334015 0.074036
0.541595 0.341187 0.080231
0.572235 0.349579 0.086548
0.606384 0.360138 0.095276
0.647064 0.374664 0.109009
0.677551 0.387482 0.116272
0.700531 0.401428 0.123169
0.720947 0.415283 0.129608
0.742889 0.430023 0.136871
0.769684 0.446289 0.146851
0.800690 0.461426 0.162079
0.824432 0.474304 0.177948
0.841949 0.485596 0.197449
0.023010 0.300537 0.048645
0.038483 0.300262 0.046326
0.053711 0.302521 0.042145
0.067444 0.307465 0.038239
0.082611 0.312683 0.032166
0.102600 0.316742 0.028534
0.129303 0.318939 0.029083
0.154510 0.317566 0.029907
0.182495 0.315765 0.030548
0.222656 0.315521 0.031006
0.259766 0.316193 0.032135
0.287476 0.320740 0.034210
0.318146 0.322479 0.039398
0.347778 0.323059 0.044769
0.374573 0.326385 0.049408
0.401825 0.330505 0.054016
0.429413 0.335510 0.059052
0.458862 0.342133 0.064606
0.489197 0.349243 0.070526
0.518616 0.355804 0.075928
0.549225 0.362396 0.082031
0.578857 0.370667 0.087830
0.609711 0.379944 0.093262
0.640045 0.390076 0.098572
0.678375 0.405212 0.107605
0.715881 0.423767 0.120239
0.739258 0.440247 0.130585
0.757233 0.455902 0.142212
0.774658 0.471039 0.152771
0.791779 0.484772 0.173767
0.817505 0.498108 0.192596
0.835541 0.507172 0.217438
0.023804 0.324158 0.053772
0.038849 0.324127 0.051971
0.054626 0.325684 0.047882
0.069122 0.329865 0.042084
0.084290 0.335785 0.035583
0.103699 0.339539 0.031738
0.129974 0.340393 0.032196
0.157288 0.340790 0.032684
0.188721 0.342773 0.034760
0.222717 0.343750 0.035614
0.262085 0.342987 0.036163
0.291840 0.344727 0.037537
0.321747 0.349579 0.039917
0.354279 0.349670 0.046234
0.387024 0.351379 0.052429
0.413605 0.355560 0.056824
0.441315 0.359802 0.061676
0.469147 0.364777 0.066345
0.498505 0.370697 0.071808
0.526520 0.377136 0.077637
0.556793 0.383911 0.083435
0.585876 0.392181 0.089264
0.615997 0.401398 0.094299
0.646271 0.411926 0.099426
0.678284 0.423920 0.103516
0.707642 0.436127 0.107697
0.742767 0.456207 0.120453
0.769043 0.477417 0.137756
0.789459 0.494507 0.157104
0.807373 0.509125 0.178741
0.818604 0.518250 0.201843
0.830902 0.526306 0.224304
0.027252 0.348663 0.060364
0.040649 0.349030 0.058777
0.057373 0.350037 0.056213
0.072937 0.353363 0.050659
0.090820 0.360748 0.042023
0.108337 0.366913 0.036133
0.132660 0.364777 0.035187
0.160553 0.363586 0.035553
0.191467 0.366455 0.037567
0.226654 0.370087 0.039978
0.262878 0.370544 0.040588
0.296875 0.369873 0.041138
0.325287 0.373566 0.043152
0.359650 0.379028 0.046692
0.394806 0.379028 0.054016
0.425964 0.381104 0.059540
0.453583 0.385010 0.063995
0.480042 0.388885 0.068939
0.507599 0.394104 0.073761
0.534058 0.399475 0.078827
0.563416 0.406738 0.084564
0.592926 0.415985 0.090424
0.622833 0.425415 0.095459
0.653412 0.435974 0.100494
0.684814 0.446716 0.104126
0.713623 0.458679 0.108276
0.741058 0.472595 0.112854
0.771362 0.490173 0.120300
0.799072 0.512878 0.142548
0.816772 0.527466 0.175201
0.827972 0.536407 0.207306
0.839783 0.543610 0.229034
0.030945 0.373474 0.068268
0.046448 0.373352 0.066528
0.062286 0.375488 0.064270
0.078339 0.377319 0.060883
0.096466 0.384216 0.053375
0.114532 0.392487 0.043579
0.137024 0.394501 0.040558
0.163269 0.387024 0.038940
0.193268 0.388367 0.040405
0.228516 0.392029 0.042511
0.264954 0.393677 0.043549
0.302765 0.395721 0.045044
0.335266 0.399200 0.046783
0.365265 0.404938 0.048981
0.402924 0.409637 0.055511
0.435699 0.409027 0.061737
0.465515 0.411377 0.066833
0.491882 0.415497 0.071838
0.517761 0.420135 0.076385
0.544098 0.425201 0.081390
0.571747 0.431519 0.086578
0.600403 0.439941 0.091675
0.630188 0.449615 0.096222
0.660156 0.460052 0.101135
0.690887 0.470428 0.104523
0.719971 0.482574 0.109253
0.748138 0.497955 0.113556
0.778473 0.516937 0.118805
0.809662 0.536682 0.126892
0.831421 0.547424 0.146057
0.839203 0.552246 0.188629
0.848511 0.558380 0.222382
0.038300 0.398254 0.076263
0.053894 0.399109 0.074219
0.069336 0.401398 0.071838
0.085266 0.403320 0.069366
0.101654 0.407013 0.066345
0.119446 0.417480 0.054382
0.140167 0.423523 0.046631
0.167542 0.420380 0.044495
0.199432 0.410950 0.042877
0.231537 0.412628 0.044769
0.267517 0.414856 0.046661
0.308502 0.417389 0.047943
0.345703 0.424072 0.050690
0.373230 0.429993 0.052490
0.408234 0.436523 0.056335
0.442505 0.440460 0.062805
0.472717 0.439331 0.068634
0.501617 0.442108 0.074036
0.527771 0.447235 0.079071
0.555298 0.453033 0.083740
0.582001 0.459259 0.089111
0.610229 0.466583 0.093719
0.638794 0.474640 0.097778
0.667847 0.484497 0.101929
0.698151 0.494995 0.105225
0.727142 0.509094 0.109436
0.756622 0.525726 0.114807
0.786438 0.543884 0.120880
0.816101 0.559723 0.130371
0.838257 0.569427 0.143585
0.857971 0.576019 0.153534
0.864471 0.574310 0.176575
0.049500 0.425537 0.084961
0.063721 0.426819 0.083466
0.078583 0.428772 0.081451
0.093689 0.431000 0.079041
0.109711 0.433411 0.075806
0.126190 0.438385 0.070251
0.144318 0.453369 0.054413
0.173126 0.452698 0.049866
0.206848 0.440704 0.047699
0.239136 0.435760 0.047943
0.271057 0.436310 0.049225
0.313660 0.438385 0.050690
0.354523 0.446198 0.053589
0.387573 0.454712 0.056061
0.414185 0.459747 0.057281
0.445251 0.467773 0.062744
0.476196 0.470123 0.068817
0.506378 0.469360 0.074982
0.536530 0.473999 0.081207
0.564819 0.480621 0.086151
0.592407 0.487701 0.091858
0.620026 0.494476 0.095947
0.648438 0.501892 0.099152
0.676697 0.509796 0.102753
0.708130 0.521484 0.107117
0.736633 0.537842 0.110413
0.765625 0.554260 0.115906
0.793976 0.570587 0.123352
0.822205 0.582886 0.134247
0.840515 0.588867 0.150360
0.859344 0.594788 0.161072
0.871948 0.595184 0.168030
0.060364 0.456146 0.095123
0.073456 0.457458 0.093842
0.087616 0.458771 0.091888
0.102081 0.460297 0.089020
0.117889 0.462280 0.085602
0.134003 0.467590 0.079193
0.150513 0.477509 0.066803
0.179291 0.486328 0.055817
0.217224 0.474457 0.053558
0.249451 0.465057 0.052612
0.281036 0.461487 0.053345
0.321106 0.462891 0.054962
0.363617 0.469666 0.056946
0.397186 0.478607 0.059448
0.424591 0.484619 0.060669
0.449615 0.489532 0.063324
0.478210 0.497589 0.068329
0.509613 0.501068 0.074860
0.539734 0.500671 0.081451
0.571075 0.506683 0.087921
0.598145 0.513031 0.092682
0.627655 0.520721 0.096680
0.657806 0.529388 0.100159
0.686890 0.538818 0.103241
0.717010 0.551422 0.106689
0.744934 0.568970 0.110504
0.773468 0.582672 0.117310
0.801086 0.595367 0.126434
0.827545 0.605652 0.138367
0.843719 0.609497 0.156433
0.859741 0.612671 0.170563
0.872223 0.612946 0.178009
0.068451 0.485870 0.105377
0.081573 0.488007 0.104156
0.096252 0.489624 0.102386
0.110840 0.492188 0.100220
0.126770 0.495117 0.096375
0.144043 0.501678 0.086761
0.157684 0.510162 0.071106
0.183380 0.514526 0.062225
0.225922 0.509857 0.059875
0.260040 0.496643 0.058014
0.292084 0.489990 0.058075
0.332214 0.489990 0.059509
0.372833 0.494537 0.060425
0.406738 0.501862 0.062317
0.432312 0.508362 0.063782
0.457794 0.513977 0.065338
0.482239 0.519348 0.069214
0.512207 0.528351 0.075195
0.543945 0.532623 0.081818
0.574158 0.533386 0.087769
0.605713 0.540344 0.093658
0.636261 0.548676 0.096497
0.666412 0.559174 0.099213
0.695892 0.571564 0.102997
0.724396 0.585114 0.106720
0.751953 0.598145 0.111664
0.779480 0.609985 0.120056
0.805145 0.619598 0.132019
0.829926 0.629425 0.144958
0.844269 0.630005 0.166077
0.859131 0.630768 0.182617
0.872009 0.631073 0.189148
0.076569 0.515808 0.116272
0.089264 0.517944 0.115234
0.103455 0.520569 0.113983
0.119415 0.523743 0.111206
0.135834 0.530304 0.103424
0.152039 0.536316 0.089874
0.164276 0.543274 0.074646
0.186401 0.546234 0.067261
0.227295 0.542053 0.065186
0.269135 0.530304 0.063660
0.300598 0.521118 0.063477
0.343872 0.518738 0.064087
0.382660 0.520599 0.064758
0.412659 0.525421 0.065491
0.439911 0.531311 0.066986
0.465576 0.538269 0.068298
0.489990 0.544037 0.070374
0.516052 0.551331 0.074921
0.546143 0.561981 0.080170
0.578064 0.567810 0.085876
0.610565 0.571838 0.092102
0.645508 0.581573 0.094696
0.673950 0.592255 0.098724
0.703552 0.605438 0.102661
0.730530 0.619202 0.107178
0.758850 0.629486 0.113983
0.785156 0.637909 0.124176
0.808167 0.642761 0.139496
0.830750 0.650604 0.155273
0.846191 0.651306 0.174866
0.860077 0.650238 0.192993
0.873779 0.651093 0.197784
0.083374 0.545807 0.127228
0.095459 0.546631 0.125641
0.109650 0.549225 0.124207
0.125214 0.552856 0.122437
0.142761 0.561188 0.113007
0.160553 0.569275 0.097076
0.174652 0.577393 0.074219
0.198700 0.579926 0.069824
0.229248 0.576935 0.067810
0.273590 0.565002 0.067627
0.308502 0.554596 0.067902
0.345856 0.549774 0.069000
0.388580 0.548157 0.068848
0.419128 0.550537 0.069122
0.446899 0.555176 0.069885
0.472992 0.562012 0.071045
0.497955 0.569427 0.073242
0.523529 0.577087 0.074829
0.550232 0.586548 0.078949
0.581207 0.599792 0.083191
0.616028 0.612000 0.088257
0.651794 0.618927 0.091949
0.682953 0.630798 0.097412
0.711334 0.639496 0.103699
0.736786 0.652283 0.109344
0.765259 0.660248 0.117889
0.790192 0.665192 0.131653
0.813354 0.668915 0.147766
0.830261 0.668579 0.170258
0.846466 0.670013 0.187927
0.860779 0.669556 0.204437
0.875305 0.670898 0.207703
0.089020 0.574005 0.137848
0.101196 0.574585 0.136230
0.115601 0.576874 0.134583
0.131256 0.580963 0.132263
0.148987 0.587128 0.127441
0.170166 0.596893 0.110565
0.185944 0.607208 0.083954
0.211304 0.611664 0.074432
0.241180 0.610107 0.071198
0.277039 0.600281 0.070953
0.313690 0.589081 0.071899
0.348419 0.584045 0.072052
0.385590 0.581055 0.071991
0.424774 0.579773 0.071991
0.453827 0.582642 0.073273
0.480957 0.588135 0.074158
0.505615 0.594269 0.075378
0.531952 0.604523 0.075958
0.558228 0.614746 0.076965
0.587006 0.627502 0.080566
0.622894 0.646606 0.084290
0.657349 0.661041 0.088715
0.688477 0.667328 0.097046
0.717957 0.677582 0.105804
0.745026 0.681976 0.115692
0.771698 0.690155 0.125153
0.793304 0.691315 0.143127
0.813385 0.690887 0.164307
0.828735 0.686951 0.188812
0.847748 0.689575 0.199860
0.864685 0.690796 0.211182
0.879272 0.692169 0.214294
0.096405 0.601013 0.148132
0.108826 0.601837 0.146454
0.123596 0.603912 0.144592
0.139862 0.607697 0.141602
0.158508 0.613129 0.136810
0.179596 0.622681 0.125366
0.198608 0.634064 0.101410
0.222168 0.641815 0.084290
0.249023 0.643005 0.077393
0.282318 0.637451 0.075623
0.317780 0.626312 0.074493
0.348785 0.618652 0.075195
0.384003 0.614838 0.075195
0.423096 0.613037 0.074646
0.460968 0.613953 0.075500
0.488831 0.618225 0.076263
0.515381 0.624329 0.076996
0.542603 0.632782 0.078125
0.570587 0.646362 0.078949
0.599762 0.660309 0.079376
0.630371 0.674896 0.081085
0.664001 0.694336 0.087585
0.694122 0.707184 0.098236
0.721436 0.709412 0.112244
0.752502 0.716095 0.123169
0.774872 0.714600 0.142487
0.793640 0.711456 0.164368
0.813354 0.710175 0.182800
0.831696 0.709229 0.199463
0.850464 0.711304 0.210083
0.868408 0.712921 0.219330
0.882782 0.714447 0.223419
0.104706 0.626221 0.157104
0.117859 0.627411 0.155792
0.132965 0.629486 0.153931
0.150635 0.632538 0.150696
0.170227 0.637207 0.145508
0.191040 0.645813 0.138092
0.210754 0.653534 0.125031
0.232849 0.667572 0.113525
0.261017 0.677216 0.090271
0.290802 0.674377 0.082642
0.322540 0.665527 0.078705
0.352722 0.655762 0.078156
0.387329 0.652496 0.077484
0.424927 0.650574 0.076752
0.460052 0.649567 0.077362
0.496338 0.651917 0.078552
0.525116 0.657043 0.078857
0.553894 0.666901 0.080292
0.584534 0.677795 0.080200
0.614532 0.693542 0.081818
0.644775 0.707764 0.082092
0.670502 0.719849 0.089905
0.700653 0.735840 0.101929
0.727478 0.743561 0.120880
0.754669 0.745026 0.135559
0.774353 0.735565 0.165070
0.796967 0.733002 0.182190
0.815582 0.731628 0.200134
0.834229 0.732544 0.211578
0.852905 0.735840 0.220337
0.871429 0.737701 0.228363
0.886017 0.739624 0.231903
0.114258 0.650208 0.165344
0.127472 0.651123 0.164978
0.142334 0.653137 0.164642
0.160858 0.655914 0.162292
0.181335 0.659790 0.158386
0.203400 0.667999 0.152008
0.225525 0.676453 0.150452
0.246094 0.689117 0.146484
0.272675 0.705872 0.129089
0.306458 0.717834 0.101501
0.337860 0.710358 0.089783
0.365845 0.699463 0.082733
0.398346 0.696381 0.080719
0.434601 0.693665 0.080597
0.470215 0.691162 0.080750
0.504395 0.691406 0.081543
0.535767 0.695251 0.081787
0.565491 0.703644 0.082794
0.596588 0.713959 0.084290
0.627258 0.724976 0.086426
0.656708 0.738953 0.088776
0.681122 0.751892 0.099030
0.703674 0.758850 0.111603
0.730164 0.768311 0.131622
0.752014 0.769440 0.158356
0.773956 0.761627 0.180145
0.796967 0.758789 0.197906
0.819000 0.756805 0.213287
0.837616 0.758759 0.222595
0.856445 0.761505 0.230591
0.874237 0.764343 0.237885
0.889099 0.766602 0.240845
0.130920 0.678436 0.175018
0.144501 0.678925 0.174500
0.160400 0.680756 0.174744
0.177429 0.683624 0.174866
0.195435 0.687073 0.174805
0.215790 0.692017 0.171295
0.236481 0.698181 0.174622
0.259888 0.709473 0.173340
0.284241 0.728790 0.154388
0.316589 0.746460 0.129364
0.350830 0.747650 0.112305
0.381256 0.743164 0.101135
0.416138 0.741882 0.092255
0.449036 0.737671 0.086975
0.484070 0.736053 0.085571
0.517731 0.736969 0.085083
