assets/configs/ColorAnd3dLutPreset/CubeLUTFiles/Star Wars.CUBE
#Created by: Adobe Photoshop Export Color Lookup Plugin
#Copyright: (C) Copyright 2016 Wondershare Inc.
TITLE "Star Wars"
#LUT size
LUT_3D_SIZE 5
#data domain
#LUT data points
DOMAIN_MIN 0.000000 0.000000 0.000000
DOMAIN_MAX 0.903226 0.903226 0.903226
0.011169 0.003052 0.002136
0.157898 0.038116 0.019623
0.342468 0.058868 0.037567
0.566498 0.125854 0.082916
0.733917 0.179382 0.107788
0.032623 0.155182 0.029846
0.160553 0.162354 0.023529
0.330414 0.190277 0.045563
0.517090 0.245483 0.087128
0.761139 0.329224 0.126190
0.023804 0.324158 0.053772
0.157288 0.340790 0.032684
0.387024 0.351379 0.052429
0.585876 0.392181 0.089264
0.789459 0.494507 0.157104
0.076569 0.515808 0.116272
0.186401 0.546234 0.067261
0.439911 0.531311 0.066986
0.645508 0.581573 0.094696
0.830750 0.650604 0.155273
0.146881 0.705994 0.183990
0.269196 0.730103 0.188721
0.500458 0.779053 0.100342
0.696381 0.808838 0.125824
0.843353 0.814362 0.243408
0.037292 0.041382 0.133026
0.172974 0.044006 0.136169
0.374390 0.071625 0.141022
0.602509 0.133881 0.165039
0.743622 0.182739 0.187500
0.041962 0.176849 0.149750
0.145599 0.190765 0.174835
0.369629 0.194336 0.145844
0.585754 0.242584 0.175690
0.773590 0.327209 0.208740
0.037018 0.339722 0.191681
0.139313 0.365112 0.173431
0.401825 0.381348 0.150848
0.613525 0.450012 0.254181
0.768738 0.522095 0.334503
0.078552 0.513336 0.231812
0.183228 0.550964 0.224487
0.429932 0.600494 0.167358
0.679077 0.633728 0.198059
0.816406 0.642090 0.303436
0.149689 0.704620 0.281891
0.266083 0.731873 0.303741
0.474701 0.791046 0.251221
0.691345 0.798981 0.270477
0.842407 0.811859 0.351227
0.053345 0.102966 0.289520
0.168701 0.081604 0.294556
0.345184 0.084686 0.275696
0.594727 0.147339 0.278717
0.749603 0.228180 0.342499
0.045715 0.225342 0.292358
0.150299 0.240967 0.316742
0.381500 0.248901 0.307648
0.622650 0.292023 0.335815
0.785217 0.382629 0.398682
0.058411 0.364105 0.330963
0.152283 0.380890 0.345825
0.358826 0.394714 0.365448
0.627777 0.483368 0.415680
0.810211 0.532410 0.457977
0.120087 0.576263 0.394531
0.203613 0.581818 0.384674
0.386353 0.597870 0.418304
0.680206 0.655670 0.417114
0.825012 0.702576 0.513245
0.183167 0.741150 0.426605
0.278076 0.748199 0.425812
0.447083 0.773804 0.471344
0.705353 0.821747 0.459869
0.862640 0.837891 0.482483
0.103699 0.145599 0.452057
0.202148 0.106506 0.458832
0.329041 0.114563 0.456543
0.578369 0.197205 0.430237
0.766296 0.279388 0.512451
0.082245 0.279236 0.433014
0.190002 0.260620 0.484070
0.377960 0.240692 0.516357
0.606049 0.329224 0.473572
0.798859 0.409882 0.538269
0.110260 0.426331 0.472229
0.202698 0.441223 0.495453
0.375702 0.446533 0.542694
0.654877 0.517181 0.557068
0.837097 0.555481 0.593018
0.152863 0.607056 0.531311
0.248962 0.622742 0.544769
0.411469 0.652954 0.576050
0.686981 0.682007 0.604065
0.856903 0.739319 0.650604
0.240631 0.789612 0.609589
0.350525 0.804260 0.616577
0.461273 0.816376 0.619354
0.720825 0.858826 0.648712
0.879059 0.889832 0.658997
0.154572 0.182007 0.639465
0.254395 0.143860 0.658722
0.414246 0.165192 0.638916
0.652771 0.258392 0.632050
0.820557 0.334961 0.681976
0.145386 0.338501 0.616638
0.235046 0.316376 0.644989
0.442780 0.318848 0.681458
0.659393 0.380615 0.653778
0.827240 0.446014 0.701385
0.164154 0.498871 0.645264
0.264648 0.515137 0.665070
0.446136 0.521576 0.696899
0.701355 0.527710 0.713165
0.849457 0.591370 0.741058
0.213928 0.656738 0.694092
0.323578 0.673004 0.703827
0.467224 0.694427 0.718567
0.718994 0.730072 0.760773
0.882568 0.774689 0.791931
0.293243 0.816711 0.750671
0.398071 0.830872 0.756958
0.515991 0.859650 0.783661
0.714233 0.907562 0.824615
0.903076 0.928619 0.835785
