assets/configs/ColorAnd3dLutPreset/CubeLUTFiles/Star Wars.CUBE
#Created by: Adobe Photoshop Export Color Lookup Plugin
#Copyright: (C) Copyright 2016 Wondershare Inc.
TITLE "Star Wars"
#LUT size
LUT_3D_SIZE 8
#data domain
#LUT data points
DOMAIN_MIN 0.000000 0.000000 0.000000
DOMAIN_MAX 0.903226 0.903226 0.903226
0.011169 0.003052 0.002136
0.089600 0.020020 0.010620
0.182678 0.042847 0.022522
0.288177 0.046875 0.027222
0.410187 0.076843 0.051056
0.537109 0.116211 0.076569
0.645233 0.149841 0.095856
0.733917 0.179382 0.107788
0.021545 0.085938 0.015259
0.088531 0.090637 0.014160
0.185608 0.106171 0.024445
0.274841 0.121643 0.038391
0.369507 0.139191 0.055481
0.529449 0.177429 0.077301
0.647797 0.220428 0.098877
0.740662 0.255829 0.111084
0.034393 0.179504 0.034851
0.083221 0.189789 0.027710
0.185425 0.188049 0.026367
0.289429 0.198914 0.030701
0.385498 0.224945 0.058533
0.500305 0.259064 0.084534
0.624878 0.299805 0.109344
0.750336 0.350494 0.131317
0.024628 0.276642 0.044617
0.081818 0.289246 0.029205
0.181549 0.287659 0.028839
0.313080 0.295563 0.038269
0.419769 0.313263 0.057220
0.541595 0.341187 0.080231
0.677551 0.387482 0.116272
0.769684 0.446289 0.146851
0.030945 0.373474 0.068268
0.096466 0.384216 0.053375
0.193268 0.388367 0.040405
0.335266 0.399200 0.046783
0.465515 0.411377 0.066833
0.571747 0.431519 0.086578
0.690887 0.470428 0.104523
0.809662 0.536682 0.126892
0.068451 0.485870 0.105377
0.126770 0.495117 0.096375
0.225922 0.509857 0.059875
0.372833 0.494537 0.060425
0.482239 0.519348 0.069214
0.605713 0.540344 0.093658
0.724396 0.585114 0.106720
0.829926 0.629425 0.144958
0.096405 0.601013 0.148132
0.158508 0.613129 0.136810
0.249023 0.643005 0.077393
0.384003 0.614838 0.075195
0.515381 0.624329 0.076996
0.630371 0.674896 0.081085
0.752502 0.716095 0.123169
0.831696 0.709229 0.199463
0.146881 0.705994 0.183990
0.207672 0.710999 0.182892
0.294983 0.751221 0.173401
0.430298 0.783691 0.112701
0.562683 0.784698 0.103149
0.674164 0.803558 0.114502
0.751129 0.808563 0.189758
0.843353 0.814362 0.243408
0.021729 0.017731 0.069397
0.097687 0.024414 0.073700
0.196991 0.041840 0.079407
0.297455 0.050568 0.086487
0.422668 0.080750 0.102570
0.551819 0.120544 0.125549
0.661285 0.152954 0.140778
0.738342 0.176453 0.150909
0.026733 0.095886 0.078522
0.086456 0.099640 0.089050
0.196533 0.107117 0.080963
0.294342 0.114594 0.083374
0.416687 0.130096 0.100769
0.544739 0.171509 0.124786
0.663361 0.214294 0.143158
0.748901 0.250031 0.156128
0.037476 0.186859 0.097260
0.086395 0.193451 0.092743
0.197418 0.190063 0.081055
0.297516 0.198608 0.098236
0.398193 0.228241 0.118652
0.511017 0.263489 0.144073
0.650055 0.300690 0.159576
0.773560 0.356598 0.175262
0.026031 0.282745 0.108612
0.083344 0.291077 0.106750
0.157562 0.313263 0.087067
0.311066 0.305298 0.092133
0.444397 0.321472 0.112030
0.569092 0.357941 0.150024
0.672211 0.410461 0.182922
0.765839 0.463409 0.230713
0.035400 0.377594 0.131256
0.098297 0.392456 0.126953
0.189240 0.428009 0.102692
0.339905 0.415314 0.103302
0.483398 0.429108 0.122253
0.607025 0.455475 0.142273
0.718018 0.491699 0.157227
0.795532 0.546234 0.251556
0.067352 0.479218 0.164551
0.125336 0.496063 0.161438
0.203735 0.531555 0.125793
0.344788 0.523895 0.119568
0.500244 0.544983 0.124512
0.638489 0.567780 0.143097
0.733002 0.601227 0.163971
0.815063 0.619263 0.228455
0.097656 0.600555 0.205475
0.152405 0.607849 0.203247
0.232727 0.624084 0.195648
0.379517 0.645020 0.132751
0.538177 0.653931 0.130341
0.642853 0.692932 0.135284
0.743561 0.706940 0.201294
0.826965 0.705078 0.266785
0.146576 0.703644 0.237640
0.209961 0.714935 0.239380
0.281708 0.726593 0.263519
0.409668 0.773468 0.210938
0.560516 0.794098 0.173920
0.672180 0.802002 0.185730
0.746338 0.799835 0.257111
0.841492 0.811462 0.304932
0.042480 0.048279 0.155914
0.101135 0.042969 0.164429
0.196320 0.049316 0.160614
0.294281 0.053741 0.146851
0.455994 0.096375 0.166290
0.579559 0.129120 0.175629
0.672668 0.156189 0.186432
0.744965 0.187408 0.202301
0.042175 0.123627 0.157959
0.095917 0.120026 0.181915
0.204254 0.123322 0.167755
0.315002 0.127136 0.155090
0.456940 0.143463 0.164948
0.574097 0.184814 0.183472
0.680450 0.226898 0.196564
0.758728 0.266510 0.217804
0.042053 0.206055 0.175507
0.092590 0.211975 0.189575
0.165985 0.217560 0.200500
0.310455 0.223022 0.175659
0.442719 0.234528 0.178955
0.566559 0.262360 0.200806
0.683807 0.305542 0.211914
0.778473 0.357208 0.239624
0.035461 0.300171 0.208374
0.088898 0.304321 0.199219
0.144012 0.318573 0.186737
0.328308 0.314636 0.168549
0.458466 0.348328 0.216553
0.566986 0.392517 0.258942
0.661804 0.436737 0.305542
0.756195 0.480835 0.344788
0.047943 0.389374 0.227295
0.102386 0.397919 0.212372
0.175507 0.434570 0.206482
0.322510 0.444519 0.177307
0.496185 0.454926 0.180542
0.637207 0.480164 0.197662
0.697479 0.538391 0.328461
0.784058 0.567566 0.364166
0.075592 0.492340 0.247650
0.125000 0.498199 0.237335
0.200928 0.538483 0.236328
0.349731 0.572449 0.200867
0.518860 0.580719 0.179138
0.653137 0.604401 0.202393
0.740326 0.613922 0.263489
0.813782 0.635284 0.348846
0.102234 0.600403 0.270844
0.152527 0.608002 0.266479
0.226532 0.627350 0.270477
0.358582 0.652100 0.256470
0.532837 0.696350 0.202484
0.663452 0.726501 0.214264
0.743896 0.699280 0.307465
0.826141 0.707581 0.336548
0.151794 0.705933 0.297546
0.206116 0.713287 0.298370
0.286896 0.739441 0.328522
0.399963 0.753662 0.328400
0.566742 0.795441 0.276672
0.674744 0.797974 0.290070
0.749146 0.799255 0.323853
0.843140 0.812775 0.366302
0.049683 0.080780 0.247955
0.111206 0.067810 0.253906
0.186951 0.069489 0.250580
0.294067 0.069366 0.237976
0.409210 0.081207 0.226288
0.592834 0.139557 0.236816
0.686890 0.177460 0.256744
0.751160 0.217163 0.291931
0.046051 0.158875 0.243073
0.100342 0.157166 0.260925
0.174133 0.133636 0.277069
0.309326 0.147491 0.246185
0.437317 0.143738 0.227753
0.598145 0.208954 0.261719
0.693176 0.260803 0.288177
0.762756 0.298981 0.318085
0.039825 0.229553 0.254150
0.093262 0.236664 0.266724
0.162048 0.242889 0.290131
0.318298 0.247833 0.271881
0.461212 0.264496 0.281921
0.590851 0.284241 0.292603
0.687469 0.341064 0.330139
0.782379 0.391266 0.361969
0.044861 0.310394 0.280090
0.095795 0.318359 0.283783
0.149445 0.327606 0.299042
0.272980 0.330872 0.304504
0.434235 0.358612 0.316010
0.595490 0.401703 0.344757
0.698181 0.439941 0.374603
0.797424 0.481934 0.397369
0.066498 0.409210 0.313721
0.119904 0.422913 0.315826
0.169861 0.429443 0.316803
0.258026 0.440369 0.320190
0.494415 0.474152 0.312988
0.595825 0.510040 0.380493
0.697113 0.553528 0.418274
0.788300 0.582123 0.450226
0.099487 0.524872 0.343994
0.142395 0.529175 0.333130
0.196442 0.545135 0.328400
0.312805 0.559875 0.355469
0.508667 0.592590 0.322815
0.646759 0.620087 0.349884
0.743408 0.628937 0.390717
0.815613 0.669983 0.467163
0.124817 0.627350 0.359619
0.174164 0.630127 0.349121
0.237305 0.638000 0.346405
0.351074 0.655701 0.384430
0.524353 0.690002 0.370544
0.665955 0.717041 0.374786
0.758728 0.717499 0.395569
0.841705 0.730713 0.422363
0.172211 0.729645 0.376617
0.221558 0.730255 0.372406
0.277191 0.733948 0.378754
0.382050 0.764221 0.423615
0.533234 0.771423 0.421326
0.681213 0.803009 0.402039
0.765961 0.823608 0.419495
0.851532 0.823944 0.430695
0.064758 0.123352 0.330688
0.125397 0.087341 0.342896
0.192078 0.093567 0.340546
0.282349 0.096405 0.325897
0.393494 0.098694 0.311676
0.526337 0.141388 0.318726
0.658020 0.192566 0.343170
0.752289 0.243408 0.385956
0.054016 0.193878 0.327209
0.116516 0.191315 0.341034
0.195251 0.148376 0.368591
0.271149 0.153107 0.365326
0.413208 0.178436 0.317413
0.539337 0.212250 0.328430
0.694916 0.285004 0.382874
0.773865 0.323059 0.412750
0.056702 0.258881 0.335968
0.107147 0.266479 0.343079
0.178009 0.266113 0.370728
0.291626 0.229462 0.404419
0.451202 0.288757 0.353882
0.590424 0.308563 0.366730
0.702850 0.365021 0.413025
0.800018 0.416473 0.450226
0.062958 0.333038 0.355072
0.113953 0.341949 0.361725
0.167023 0.348022 0.373871
0.267975 0.353943 0.409454
0.466858 0.385498 0.402283
0.605286 0.424622 0.431183
0.715454 0.453247 0.452972
0.807739 0.496185 0.481659
0.086761 0.430511 0.385498
0.137299 0.442169 0.389709
0.193634 0.452209 0.403625
0.277802 0.470245 0.434113
0.462097 0.475891 0.433594
0.593323 0.527771 0.460815
0.726807 0.564087 0.494354
0.822845 0.582520 0.516113
0.119507 0.554260 0.421448
0.169312 0.563965 0.426208
0.226929 0.579590 0.436798
0.302795 0.592224 0.446991
0.446716 0.577606 0.456787
0.647247 0.628815 0.468689
0.739960 0.658295 0.520233
0.821106 0.693298 0.549042
0.161743 0.665100 0.462952
0.210388 0.664398 0.455658
0.263428 0.665680 0.447388
0.347229 0.682068 0.465729
0.499878 0.691711 0.489868
0.664612 0.720734 0.481750
0.765503 0.748016 0.494080
0.857666 0.765564 0.529755
0.199768 0.757324 0.488220
0.250244 0.758301 0.477692
0.309479 0.765869 0.477264
0.381744 0.782562 0.494049
0.546631 0.797546 0.516388
0.681641 0.826965 0.512817
0.777069 0.851990 0.524261
0.871582 0.853729 0.541138
0.095764 0.142639 0.425201
0.154480 0.101776 0.443146
0.210297 0.104187 0.432373
0.287415 0.109711 0.432404
0.379242 0.116028 0.411316
0.536102 0.176666 0.401062
0.661224 0.227844 0.434753
0.762573 0.273376 0.485107
0.077393 0.224335 0.407867
0.145752 0.204498 0.440704
0.220764 0.157410 0.470795
0.298553 0.162354 0.468262
0.403564 0.190002 0.436462
0.557129 0.251495 0.415283
0.667206 0.292328 0.453033
0.775269 0.339569 0.489868
0.076233 0.289246 0.414612
0.128357 0.290619 0.422516
0.198090 0.274689 0.466492
0.321777 0.245270 0.508667
0.437378 0.281311 0.474518
0.580353 0.333160 0.450439
0.676788 0.365387 0.476105
0.812836 0.433136 0.532043
0.094116 0.368652 0.437286
0.143158 0.374359 0.446198
0.195679 0.377075 0.464783
0.282196 0.375671 0.494995
0.462219 0.389252 0.506775
0.602936 0.443146 0.506836
0.718140 0.468475 0.528107
0.824829 0.510529 0.559174
0.111786 0.465363 0.463989
0.162720 0.475739 0.472870
0.219116 0.487915 0.489868
0.308563 0.498962 0.520721
0.468079 0.511566 0.546021
0.636810 0.554626 0.548004
0.744110 0.579834 0.571289
0.840576 0.591156 0.587677
0.138916 0.575714 0.501129
0.189484 0.582275 0.506195
0.245972 0.594482 0.518402
0.326660 0.613281 0.537842
0.464355 0.629089 0.566803
0.647491 0.642517 0.571198
0.748291 0.680420 0.594391
0.850464 0.708710 0.624237
0.180450 0.677521 0.541595
0.236084 0.686066 0.545654
0.299438 0.701569 0.556030
0.376190 0.716736 0.568939
0.493073 0.726776 0.587036
0.659882 0.726227 0.587219
0.772064 0.771149 0.598785
0.856934 0.801575 0.654419
0.233795 0.786102 0.590027
0.294586 0.794281 0.592377
0.353821 0.798615 0.590485
0.415100 0.803192 0.587982
0.532379 0.830505 0.614166
0.694427 0.848206 0.619415
0.786011 0.866730 0.624542
0.879150 0.883209 0.636536
0.127411 0.154877 0.535126
0.182465 0.117188 0.552094
0.239990 0.117798 0.538177
0.313080 0.121460 0.533813
0.410828 0.135376 0.526062
0.568634 0.196411 0.505493
0.685760 0.260620 0.540009
0.786530 0.305054 0.586243
0.107666 0.245239 0.504669
0.172485 0.217926 0.547638
0.244965 0.177063 0.576965
0.330566 0.183105 0.562622
0.435028 0.212372 0.549896
0.573914 0.266968 0.525299
0.689453 0.327820 0.558044
0.789856 0.368958 0.598633
0.111603 0.321960 0.509857
0.156616 0.313293 0.521759
0.219543 0.298584 0.561920
0.357452 0.288696 0.597137
0.478363 0.315338 0.585114
0.595306 0.357880 0.561798
0.706299 0.407104 0.584808
0.798431 0.438263 0.611267
0.127075 0.411713 0.531250
0.176880 0.415466 0.544464
0.227509 0.412506 0.564117
0.320496 0.410980 0.584045
0.490173 0.418274 0.627075
0.630737 0.455444 0.597656
0.730286 0.490265 0.612305
0.814728 0.515625 0.627869
0.140778 0.505432 0.557220
0.190094 0.517181 0.565857
0.247528 0.527069 0.582886
0.341278 0.539154 0.602661
0.492554 0.544922 0.634125
0.653534 0.555725 0.625977
0.754608 0.595978 0.646637
0.844910 0.610291 0.660004
0.162598 0.599579 0.588104
0.216705 0.609863 0.596100
0.281342 0.622223 0.607758
0.360352 0.636749 0.617279
0.498901 0.653473 0.647034
0.676483 0.675720 0.661652
0.775787 0.706421 0.680359
0.868195 0.730194 0.704895
0.203796 0.696503 0.627960
0.261383 0.704590 0.630432
0.329193 0.715698 0.637360
0.406586 0.727966 0.646881
0.519928 0.753876 0.676971
0.675507 0.779999 0.698334
0.780640 0.791656 0.701019
0.868408 0.822418 0.726807
0.259613 0.797943 0.669037
0.320831 0.804901 0.669708
0.387054 0.816345 0.676514
0.457092 0.832550 0.691650
0.536224 0.856171 0.714081
0.683533 0.879761 0.727081
0.795380 0.881195 0.725342
0.888916 0.906738 0.734070
0.154572 0.182007 0.639465
0.210693 0.141571 0.661652
0.271484 0.143250 0.652283
0.355988 0.147369 0.633026
0.488281 0.186646 0.632904
0.622040 0.242096 0.626953
0.730591 0.298462 0.652100
0.820557 0.334961 0.681976
0.141937 0.263397 0.618835
0.195740 0.249786 0.644287
0.278229 0.219055 0.678833
0.373016 0.230072 0.663574
0.497650 0.265686 0.650726
0.621735 0.310333 0.637146
0.729980 0.362152 0.659821
0.821960 0.397308 0.690002
0.148682 0.359772 0.619873
0.192505 0.343536 0.634430
0.251617 0.341187 0.646637
0.389832 0.335663 0.687927
0.516144 0.359283 0.687866
0.642303 0.392914 0.659637
0.736267 0.429321 0.672150
0.829498 0.462738 0.705475
0.158600 0.453491 0.633759
0.209961 0.456451 0.647766
0.272827 0.458282 0.660553
0.367279 0.462250 0.674530
0.528107 0.456451 0.725616
0.668457 0.477478 0.695007
0.754608 0.507904 0.699615
0.841614 0.544006 0.727417
0.173401 0.543152 0.658630
0.229218 0.555206 0.667206
0.296265 0.566772 0.677460
0.378754 0.572723 0.686157
0.524475 0.581665 0.720032
0.682068 0.572021 0.735352
0.773254 0.604340 0.731842
0.860382 0.639221 0.755463
0.204163 0.634094 0.686798
0.264038 0.643951 0.693512
0.331512 0.654541 0.699646
0.408875 0.664429 0.705048
0.528015 0.685455 0.732452
0.687012 0.700378 0.752838
0.785156 0.707916 0.758270
0.879517 0.744537 0.782349
0.245789 0.724121 0.716492
0.305878 0.731842 0.719391
0.371094 0.739502 0.722931
0.442505 0.751740 0.731171
0.545868 0.778992 0.760284
0.685425 0.802979 0.782227
0.797913 0.820251 0.799622
0.892090 0.845215 0.811859
0.293243 0.816711 0.750671
0.350983 0.822968 0.751678
0.414093 0.833923 0.759705
0.480072 0.849548 0.774811
0.559814 0.872772 0.794159
0.686646 0.902618 0.818665
0.793640 0.919952 0.844147
0.903076 0.928619 0.835785
