assets/configs/ColorAnd3dLutPreset/CubeLUTFiles/Warm Film.CUBE
#Created by: Adobe Photoshop Export Color Lookup Plugin
#Copyright: (C) Copyright 2016 Wondershare Inc.
TITLE "Warm Film"
#LUT size
LUT_3D_SIZE 8
#data domain
#LUT data points
DOMAIN_MIN 0.000000 0.000000 0.000000
DOMAIN_MAX 0.903226 0.903226 0.903226
0.083313 0.076813 0.125092
0.150482 0.076355 0.134735
0.234863 0.070862 0.139038
0.330627 0.061493 0.138947
0.433167 0.050110 0.136444
0.541687 0.037201 0.132172
0.657959 0.022705 0.126007
0.784271 0.006348 0.117889
0.077057 0.143036 0.146912
0.165009 0.136414 0.140686
0.268524 0.125824 0.130524
0.381622 0.113159 0.118286
0.499725 0.100311 0.105865
0.623260 0.087738 0.093689
0.755157 0.075165 0.081543
0.898499 0.062775 0.069580
0.030884 0.224335 0.125580
0.140717 0.215088 0.108917
0.266785 0.203339 0.089813
0.402069 0.191620 0.070953
0.541046 0.182404 0.054810
0.682312 0.175934 0.042175
0.824738 0.171173 0.032593
0.968018 0.168274 0.026398
0.000000 0.332550 0.079407
0.097839 0.325958 0.058990
0.250610 0.317749 0.039032
0.407349 0.310486 0.022949
0.557800 0.306702 0.013641
0.699738 0.306763 0.011627
0.836487 0.309814 0.014526
0.973236 0.314575 0.019257
0.000000 0.474457 0.035400
0.064880 0.467529 0.022186
0.237213 0.460083 0.013092
0.403687 0.455811 0.008820
0.558014 0.456573 0.009552
0.702637 0.461090 0.014099
0.842773 0.467804 0.020813
0.982574 0.475586 0.028595
0.000000 0.624420 0.025757
0.063873 0.619690 0.021027
0.241302 0.615845 0.017181
0.411163 0.614960 0.016327
0.568085 0.618286 0.019623
0.714478 0.624603 0.025940
0.858459 0.635162 0.036499
0.996796 0.652222 0.053558
0.000000 0.784668 0.034363
0.074707 0.782166 0.031860
0.253876 0.780060 0.029755
0.429138 0.784607 0.034271
0.598022 0.799591 0.050507
0.757874 0.817352 0.094971
0.895050 0.831848 0.171387
0.998932 0.843872 0.267151
0.000000 0.957367 0.055389
0.113159 0.967102 0.070618
0.329590 0.967133 0.119019
0.530975 0.958771 0.198303
0.692993 0.949585 0.295380
0.815155 0.943481 0.401642
0.903839 0.941864 0.513794
0.963531 0.945129 0.627106
0.086823 0.079895 0.148315
0.156982 0.078583 0.160706
0.243378 0.071899 0.166687
0.341034 0.061615 0.168549
0.445312 0.049530 0.168152
0.555450 0.036102 0.166046
0.673340 0.021149 0.162170
0.801544 0.004517 0.156433
0.077606 0.146027 0.177673
0.167969 0.138489 0.173431
0.273743 0.127106 0.165222
0.389343 0.113953 0.155243
0.509796 0.100830 0.145233
0.635529 0.088104 0.135620
0.769318 0.075653 0.126190
0.914459 0.063690 0.117218
0.029602 0.227875 0.163666
0.142181 0.218292 0.149384
0.271118 0.206299 0.132751
0.409302 0.194702 0.116638
0.550507 0.185730 0.103455
0.692688 0.179596 0.093658
0.835083 0.175446 0.086792
0.977325 0.173431 0.083069
0.000000 0.338501 0.126495
0.100098 0.331848 0.108948
0.255402 0.323334 0.091553
0.413757 0.316132 0.078003
0.564697 0.312714 0.071075
0.706482 0.313263 0.070618
0.843567 0.316895 0.074219
0.980835 0.322174 0.079498
0.000000 0.481293 0.091492
0.070618 0.474091 0.080383
0.243927 0.466797 0.072418
0.410980 0.463104 0.068726
0.565704 0.464264 0.069885
0.710602 0.469055 0.074677
0.850983 0.476044 0.081665
0.990875 0.483917 0.089539
0.000000 0.631836 0.085785
0.071625 0.627441 0.081421
0.249329 0.623840 0.077820
0.419464 0.623260 0.077209
0.576355 0.626556 0.080536
0.723450 0.633575 0.087524
0.868958 0.645660 0.099609
0.997803 0.665070 0.120056
0.000000 0.792938 0.095245
0.082916 0.790405 0.092682
0.263306 0.789490 0.091797
0.440735 0.796204 0.098480
0.611786 0.812012 0.120117
0.770294 0.828308 0.173065
0.901581 0.840942 0.251831
0.998718 0.851562 0.343170
0.000000 0.969940 0.120575
0.133392 0.977325 0.143066
0.355499 0.972961 0.199554
0.553711 0.961700 0.278778
0.709473 0.951508 0.370544
0.826202 0.945618 0.470978
0.910034 0.944763 0.576569
0.965454 0.949036 0.682159
0.090515 0.083099 0.174530
0.162964 0.080566 0.188660
0.251587 0.072723 0.196564
0.351257 0.061584 0.200439
0.457214 0.048798 0.202087
0.568756 0.034851 0.202179
0.688324 0.019531 0.200653
0.818848 0.002625 0.197479
0.078033 0.148804 0.210632
0.170807 0.140442 0.208374
0.278931 0.128326 0.202240
0.396912 0.114685 0.194550
0.519684 0.101288 0.187012
0.647644 0.088501 0.180054
0.783905 0.076324 0.173553
0.930603 0.064911 0.167572
0.028290 0.231354 0.204193
0.143524 0.221283 0.192200
0.275421 0.209290 0.178284
0.416626 0.197937 0.165100
0.559998 0.189331 0.154846
0.702820 0.183472 0.147614
0.844849 0.179962 0.143158
0.985748 0.178894 0.141571
0.000000 0.344391 0.176208
0.102417 0.337524 0.161285
0.260376 0.329041 0.146484
0.420197 0.321930 0.135193
0.571472 0.318909 0.130157
0.713165 0.319946 0.130798
0.850739 0.324097 0.134949
0.988464 0.329773 0.140656
0.000000 0.488037 0.149536
0.076660 0.480591 0.139954
0.250854 0.473724 0.132904
0.418304 0.470459 0.129608
0.573273 0.471802 0.130951
0.718536 0.476990 0.136169
0.859192 0.484253 0.143433
0.996735 0.492188 0.151367
0.000000 0.639343 0.146820
0.079285 0.635132 0.142609
0.257385 0.631927 0.139435
0.427704 0.631500 0.139008
0.584534 0.634735 0.142242
0.732758 0.642883 0.150391
0.880554 0.657257 0.164764
0.998901 0.678314 0.190002
0.000000 0.801117 0.156982
0.091156 0.798645 0.154480
0.273254 0.799438 0.155273
0.453217 0.808655 0.164551
0.626038 0.823883 0.192749
0.781952 0.838226 0.251556
0.907227 0.849335 0.330231
0.997894 0.859131 0.416534
0.000000 0.982941 0.187561
0.157532 0.985962 0.218689
0.381653 0.976959 0.278290
0.575745 0.963684 0.355286
0.725952 0.953156 0.442230
0.837494 0.947784 0.537109
0.916382 0.947815 0.635468
0.967560 0.953064 0.732666
0.093384 0.085510 0.210571
0.167908 0.081543 0.227539
0.258575 0.072571 0.238495
0.360199 0.060547 0.245605
0.467834 0.047028 0.250549
0.580811 0.032471 0.253876
0.702087 0.016724 0.255829
0.834381 0.000366 0.256287
0.077362 0.150452 0.257263
0.172455 0.141205 0.258148
0.283020 0.128418 0.255341
0.403290 0.114197 0.251038
0.528198 0.100433 0.247040
0.658051 0.087555 0.243774
0.796753 0.075745 0.241455
0.944885 0.064941 0.239441
0.025757 0.233582 0.262268
0.143677 0.223145 0.253784
0.278412 0.210938 0.243530
0.422333 0.199707 0.234253
0.567535 0.191376 0.227661
0.710846 0.185913 0.223572
0.852509 0.183167 0.221741
0.991943 0.183044 0.222107
0.000000 0.348785 0.247070
0.103485 0.341644 0.235443
0.263794 0.333069 0.223511
0.424927 0.326202 0.214569
0.576447 0.323486 0.211060
0.718384 0.325165 0.212646
0.856384 0.329742 0.217224
0.994415 0.335754 0.223236
0.000000 0.492706 0.229492
0.081360 0.485504 0.221313
0.256287 0.479156 0.214935
0.424133 0.476288 0.212067
0.579315 0.477875 0.213684
0.724823 0.483307 0.219116
0.865723 0.490784 0.226562
0.997345 0.498688 0.234497
0.000000 0.645081 0.229218
0.085541 0.641357 0.225494
0.263824 0.638367 0.222504
0.434265 0.638062 0.222198
0.591156 0.641357 0.225494
0.740784 0.650909 0.235046
0.891205 0.667908 0.252075
0.999969 0.689972 0.282196
0.000000 0.807617 0.240112
0.098206 0.805695 0.238159
0.282013 0.808197 0.240692
0.464691 0.819427 0.253082
0.639282 0.833588 0.287506
0.791260 0.845581 0.346558
0.910522 0.855377 0.419830
0.995850 0.865173 0.498749
0.000000 0.992676 0.277924
0.184082 0.991272 0.315643
0.407318 0.978394 0.372681
0.595856 0.963776 0.442261
0.740936 0.953491 0.521423
0.847717 0.949127 0.607849
0.922119 0.950409 0.696716
0.969452 0.956848 0.783264
0.095367 0.087067 0.255035
0.171936 0.081696 0.275635
0.264679 0.071655 0.290588
0.368103 0.058655 0.301605
0.477234 0.044342 0.310577
0.591949 0.029236 0.318146
0.715027 0.013031 0.324463
0.849060 0.000000 0.329285
0.075836 0.151184 0.315002
0.173126 0.141022 0.319824
0.286133 0.127594 0.321228
0.408722 0.112823 0.321167
0.535736 0.098694 0.321533
0.667847 0.085815 0.322906
0.808258 0.074249 0.325195
0.956940 0.063995 0.327393
0.022339 0.234863 0.334259
0.142975 0.224152 0.330200
0.280670 0.211853 0.324524
0.426971 0.200623 0.319519
0.573486 0.192383 0.316711
0.717255 0.187408 0.315857
0.858246 0.185425 0.316498
0.996277 0.186249 0.318359
0.000000 0.352173 0.334137
0.103699 0.344727 0.325989
0.266144 0.335968 0.316742
0.428314 0.329254 0.309784
0.580139 0.326996 0.307495
0.722565 0.329315 0.309814
0.860992 0.334320 0.314819
0.996826 0.340637 0.321136
0.000000 0.496277 0.325378
0.085144 0.489319 0.318115
0.260559 0.483459 0.312225
0.428741 0.480865 0.309662
0.584290 0.482819 0.311646
0.730072 0.488525 0.317322
0.871063 0.496094 0.324890
0.997864 0.504028 0.332825
0.000000 0.649841 0.326965
0.090637 0.646484 0.323608
0.269135 0.643677 0.320801
0.439423 0.643219 0.320343
0.597168 0.647369 0.324493
0.748352 0.658478 0.335632
0.900330 0.677582 0.355591
1.000000 0.700867 0.389801
0.000000 0.812866 0.338318
0.104736 0.812225 0.337708
0.290649 0.816833 0.342316
0.476166 0.828644 0.358154
0.651978 0.841522 0.396149
0.799469 0.851562 0.451233
0.912537 0.860199 0.514587
0.993134 0.870361 0.583405
0.000000 0.995789 0.384766
0.211823 0.993591 0.423828
0.432983 0.977997 0.474670
0.615570 0.962860 0.534241
0.755524 0.953308 0.603271
0.857361 0.950104 0.678406
0.927460 0.952728 0.755280
0.971405 0.960510 0.829956
0.096710 0.088013 0.304413
0.175476 0.081421 0.329498
0.270233 0.070251 0.348602
0.375336 0.056305 0.363739
0.485992 0.041260 0.376923
0.602570 0.025574 0.389160
0.727539 0.008911 0.400208
0.863373 0.000000 0.409790
0.073883 0.151459 0.379028
0.173431 0.140472 0.388123
0.288727 0.126282 0.393890
0.413574 0.111023 0.398376
0.542908 0.096649 0.403564
0.677490 0.083862 0.410065
0.819397 0.072662 0.417053
0.967957 0.062927 0.423065
0.018463 0.235596 0.413300
0.141907 0.224731 0.414185
0.282593 0.212494 0.413422
0.431305 0.201294 0.412750
0.579010 0.193237 0.413422
0.722839 0.188751 0.415283
0.862915 0.187561 0.417694
0.997040 0.189240 0.420410
0.000000 0.355103 0.428925
0.103821 0.347412 0.423950
0.268250 0.338531 0.416931
0.431366 0.332031 0.411346
0.583496 0.330353 0.409851
0.726379 0.333160 0.412659
0.865143 0.338470 0.417999
0.997253 0.344940 0.424438
0.000000 0.499573 0.427399
0.088745 0.492889 0.420715
0.264496 0.487366 0.415192
0.432892 0.485016 0.412811
0.588898 0.487457 0.415253
0.734894 0.493347 0.421173
0.875885 0.500916 0.428741
0.998322 0.509430 0.437256
0.000000 0.654297 0.430420
0.095337 0.651184 0.427338
0.273926 0.648438 0.424591
0.444183 0.647980 0.424133
0.603271 0.653473 0.429626
0.756714 0.666840 0.442993
0.908478 0.687286 0.465668
1.000000 0.711456 0.501007
0.000000 0.817810 0.442291
0.111298 0.818787 0.443298
0.299561 0.825714 0.450256
0.488770 0.837097 0.469208
0.664093 0.847931 0.506073
0.806885 0.856659 0.554077
0.914307 0.864899 0.606812
0.990417 0.875641 0.664246
0.005890 0.996704 0.496521
0.239868 0.993896 0.531250
0.457947 0.976593 0.573334
0.635559 0.961639 0.622864
0.770294 0.953125 0.680695
0.867188 0.951294 0.743774
0.932983 0.955322 0.808411
0.973541 0.964264 0.870819
0.097656 0.088531 0.358978
0.178497 0.080688 0.388336
0.275269 0.068451 0.411743
0.382202 0.053619 0.431213
0.494598 0.037842 0.448914
0.612793 0.021576 0.465851
0.739502 0.004547 0.481781
0.877167 0.000000 0.496307
0.071564 0.151337 0.448395
0.173401 0.139587 0.462128
0.291046 0.124725 0.472473
0.418121 0.108887 0.481537
0.549744 0.094330 0.491760
0.686584 0.081757 0.503448
0.829926 0.071014 0.515137
0.978088 0.061890 0.524506
0.014435 0.236267 0.498749
0.140625 0.225098 0.504456
0.284027 0.212708 0.508240
0.435089 0.201721 0.511871
0.583954 0.194000 0.515717
0.727722 0.190094 0.519684
0.866730 0.189697 0.523163
0.997314 0.192291 0.526367
0.000000 0.357697 0.529541
0.103882 0.349731 0.527130
0.270233 0.340851 0.521759
0.434204 0.334717 0.516998
0.586792 0.333649 0.516083
0.730042 0.336823 0.519257
0.869049 0.342377 0.524811
0.997650 0.349274 0.531708
0.000000 0.502625 0.533356
0.092194 0.496368 0.527100
0.268341 0.491211 0.521942
0.437042 0.489166 0.519928
0.593323 0.491852 0.522583
0.739410 0.497894 0.528625
0.880280 0.505341 0.536072
0.998749 0.515045 0.545776
0.000000 0.658569 0.537659
0.099823 0.655640 0.534729
0.278381 0.652924 0.531982
0.448944 0.652740 0.531830
0.609314 0.659515 0.538605
0.765289 0.675415 0.554504
0.915649 0.696808 0.578522
1.000000 0.721375 0.611176
0.000000 0.822937 0.550354
0.118134 0.825592 0.553040
0.309265 0.834534 0.562439
0.502777 0.844818 0.582611
0.675751 0.853210 0.613678
0.813385 0.860748 0.651520
0.915833 0.869354 0.693237
0.987793 0.881073 0.739075
0.033203 0.997406 0.609283
0.269165 0.992920 0.635559
0.482483 0.974609 0.666718
0.655182 0.960297 0.705170
0.784851 0.953064 0.751373
0.877014 0.952759 0.802399
0.938782 0.958282 0.855133
0.976074 0.968353 0.905731
0.098267 0.088715 0.417480
0.181183 0.079681 0.451019
0.279877 0.066376 0.478577
0.388641 0.050659 0.502380
0.503052 0.034210 0.524933
0.623016 0.017426 0.546661
0.751404 0.000824 0.567444
0.890808 0.000000 0.586945
0.069000 0.151001 0.521667
0.173187 0.138519 0.540039
0.293182 0.122986 0.554962
0.422760 0.106781 0.569031
0.556702 0.092072 0.584259
0.695343 0.079651 0.600769
0.839447 0.069397 0.616425
0.987061 0.061066 0.628784
0.010864 0.236938 0.588501
0.139465 0.225616 0.599182
0.285645 0.213104 0.607208
0.438629 0.202148 0.614258
0.588409 0.194794 0.620575
0.731964 0.191528 0.625916
0.870087 0.192078 0.629913
0.997589 0.195496 0.633514
0.000000 0.360199 0.633270
0.104218 0.351959 0.632721
0.272247 0.343109 0.628143
0.437042 0.337494 0.623840
0.590149 0.337006 0.623352
0.733734 0.340515 0.626862
0.873108 0.346466 0.632812
0.998047 0.353638 0.639984
0.000000 0.505615 0.640289
0.095551 0.499725 0.634399
0.272064 0.494934 0.629608
0.441254 0.493408 0.628052
0.597717 0.496277 0.630920
0.743835 0.502319 0.636993
0.884949 0.510010 0.644653
0.999176 0.520996 0.655640
0.000000 0.662872 0.645874
0.104248 0.660065 0.643066
0.282806 0.657349 0.640350
0.454132 0.657928 0.640930
0.616028 0.666260 0.649261
0.773651 0.684021 0.667114
0.922180 0.706940 0.690918
1.000000 0.731110 0.716644
0.000000 0.828674 0.660004
0.125824 0.833313 0.664642
0.321045 0.843048 0.675781
0.518005 0.851776 0.693695
0.687836 0.858215 0.716248
0.819702 0.864685 0.742126
0.917358 0.873779 0.772095
0.984924 0.886566 0.805969
0.062958 0.997925 0.717346
0.300201 0.991211 0.733643
0.508270 0.972534 0.753265
0.675171 0.959137 0.779938
0.799347 0.953308 0.813995
0.886749 0.954468 0.852966
0.944702 0.961517 0.894257
0.978851 0.972504 0.933838
