assets/configs/ColorAnd3dLutPreset/CubeLUTFiles/Warm Film.CUBE
#Created by: Adobe Photoshop Export Color Lookup Plugin
#Copyright: (C) Copyright 2016 Wondershare Inc.
TITLE "Warm Film"
#LUT size
LUT_3D_SIZE 5
#data domain
#LUT data points
DOMAIN_MIN 0.000000 0.000000 0.000000
DOMAIN_MAX 0.903226 0.903226 0.903226
0.083313 0.076813 0.125092
0.212433 0.072662 0.138428
0.381378 0.056000 0.137970
0.569916 0.033722 0.130798
0.784271 0.006348 0.117889
0.045319 0.202087 0.133942
0.238251 0.184265 0.106506
0.465057 0.162903 0.075806
0.705231 0.147461 0.051575
0.958496 0.137238 0.034729
0.000000 0.401062 0.055084
0.200439 0.388947 0.023987
0.482361 0.379639 0.008606
0.734375 0.383209 0.012054
0.976929 0.394104 0.022949
0.000000 0.663452 0.026886
0.199829 0.657013 0.020416
0.494537 0.657196 0.020630
0.756836 0.671112 0.034546
0.997864 0.704926 0.076294
0.000000 0.957367 0.055389
0.274963 0.968079 0.103058
0.617706 0.954010 0.245911
0.840302 0.942657 0.429382
0.963531 0.945129 0.627106
0.089600 0.082336 0.167328
0.226288 0.074860 0.187012
0.401062 0.055511 0.192505
0.594391 0.031555 0.191864
0.814484 0.003143 0.186188
0.043671 0.207794 0.198090
0.244720 0.188568 0.177551
0.479889 0.167084 0.154846
0.725769 0.152954 0.139648
0.977722 0.144714 0.130737
0.000000 0.412811 0.146362
0.209747 0.400055 0.122559
0.494263 0.391479 0.111938
0.747711 0.396515 0.116974
0.991089 0.408234 0.128662
0.000000 0.677063 0.132080
0.214233 0.671417 0.126404
0.509155 0.671814 0.126831
0.776459 0.690704 0.145721
1.000000 0.728516 0.205994
0.000000 0.979889 0.169586
0.321106 0.979095 0.241364
0.650970 0.957397 0.377747
0.857727 0.946777 0.545685
0.967041 0.952087 0.720123
0.094391 0.086304 0.231903
0.237610 0.074921 0.261017
0.417877 0.052795 0.276367
0.616272 0.027039 0.286255
0.841461 0.000183 0.291595
0.039642 0.210999 0.296844
0.248749 0.190430 0.287201
0.492065 0.168915 0.276398
0.741821 0.155884 0.272308
0.991425 0.149963 0.271576
0.000000 0.421234 0.282654
0.216614 0.407867 0.265411
0.503387 0.400604 0.257782
0.757812 0.406647 0.263855
0.997040 0.419312 0.276489
0.000000 0.687653 0.279419
0.225311 0.682495 0.274231
0.521729 0.684387 0.276123
0.794861 0.709290 0.301697
1.000000 0.747986 0.375275
0.000000 0.995331 0.330719
0.366699 0.982239 0.408508
0.682404 0.957642 0.524780
0.873260 0.949524 0.664032
0.970459 0.958740 0.807648
0.096985 0.088165 0.317596
0.246490 0.073029 0.359344
0.432312 0.048126 0.387573
0.635559 0.020477 0.410980
0.866821 0.000000 0.430847
0.033630 0.212128 0.427155
0.250793 0.190338 0.431580
0.501862 0.168976 0.435089
0.753845 0.157013 0.442047
0.996948 0.153778 0.447601
0.000000 0.426788 0.455322
0.221771 0.413452 0.442535
0.510162 0.407410 0.436493
0.765778 0.414612 0.443726
0.997833 0.427704 0.456818
0.000000 0.695892 0.459534
0.233856 0.691040 0.454712
0.532898 0.695557 0.459229
0.810272 0.725861 0.493256
1.000000 0.763947 0.561798
0.012543 0.996887 0.524933
0.413666 0.980591 0.587036
0.712006 0.956238 0.670166
0.888580 0.952240 0.774658
0.974182 0.965302 0.880249
0.098267 0.088715 0.417480
0.253937 0.070007 0.471985
0.445404 0.042480 0.513824
0.654236 0.013153 0.551941
0.890808 0.000000 0.586945
0.026825 0.212433 0.573944
0.252411 0.189819 0.593445
0.510681 0.168823 0.610565
0.763641 0.158234 0.625488
0.997650 0.158081 0.633972
0.000000 0.431671 0.640564
0.226959 0.418701 0.629242
0.516785 0.414001 0.624542
0.773224 0.422058 0.632599
0.998566 0.435577 0.646118
0.000000 0.703583 0.648651
0.241821 0.699005 0.644104
0.545868 0.708527 0.653625
0.824493 0.742432 0.690277
1.000000 0.778595 0.735748
0.062958 0.997925 0.717346
0.459717 0.976868 0.747711
0.742401 0.955261 0.796143
0.903839 0.955780 0.863342
0.978851 0.972504 0.933838
