assets/configs/ColorAnd3dLutPreset/CubeLUTFiles/Warm Film.CUBE
#Created by: Adobe Photoshop Export Color Lookup Plugin
#Copyright: (C) Copyright 2016 Wondershare Inc.
TITLE "Warm Film"
#LUT size
LUT_3D_SIZE 32
#data domain
DOMAIN_MIN 0.0 0.0 0.0
DOMAIN_MAX 1.0 1.0 1.0
#LUT data points
0.083313 0.076813 0.125092
0.097992 0.076965 0.127594
0.114349 0.077148 0.130402
0.131805 0.076935 0.132751
0.150482 0.076355 0.134735
0.170197 0.075439 0.136353
0.190857 0.074158 0.137543
0.212433 0.072662 0.138428
0.234863 0.070862 0.139038
0.257965 0.068787 0.139343
0.281677 0.066528 0.139404
0.305878 0.064087 0.139252
0.330627 0.061493 0.138947
0.355865 0.058807 0.138550
0.381378 0.056000 0.137970
0.407104 0.053101 0.137238
0.433167 0.050110 0.136444
0.459534 0.046997 0.135498
0.486542 0.043854 0.134521
0.513947 0.040588 0.133423
0.541687 0.037201 0.132172
0.569916 0.033722 0.130798
0.598572 0.030151 0.129272
0.627747 0.026489 0.127655
0.657959 0.022705 0.126007
0.688629 0.018829 0.124207
0.719849 0.014801 0.122253
0.751648 0.010651 0.120148
0.784271 0.006348 0.117889
0.818359 0.001953 0.115601
0.852936 0.000061 0.113129
0.887573 0.000000 0.110687
0.086212 0.092072 0.135254
0.102753 0.092224 0.137390
0.120361 0.091888 0.138977
0.139038 0.091156 0.140076
0.158844 0.090088 0.140839
0.179688 0.088715 0.141266
0.201599 0.087097 0.141449
0.224396 0.085175 0.141357
0.247803 0.082977 0.140900
0.271881 0.080566 0.140228
0.296570 0.078033 0.139343
0.321869 0.075317 0.138367
0.347687 0.072540 0.137299
0.373657 0.069611 0.136047
0.399933 0.066620 0.134674
0.426422 0.063568 0.133240
0.453400 0.060455 0.131775
0.480835 0.057312 0.130249
0.508514 0.054077 0.128632
0.536530 0.050720 0.126862
0.564941 0.047302 0.125031
0.593964 0.043823 0.123138
0.623779 0.040283 0.121185
0.654083 0.036652 0.119141
0.684753 0.032867 0.116943
0.716034 0.029022 0.114624
0.748169 0.025085 0.112244
0.781158 0.021057 0.109772
0.815277 0.016937 0.107239
0.849731 0.012634 0.104492
0.885071 0.008270 0.101654
0.920868 0.003998 0.098938
0.086243 0.108490 0.142609
0.103912 0.108032 0.143372
0.122803 0.107208 0.143768
0.142761 0.106079 0.143890
0.163818 0.104614 0.143646
0.186005 0.102905 0.143158
0.208984 0.100861 0.142303
0.232788 0.098572 0.141174
0.257385 0.096100 0.139862
0.282623 0.093445 0.138336
0.308502 0.090637 0.136719
0.334839 0.087738 0.134979
0.361420 0.084717 0.133057
0.388367 0.081665 0.131104
0.415649 0.078522 0.129089
0.443176 0.075378 0.127045
0.471069 0.072205 0.125000
0.499237 0.068970 0.122864
0.527740 0.065704 0.120667
0.556732 0.062378 0.118408
0.586151 0.058960 0.116089
0.616150 0.055542 0.113739
0.646729 0.052032 0.111328
0.677887 0.048462 0.108826
0.709686 0.044830 0.106293
0.741974 0.041107 0.103638
0.774933 0.037323 0.100891
0.809235 0.033508 0.098145
0.844238 0.029572 0.095306
0.879974 0.025543 0.092346
0.916290 0.021454 0.089264
0.952850 0.017456 0.086334
0.083038 0.125397 0.146301
0.101990 0.124542 0.146088
0.122131 0.123322 0.145477
0.143402 0.121765 0.144592
0.165802 0.120056 0.143524
0.189117 0.117950 0.142059
0.213318 0.115601 0.140350
0.238373 0.113068 0.138397
0.264099 0.110321 0.136261
0.290527 0.107422 0.134033
0.317566 0.104462 0.131683
0.344940 0.101379 0.129211
0.372650 0.098236 0.126648
0.400635 0.095032 0.124054
0.428986 0.091827 0.121460
0.457642 0.088684 0.118896
0.486450 0.085480 0.116302
0.515533 0.082214 0.113647
0.544952 0.078949 0.110931
0.574951 0.075653 0.108276
0.605621 0.072388 0.105591
0.636688 0.069061 0.102844
0.668091 0.065674 0.100037
0.700073 0.062225 0.097168
0.732849 0.058777 0.094330
0.766632 0.055359 0.091492
0.801056 0.051880 0.088593
0.835938 0.048279 0.085571
0.871704 0.044647 0.082520
0.908569 0.041016 0.079468
0.946472 0.037415 0.076416
0.983612 0.034027 0.073608
0.077057 0.143036 0.146912
0.097290 0.141846 0.145813
0.118805 0.140411 0.144470
0.141357 0.138550 0.142731
0.165009 0.136414 0.140686
0.189545 0.134033 0.138397
0.215027 0.131439 0.135925
0.241364 0.128693 0.133270
0.268524 0.125824 0.130524
0.296112 0.122772 0.127563
0.324188 0.119598 0.124512
0.352692 0.116364 0.121399
0.381622 0.113159 0.118286
0.410889 0.109924 0.115173
0.440399 0.106720 0.112061
0.469879 0.103516 0.108948
0.499725 0.100311 0.105865
0.530029 0.097168 0.102844
0.560669 0.094025 0.099792
0.591766 0.090881 0.096771
0.623260 0.087738 0.093689
0.655334 0.084595 0.090668
0.688049 0.081451 0.087646
0.721313 0.078308 0.084595
0.755157 0.075165 0.081543
0.789856 0.072052 0.078552
0.825348 0.068970 0.075592
0.861603 0.065887 0.072601
0.898499 0.062775 0.069580
0.935974 0.059662 0.066528
0.974792 0.056671 0.063660
1.000000 0.053894 0.061005
0.068604 0.161621 0.144867
0.090210 0.160187 0.143036
0.112946 0.158386 0.140808
0.136810 0.156281 0.138306
0.161774 0.153931 0.135559
0.187714 0.151367 0.132568
0.214508 0.148560 0.129395
0.242218 0.145691 0.126129
0.270508 0.142609 0.122681
0.299408 0.139435 0.119110
0.328857 0.136230 0.115509
0.358612 0.132935 0.111847
0.388702 0.129669 0.108215
0.419250 0.126495 0.104645
0.449890 0.123322 0.101105
0.480652 0.120209 0.097595
0.511627 0.117126 0.094147
0.543030 0.114136 0.090759
0.575012 0.111206 0.087463
0.607300 0.108307 0.084198
0.639893 0.105408 0.080933
0.672943 0.102539 0.077667
0.706787 0.099762 0.074524
0.741516 0.097107 0.071503
0.776703 0.094482 0.068512
0.812164 0.091827 0.065521
0.848236 0.089203 0.062531
0.885101 0.086670 0.059692
0.922974 0.084290 0.056946
0.961334 0.081940 0.054291
0.996918 0.079498 0.051575
1.000000 0.077332 0.049133
0.057983 0.181305 0.140533
0.080872 0.179565 0.137878
0.104950 0.177551 0.134979
0.130127 0.175262 0.131775
0.156433 0.172699 0.128357
0.183838 0.170074 0.124786
0.212097 0.167175 0.121033
0.241058 0.164154 0.117126
0.270691 0.160950 0.113068
0.300903 0.157715 0.108978
0.331696 0.154510 0.104889
0.363037 0.151367 0.100861
0.394470 0.148163 0.096802
0.426056 0.144958 0.092773
0.457855 0.141876 0.088837
0.489990 0.139008 0.085083
0.522491 0.136200 0.081421
0.555176 0.133484 0.077850
0.588043 0.130768 0.074310
0.621429 0.128204 0.070923
0.655487 0.125793 0.067657
0.689911 0.123444 0.064484
0.724823 0.121155 0.061401
0.760101 0.118958 0.058411
0.795898 0.116852 0.055542
0.832245 0.114838 0.052826
0.868958 0.112915 0.050201
0.905914 0.111023 0.047607
0.943451 0.109192 0.045197
0.981110 0.107391 0.042816
0.999390 0.105652 0.040527
1.000000 0.104187 0.038574
0.045319 0.202087 0.133942
0.069550 0.200165 0.130676
0.095001 0.198029 0.127136
0.121613 0.195648 0.123383
0.149384 0.193115 0.119446
0.178131 0.190277 0.115265
0.207733 0.187286 0.110901
0.238251 0.184265 0.106506
0.269409 0.181152 0.102051
0.301056 0.177948 0.097504
0.333282 0.174805 0.093018
0.365814 0.171661 0.088562
0.398712 0.168640 0.084198
0.431885 0.165771 0.079956
0.465057 0.162903 0.075806
0.498383 0.160248 0.071838
0.532196 0.157837 0.068115
0.566193 0.155518 0.064514
0.600433 0.153320 0.061035
0.634918 0.151184 0.057678
0.669861 0.149261 0.054535
0.705231 0.147461 0.051575
0.740814 0.145782 0.048737
0.776550 0.144135 0.046021
0.812439 0.142548 0.043427
0.848633 0.141083 0.041016
0.885254 0.139832 0.038849
0.921814 0.138550 0.036774
0.958496 0.137238 0.034729
0.994110 0.136047 0.032867
0.999847 0.134979 0.031219
1.000000 0.134369 0.030060
0.030884 0.224335 0.125580
0.056519 0.222321 0.121704
0.083405 0.220093 0.117615
0.111511 0.217743 0.113403
0.140717 0.215088 0.108917
0.170959 0.212311 0.104279
0.202087 0.209351 0.099487
0.234039 0.206299 0.094635
0.266785 0.203339 0.089813
0.300140 0.200378 0.085022
0.333862 0.197388 0.080231
0.367798 0.194427 0.075500
0.402069 0.191620 0.070953
0.436707 0.189056 0.066589
0.471619 0.186737 0.062500
0.506348 0.184540 0.058594
0.541046 0.182404 0.054810
0.575958 0.180481 0.051300
0.611267 0.178833 0.048035
0.646759 0.177338 0.045013
0.682312 0.175934 0.042175
0.717743 0.174530 0.039459
0.753296 0.173279 0.036926
0.789032 0.172211 0.034698
0.824738 0.171173 0.032593
0.860596 0.170349 0.030792
0.896332 0.169556 0.029114
0.932129 0.168854 0.027649
0.968018 0.168274 0.026398
0.998077 0.167847 0.025421
1.000000 0.167480 0.024628
1.000000 0.167633 0.024445
0.014923 0.248138 0.115540
0.042023 0.246246 0.111267
0.070465 0.244110 0.106781
0.100006 0.241638 0.102051
0.130737 0.239014 0.097107
0.162567 0.236328 0.092133
0.195404 0.233612 0.087097
0.229065 0.230835 0.082001
0.263336 0.227966 0.076904
0.298157 0.225128 0.071838
0.333527 0.222504 0.066956
0.369263 0.220032 0.062256
0.405029 0.217590 0.057709
0.440948 0.215363 0.053406
0.476868 0.213348 0.049347
0.512726 0.211578 0.045624
0.548615 0.210022 0.042175
0.584290 0.208588 0.038971
0.619965 0.207275 0.036011
0.655670 0.206207 0.033356
0.691223 0.205200 0.030914
0.726654 0.204285 0.028717
0.762024 0.203552 0.026794
0.797394 0.203003 0.025177
0.832703 0.202606 0.023834
0.867798 0.202301 0.022736
0.902710 0.202087 0.021881
0.937469 0.201996 0.021301
0.972321 0.202118 0.021057
0.998413 0.202515 0.021179
1.000000 0.202881 0.021362
1.000000 0.203522 0.021973
0.002228 0.273956 0.104279
0.026367 0.272095 0.099609
0.056335 0.270020 0.094727
0.087555 0.267792 0.089722
0.119995 0.265381 0.084564
0.153473 0.262817 0.079315
0.188019 0.260376 0.074097
0.223389 0.257874 0.068878
0.259430 0.255371 0.063782
0.295929 0.252899 0.058716
0.332764 0.250488 0.053833
0.369843 0.248322 0.049225
0.407135 0.246399 0.044952
0.444214 0.244537 0.040863
0.480988 0.242798 0.037079
0.517456 0.241333 0.033630
0.553802 0.240143 0.030609
0.589996 0.239136 0.027893
0.625854 0.238251 0.025482
0.661377 0.237457 0.023315
0.696716 0.236847 0.021484
0.731995 0.236511 0.020111
0.767059 0.236359 0.019043
0.801849 0.236328 0.018280
0.836304 0.236389 0.017822
0.870544 0.236633 0.017639
0.904755 0.237122 0.017853
0.938812 0.237701 0.018280
0.972961 0.238464 0.018982
0.998474 0.239197 0.019714
1.000000 0.239960 0.020508
1.000000 0.241028 0.021545
0.000000 0.302094 0.092133
0.010437 0.300323 0.087158
0.041595 0.298340 0.082031
0.074585 0.296326 0.076843
0.108856 0.294342 0.071655
0.144257 0.292236 0.066437
0.180450 0.289917 0.061157
0.217438 0.287567 0.055939
0.255096 0.285370 0.050934
0.293213 0.283264 0.046112
0.331512 0.281250 0.041504
0.369781 0.279297 0.037170
0.407806 0.277435 0.033081
0.445679 0.275848 0.029419
0.483246 0.274536 0.026184
0.520172 0.273346 0.023285
0.556763 0.272430 0.020813
0.592957 0.271729 0.018738
0.628784 0.271240 0.017059
0.664276 0.270966 0.015808
0.699371 0.270844 0.014923
0.734161 0.270966 0.014465
0.768677 0.271301 0.014374
0.802887 0.271759 0.014557
0.836823 0.272339 0.015015
0.870605 0.273132 0.015747
0.904480 0.274109 0.016693
0.938477 0.275116 0.017731
0.972687 0.276093 0.018707
0.998444 0.277100 0.019714
1.000000 0.278107 0.020721
1.000000 0.279480 0.022095
0.000000 0.332550 0.079407
0.000519 0.331146 0.074432
0.026917 0.329590 0.069366
0.061737 0.327759 0.064148
0.097839 0.325958 0.058990
0.134949 0.323975 0.053833
0.172943 0.321930 0.048767
0.211578 0.319885 0.043823
0.250610 0.317749 0.039032
0.289978 0.315826 0.034576
0.329346 0.313873 0.030334
0.368530 0.312103 0.026459
0.407349 0.310486 0.022949
0.445801 0.309113 0.019897
0.483734 0.308014 0.017303
0.521118 0.307281 0.015259
0.557800 0.306702 0.013641
0.593872 0.306274 0.012451
0.629486 0.306152 0.011719
0.664795 0.306335 0.011505
0.699738 0.306763 0.011627
0.734253 0.307312 0.012024
0.768372 0.307922 0.012634
0.802368 0.308746 0.013428
0.836487 0.309814 0.014526
0.870544 0.310974 0.015656
0.904633 0.312164 0.016876
0.938812 0.313354 0.018066
0.973236 0.314575 0.019257
0.998444 0.315918 0.020599
1.000000 0.317261 0.021973
1.000000 0.318909 0.023621
0.000000 0.365692 0.066864
0.000092 0.364471 0.061981
0.012848 0.363220 0.057098
0.049561 0.361603 0.052124
0.087402 0.359741 0.047119
0.126129 0.357727 0.042175
0.165619 0.355713 0.037415
0.205688 0.353760 0.032898
0.246094 0.351868 0.028687
0.286407 0.349884 0.024658
0.326599 0.347992 0.020996
0.366638 0.346466 0.017883
0.406128 0.345123 0.015228
0.445038 0.343994 0.013062
0.483246 0.343201 0.011444
0.520569 0.342621 0.010254
0.557343 0.342377 0.009583
0.593597 0.342529 0.009430
0.629181 0.342743 0.009552
0.664368 0.343231 0.010010
0.699249 0.343933 0.010712
0.733856 0.344788 0.011566
0.768311 0.345795 0.012573
0.802673 0.346954 0.013763
0.837006 0.348267 0.015045
0.871277 0.349640 0.016418
0.905579 0.351044 0.017822
0.940002 0.352478 0.019257
0.974701 0.353943 0.020721
0.998535 0.355560 0.022339
1.000000 0.357147 0.023956
1.000000 0.358887 0.025696
0.000000 0.401062 0.055084
0.000000 0.399902 0.050446
0.003387 0.398376 0.045685
0.038391 0.396637 0.041046
0.077911 0.394836 0.036499
0.118286 0.392914 0.032104
0.159119 0.390869 0.027863
0.200439 0.388947 0.023987
0.241821 0.386993 0.020386
0.283112 0.385162 0.017212
0.324188 0.383575 0.014557
0.364716 0.382111 0.012299
0.404724 0.381042 0.010681
0.443939 0.380188 0.009399
0.482361 0.379639 0.008606
0.519867 0.379333 0.008209
0.556793 0.379486 0.008362
0.593079 0.379822 0.008667
0.629059 0.380493 0.009369
0.664459 0.381226 0.010101
0.699524 0.382111 0.010986
0.734375 0.383209 0.012054
0.769165 0.384552 0.013428
0.803833 0.386017 0.014893
0.838348 0.387543 0.016388
0.872772 0.389038 0.017883
0.907257 0.390625 0.019470
0.942017 0.392395 0.021271
0.976929 0.394104 0.022949
0.998657 0.395844 0.024689
1.000000 0.397461 0.026337
1.000000 0.399323 0.028198
0.000000 0.437500 0.044373
0.000000 0.436127 0.040100
0.001343 0.434509 0.035858
0.028992 0.432678 0.031738
0.070099 0.430817 0.027863
0.111938 0.428986 0.024292
0.154114 0.427002 0.020905
0.196411 0.424988 0.017853
0.238647 0.423065 0.015167
0.280762 0.421417 0.013000
0.322418 0.420013 0.011200
0.363556 0.418915 0.009918
0.403748 0.417938 0.008881
0.443176 0.417297 0.008240
0.481964 0.417114 0.008057
0.519806 0.417206 0.008179
0.556946 0.417542 0.008484
0.593567 0.418213 0.009186
0.629608 0.418976 0.009918
0.665283 0.419983 0.010925
0.700806 0.421295 0.012268
0.735870 0.422607 0.013580
0.770813 0.424103 0.015045
0.805603 0.425720 0.016693
0.840271 0.427368 0.018341
0.874908 0.429108 0.020050
0.909729 0.431000 0.021942
0.944611 0.432892 0.023834
0.979614 0.434692 0.025635
0.998810 0.436462 0.027435
1.000000 0.438202 0.029175
1.000000 0.440186 0.031158
0.000000 0.474457 0.035400
0.000000 0.472900 0.031738
0.001038 0.471252 0.028351
0.022339 0.469452 0.025177
0.064880 0.467529 0.022186
0.107849 0.465515 0.019470
0.151001 0.463501 0.016998
0.194214 0.461700 0.014893
0.237213 0.460083 0.013092
0.279724 0.458557 0.011536
0.321808 0.457397 0.010406
0.363129 0.456451 0.009430
0.403687 0.455811 0.008820
0.443512 0.455566 0.008545
0.482422 0.455536 0.008545
0.520599 0.455933 0.008942
0.558014 0.456573 0.009552
0.594788 0.457397 0.010376
0.631042 0.458374 0.011383
0.667053 0.459717 0.012726
0.702637 0.461090 0.014099
0.738037 0.462738 0.015747
0.773102 0.464355 0.017365
0.807983 0.466034 0.019043
0.842773 0.467804 0.020813
0.877716 0.469818 0.022827
0.912598 0.471802 0.024811
0.947510 0.473755 0.026733
0.982574 0.475586 0.028595
0.998993 0.477417 0.030426
1.000000 0.479370 0.032410
1.000000 0.481415 0.034424
0.000000 0.511597 0.029083
0.000000 0.509918 0.026398
0.000885 0.508179 0.024048
0.018921 0.506348 0.021790
0.062439 0.504425 0.019623
0.106171 0.502533 0.017609
0.149933 0.500702 0.015778
0.193604 0.499115 0.014191
0.237000 0.497803 0.012878
0.279907 0.496613 0.011719
0.322113 0.495605 0.010712
0.363647 0.494873 0.009979
0.404541 0.494598 0.009674
0.444580 0.494537 0.009644
0.483856 0.494873 0.009949
0.522125 0.495392 0.010468
0.559692 0.496155 0.011230
0.596771 0.497284 0.012360
0.633301 0.498535 0.013641
0.669373 0.499939 0.015015
0.705170 0.501556 0.016632
0.740570 0.503174 0.018250
0.775757 0.504913 0.020020
0.810913 0.506897 0.022003
0.845856 0.508820 0.023895
0.880768 0.510803 0.025879
0.915649 0.512787 0.027893
0.950562 0.514709 0.029785
0.985657 0.516602 0.031677
0.999176 0.518616 0.033722
1.000000 0.520660 0.035736
1.000000 0.522949 0.038025
0.000000 0.548706 0.026123
0.000000 0.547089 0.024292
0.000885 0.545380 0.022552
0.017914 0.543610 0.020782
0.061890 0.541870 0.019043
0.106049 0.540314 0.017487
0.150208 0.538879 0.016052
0.194122 0.537537 0.014709
0.237671 0.536377 0.013550
0.280731 0.535370 0.012543
0.323273 0.534698 0.011871
0.365173 0.534302 0.011475
0.406189 0.534149 0.011292
0.446472 0.534332 0.011505
0.485809 0.534760 0.011932
0.524292 0.535461 0.012634
0.562103 0.536499 0.013672
0.599304 0.537720 0.014893
0.635986 0.539124 0.016296
0.672180 0.540649 0.017822
0.708008 0.542297 0.019470
0.743469 0.544006 0.021179
0.778870 0.545959 0.023132
0.814026 0.547943 0.025085
0.849060 0.549927 0.027100
0.883911 0.551880 0.029053
0.918762 0.553833 0.031006
0.953827 0.555908 0.033081
0.989563 0.558411 0.035583
0.999390 0.561066 0.038239
1.000000 0.563812 0.040985
1.000000 0.566925 0.044098
0.000000 0.586151 0.025421
0.000000 0.584686 0.023926
0.000916 0.583221 0.022461
0.018127 0.581757 0.020996
0.062408 0.580322 0.019592
0.106873 0.579071 0.018311
0.151276 0.577881 0.017120
0.195374 0.576721 0.015991
0.239136 0.575745 0.015015
0.282410 0.574982 0.014221
0.325195 0.574524 0.013763
0.367279 0.574341 0.013611
0.408508 0.574402 0.013672
0.448853 0.574646 0.013916
0.488312 0.575165 0.014435
0.527039 0.576141 0.015381
0.564941 0.577240 0.016510
0.602234 0.578583 0.017822
0.638977 0.580017 0.019287
0.675201 0.581573 0.020844
0.711121 0.583344 0.022614
0.746765 0.585205 0.024475
0.782043 0.587067 0.026306
0.817261 0.589081 0.028351
0.852478 0.591278 0.030518
0.887878 0.593750 0.033020
0.923706 0.596680 0.035950
0.959686 0.599670 0.038910
0.994537 0.602905 0.042175
0.999664 0.606598 0.045837
1.000000 0.610779 0.050049
1.000000 0.615540 0.054810
0.000000 0.624420 0.025757
0.000000 0.623169 0.024506
0.001007 0.621948 0.023285
0.019379 0.620880 0.022217
0.063873 0.619690 0.021027
0.108521 0.618591 0.019958
0.152985 0.617493 0.018829
0.197266 0.616547 0.017883
0.241302 0.615845 0.017181
0.284882 0.615326 0.016693
0.327728 0.614990 0.016327
0.369904 0.614868 0.016235
0.411163 0.614960 0.016327
0.451660 0.615387 0.016724
0.491394 0.616119 0.017487
0.530060 0.617065 0.018402
0.568085 0.618286 0.019623
0.605347 0.619598 0.020935
0.642059 0.621033 0.022369
0.678406 0.622681 0.024048
0.714478 0.624603 0.025940
0.750458 0.626801 0.028168
0.786469 0.629395 0.030731
0.822449 0.632172 0.033539
0.858459 0.635162 0.036499
0.894897 0.638672 0.040009
0.931885 0.642792 0.044128
0.969482 0.647369 0.048706
0.996796 0.652222 0.053558
1.000000 0.657257 0.059082
1.000000 0.662598 0.066284
1.000000 0.668732 0.075775
0.000000 0.663452 0.026886
0.000000 0.662476 0.025909
0.001129 0.661652 0.025085
0.021271 0.660706 0.024139
0.065918 0.659668 0.023102
0.110657 0.658691 0.022095
0.155334 0.657745 0.021179
0.199829 0.657013 0.020416
0.244049 0.656494 0.019897
0.287689 0.656067 0.019501
0.330627 0.655792 0.019226
0.372833 0.655731 0.019135
0.414185 0.655914 0.019318
0.454834 0.656433 0.019867
0.494537 0.657196 0.020630
0.533264 0.658203 0.021637
0.571228 0.659332 0.022766
0.608643 0.660797 0.024231
0.646057 0.662933 0.026367
0.683167 0.665375 0.028809
0.720093 0.668121 0.031555
0.756836 0.671112 0.034546
0.793701 0.674530 0.037964
0.831116 0.678772 0.042206
0.869049 0.683685 0.047119
0.906982 0.688690 0.052185
0.944733 0.693970 0.058533
0.981934 0.699371 0.066589
0.997864 0.704926 0.076294
1.000000 0.710724 0.088104
1.000000 0.716705 0.102356
1.000000 0.722992 0.119141
0.000000 0.703217 0.028717
0.000000 0.702637 0.028168
0.001312 0.701904 0.027405
0.023682 0.701019 0.026520
0.068451 0.700104 0.025635
0.113342 0.699280 0.024780
0.158295 0.698639 0.024170
0.202850 0.697937 0.023468
0.247101 0.697449 0.022949
0.290710 0.697021 0.022522
0.333679 0.696747 0.022278
0.376038 0.696838 0.022339
0.417511 0.697144 0.022644
0.458069 0.697632 0.023132
0.498016 0.698578 0.024109
0.537231 0.700073 0.025604
0.576080 0.702118 0.027649
0.614655 0.704712 0.030212
0.652740 0.707520 0.033051
0.690887 0.711029 0.036530
0.729248 0.715210 0.040710
0.767792 0.719971 0.045471
0.806274 0.725037 0.050842
0.844452 0.730347 0.058044
0.881897 0.735626 0.066925
0.918640 0.741089 0.077576
0.954315 0.746521 0.090179
0.988586 0.752075 0.105255
0.999115 0.757629 0.122803
1.000000 0.762909 0.141968
1.000000 0.767761 0.161774
1.000000 0.772675 0.182983
0.000000 0.743835 0.031433
0.000000 0.743225 0.030823
0.001495 0.742493 0.030090
0.026459 0.741730 0.029327
0.071381 0.740967 0.028564
0.116516 0.740356 0.027954
0.161438 0.739685 0.027313
0.206024 0.739014 0.026611
0.250183 0.738464 0.026062
0.293823 0.738037 0.025635
0.336975 0.737976 0.025574
0.379639 0.738373 0.025970
0.421783 0.739319 0.026917
0.463287 0.740753 0.028351
0.504089 0.742584 0.030182
0.544220 0.744965 0.032562
0.584381 0.748322 0.035919
0.624420 0.752411 0.040009
0.664337 0.757050 0.044647
0.703857 0.761841 0.050140
0.742920 0.766663 0.057465
0.781677 0.771881 0.067383
0.819366 0.776855 0.078979
0.856018 0.781921 0.092743
0.891449 0.787018 0.108917
0.924988 0.791748 0.126923
0.956512 0.796112 0.146149
0.986084 0.800354 0.166901
0.999420 0.804321 0.188690
1.000000 0.808380 0.212250
1.000000 0.812195 0.236206
1.000000 0.815857 0.260254
0.000000 0.784668 0.034363
0.000000 0.784088 0.033783
0.001678 0.783417 0.033112
0.029572 0.782745 0.032410
0.074707 0.782166 0.031860
0.119720 0.781464 0.031158
0.164581 0.780762 0.030426
0.209229 0.780151 0.029846
0.253876 0.780060 0.029755
0.298462 0.780579 0.030273
0.342590 0.781494 0.031158
0.386169 0.782806 0.032471
0.429138 0.784607 0.034271
0.471893 0.787231 0.036926
0.514526 0.790955 0.040619
0.556580 0.795227 0.044983
0.598022 0.799591 0.050507
0.639099 0.804047 0.058197
0.679474 0.808411 0.067963
0.719025 0.812775 0.079926
0.757874 0.817352 0.094971
0.795135 0.821594 0.112152
0.830566 0.825500 0.131042
0.863831 0.828827 0.150696
0.895050 0.831848 0.171387
0.924622 0.835052 0.193909
0.952301 0.838409 0.218719
0.977661 0.841278 0.243042
0.998932 0.843872 0.267151
1.000000 0.846436 0.291626
1.000000 0.849213 0.317200
1.000000 0.852295 0.343750
0.000000 0.825653 0.037415
0.000000 0.825104 0.036865
0.001892 0.824585 0.036346
0.032928 0.824005 0.035767
0.078064 0.823456 0.035217
0.123505 0.823181 0.034943
0.169250 0.823334 0.035095
0.215057 0.823914 0.035675
0.260803 0.824890 0.036652
0.306335 0.826385 0.038147
0.351776 0.828583 0.040344
0.397003 0.831573 0.043335
0.441803 0.835052 0.047058
0.486359 0.838806 0.052521
0.530548 0.842529 0.060303
0.573883 0.846161 0.070404
0.616272 0.849640 0.082764
0.657654 0.852997 0.097839
0.697662 0.856140 0.115387
0.736023 0.859039 0.135132
0.772003 0.861328 0.155304
0.806000 0.863403 0.176727
0.838104 0.865479 0.199921
0.868134 0.867493 0.224274
0.896057 0.869446 0.249573
0.921600 0.870972 0.273804
0.945374 0.872620 0.298737
0.967316 0.874573 0.325043
0.987335 0.876526 0.351532
1.000000 0.878479 0.377838
1.000000 0.880737 0.405090
1.000000 0.883209 0.432190
0.000000 0.866699 0.040558
0.000000 0.866455 0.040314
0.002228 0.866638 0.040497
0.037994 0.867004 0.040863
0.084198 0.867523 0.041351
0.130646 0.868225 0.042084
0.177521 0.869507 0.043365
0.224976 0.871735 0.045593
0.272400 0.874390 0.048248
0.319702 0.877350 0.051666
0.367157 0.880188 0.056824
0.414734 0.882812 0.064484
0.462067 0.885376 0.074738
0.508606 0.887634 0.087433
0.554108 0.889740 0.102936
0.597961 0.891510 0.120789
0.639679 0.892853 0.140045
0.679199 0.893860 0.160645
0.716705 0.894775 0.182678
0.752167 0.895599 0.206268
0.785492 0.896393 0.230927
0.816254 0.896912 0.255341
0.844727 0.897369 0.279785
0.871460 0.898102 0.305908
0.896149 0.898956 0.332581
0.918823 0.899933 0.359528
0.939453 0.900909 0.386017
0.958374 0.902069 0.412598
0.975586 0.903534 0.439972
0.990692 0.905426 0.468872
1.000000 0.907379 0.496765
1.000000 0.909607 0.524353
0.000000 0.910309 0.046234
0.000000 0.911133 0.047058
0.002777 0.912109 0.048035
0.046600 0.913544 0.049469
0.094391 0.915619 0.051544
0.142853 0.918335 0.054321
0.191925 0.921173 0.057922
0.241852 0.923401 0.063354
0.292480 0.925049 0.071045
0.343292 0.926239 0.081085
0.394104 0.927155 0.093964
0.444580 0.927795 0.110016
0.493500 0.928009 0.128174
0.539917 0.927643 0.147308
0.583801 0.926971 0.167389
0.625458 0.926270 0.189178
