assets/resources/wfx_effect/nle_default/BaseFilter/PQDCICube/Data/HDR_PQDCI.cube
#Copyright: (C)Copyright 2024 Wondershare Inc.
#Created by: BIAOZHOU.
LUT_3D_SIZE 8
DOMAIN_MIN 0.000000 0.000000 0.000000
DOMAIN_MAX 0.903226 0.903226 0.903226
0.000000 0.000000 0.000000
0.105230 0.000000 0.008477
0.243577 0.000000 0.019623
0.441357 0.000000 0.035556
0.694340 0.000000 0.055936
0.946651 0.000000 0.076262
1.117870 0.000000 0.090056
1.197559 0.000000 0.096476
0.000000 0.094184 0.000000
0.093698 0.091980 0.000000
0.240793 0.070349 0.000000
0.440292 0.000000 0.031601
0.693858 0.000000 0.054424
0.946428 0.000000 0.075671
1.117779 0.000000 0.089843
1.197527 0.000000 0.096406
0.000000 0.217987 0.000000
0.000000 0.217416 0.000000
0.216785 0.212812 0.000000
0.431765 0.187930 0.000000
0.690049 0.000000 0.038953
0.944668 0.000000 0.070728
1.117058 0.000000 0.088141
1.197275 0.000000 0.095855
0.000000 0.394657 0.000000
0.000000 0.394424 0.000000
0.000000 0.392581 0.000000
0.391314 0.384141 0.000000
0.673166 0.333303 0.000000
0.936967 0.170845 0.035500
1.113909 0.000000 0.080020
1.196175 0.000000 0.093390
0.000000 0.619332 0.000000
0.000000 0.619211 0.000000
0.000000 0.618259 0.000000
0.000000 0.614094 0.000000
0.608865 0.597705 0.000000
0.909207 0.476995 0.000000
1.102633 0.253510 0.000000
1.192233 0.000000 0.083598
0.000000 0.840768 0.000000
0.000000 0.840703 0.000000
0.000000 0.840191 0.000000
0.000000 0.837954 0.000000
0.241386 0.829981 0.000000
0.814884 0.799948 0.000000
1.065521 0.572509 0.000000
1.179250 0.286985 0.000000
0.000000 0.988753 0.000000
0.000000 0.988724 0.000000
0.000000 0.988494 0.000000
0.000000 0.987490 0.000000
0.000000 0.983904 0.000000
0.327584 0.972188 0.000000
0.945894 0.928557 0.000000
1.137745 0.612348 0.000000
0.000000 1.056826 0.000000
0.000000 1.056815 0.000000
0.000000 1.056732 0.000000
0.000000 1.056368 0.000000
0.000000 1.055065 0.000000
0.000000 1.050780 0.000000
0.352566 1.037152 0.000000
1.003991 0.985589 0.000000
0.000000 0.000000 0.092262
0.103426 0.000000 0.092336
0.243113 0.000000 0.092818
0.441187 0.000000 0.093775
0.694272 0.000000 0.095089
0.946626 0.000000 0.096879
1.117862 0.000000 0.098498
1.197556 0.000000 0.099375
0.000000 0.093736 0.091442
0.091515 0.091515 0.091515
0.240321 0.069633 0.092000
0.440121 0.000000 0.092996
0.693790 0.000000 0.094446
0.946403 0.000000 0.096474
1.117770 0.000000 0.098314
1.197524 0.000000 0.099309
0.000000 0.217869 0.084402
0.000000 0.217298 0.084481
0.216227 0.212692 0.085099
0.431588 0.187789 0.086468
0.689981 0.000000 0.089122
0.944643 0.000000 0.093185
1.117049 0.000000 0.096839
1.197273 0.000000 0.098783
0.000000 0.394610 0.006224
0.000000 0.394377 0.009661
0.000000 0.392533 0.019684
0.391109 0.384098 0.035552
0.673096 0.333257 0.055772
0.936942 0.170755 0.076084
1.113900 0.000000 0.089952
1.196172 0.000000 0.096434
0.000000 0.619308 0.000000
0.000000 0.619187 0.000000
0.000000 0.618234 0.000000
0.000000 0.614070 0.000000
0.608784 0.597690 0.000000
0.909180 0.476979 0.000000
1.102624 0.253488 0.052845
1.192230 0.000000 0.087192
0.000000 0.840755 0.000000
0.000000 0.840690 0.000000
0.000000 0.840178 0.000000
0.000000 0.837941 0.000000
0.241146 0.829968 0.000000
0.814854 0.799943 0.000000
1.065512 0.572504 0.000000
1.179248 0.286979 0.021042
0.000000 0.988747 0.000000
0.000000 0.988718 0.000000
0.000000 0.988488 0.000000
0.000000 0.987485 0.000000
0.000000 0.983898 0.000000
0.327516 0.972182 0.000000
0.945884 0.928555 0.000000
1.137742 0.612346 0.000000
0.000000 1.056824 0.000000
0.000000 1.056813 0.000000
0.000000 1.056730 0.000000
0.000000 1.056366 0.000000
0.000000 1.055063 0.000000
0.000000 1.050778 0.000000
0.352544 1.037150 0.000000
1.003988 0.985588 0.000000
0.000000 0.000000 0.213703
0.086960 0.000000 0.213717
0.239405 0.000000 0.213734
0.439838 0.000000 0.211159
0.693737 0.000000 0.199886
0.946424 0.000000 0.174998
1.117793 0.000000 0.143056
1.197535 0.000000 0.118614
0.000000 0.090052 0.213477
0.070166 0.087677 0.213490
0.236543 0.063519 0.213512
0.438768 0.000000 0.210929
0.693255 0.000000 0.199675
0.946201 0.000000 0.174832
1.117702 0.000000 0.142952
1.197503 0.000000 0.118564
0.000000 0.216939 0.211629
0.000000 0.216364 0.211642
0.211739 0.211739 0.211739
0.430194 0.186673 0.209111
0.689441 0.000000 0.198003
0.944441 0.000000 0.173522
1.116981 0.000000 0.142128
1.197251 0.000000 0.118165
0.000000 0.394233 0.200718
0.000000 0.394000 0.200725
0.000000 0.392153 0.200785
0.389486 0.383757 0.200929
0.672538 0.332893 0.190494
0.936738 0.170046 0.167641
1.113831 0.000000 0.138444
1.196150 0.000000 0.116398
0.000000 0.619115 0.157864
0.000000 0.618994 0.157879
0.000000 0.618042 0.157999
0.000000 0.613877 0.158517
0.608143 0.597564 0.159949
0.908969 0.476854 0.143876
1.102555 0.253314 0.123921
1.192208 0.000000 0.109710
0.000000 0.840653 0.000000
0.000000 0.840588 0.000000
0.000000 0.840075 0.000000
0.000000 0.837839 0.000000
0.239232 0.829867 0.000000
0.814612 0.799902 0.000000
1.065439 0.572462 0.000000
1.179225 0.286927 0.081276
0.000000 0.988702 0.000000
0.000000 0.988673 0.000000
0.000000 0.988443 0.000000
0.000000 0.987439 0.000000
0.000000 0.983853 0.000000
0.326976 0.972138 0.000000
0.945801 0.928543 0.000000
1.137719 0.612333 0.000000
0.000000 1.056808 0.000000
0.000000 1.056797 0.000000
0.000000 1.056714 0.000000
0.000000 1.056350 0.000000
0.000000 1.055047 0.000000
0.000000 1.050761 0.000000
0.352370 1.037134 0.000000
1.003961 0.985585 0.000000
0.000000 0.000000 0.390090
0.000000 0.000000 0.390069
0.220263 0.000000 0.389898
0.433863 0.000000 0.387342
0.691390 0.000000 0.363620
0.945543 0.000000 0.310258
1.117492 0.000000 0.236974
1.197439 0.000000 0.171595
0.000000 0.069640 0.389938
0.000000 0.066056 0.389917
0.217023 0.000000 0.389745
0.432770 0.000000 0.387225
0.690905 0.000000 0.363513
0.945319 0.000000 0.310177
1.117401 0.000000 0.236922
1.197407 0.000000 0.171566
0.000000 0.211006 0.388730
0.000000 0.210409 0.388708
0.188319 0.205607 0.388531
0.424010 0.181661 0.386304
0.687074 0.000000 0.362664
0.943557 0.000000 0.309540
1.116679 0.000000 0.236517
1.197155 0.000000 0.171336
0.000000 0.392582 0.382973
0.000000 0.392347 0.382956
0.000000 0.390492 0.382828
0.382262 0.382262 0.382262
0.670089 0.331294 0.358953
0.935845 0.166892 0.306746
1.113529 0.000000 0.234737
1.196055 0.000000 0.170330
0.000000 0.618274 0.348398
0.000000 0.618153 0.348385
0.000000 0.617200 0.348281
0.000000 0.613034 0.347831
0.605325 0.597014 0.345633
0.908045 0.476304 0.296640
1.102249 0.252554 0.228251
1.192112 0.000000 0.166656
0.000000 0.840206 0.264747
0.000000 0.840141 0.264744
0.000000 0.839629 0.264720
0.000000 0.837394 0.264614
0.230576 0.829425 0.264242
0.813556 0.799721 0.261813
1.065122 0.572281 0.205372
1.179128 0.286702 0.153689
0.000000 0.988503 0.000000
0.000000 0.988474 0.000000
0.000000 0.988244 0.000000
0.000000 0.987241 0.000000
0.000000 0.983656 0.021188
0.324599 0.971944 0.050888
0.945439 0.928490 0.083432
1.137618 0.612276 0.093909
0.000000 1.056736 0.000000
0.000000 1.056725 0.000000
0.000000 1.056642 0.000000
0.000000 1.056278 0.000000
0.000000 1.054975 0.000000
0.000000 1.050690 0.000000
0.351609 1.037064 0.000000
1.003846 0.985569 0.000000
0.000000 0.000000 0.628541
0.000000 0.000000 0.628492
0.118423 0.000000 0.628106
0.396037 0.000000 0.626428
0.682856 0.000000 0.609636
0.942368 0.000000 0.517347
1.116412 0.000000 0.388718
1.197097 0.000000 0.268817
0.000000 0.000000 0.628376
0.000000 0.000000 0.628327
0.110301 0.000000 0.627941
0.394850 0.000000 0.626264
0.682363 0.000000 0.609546
0.942144 0.000000 0.517288
1.116320 0.000000 0.388687
1.197065 0.000000 0.268801
0.000000 0.187321 0.627075
0.000000 0.186674 0.627027
0.000000 0.181451 0.626643
0.385330 0.155396 0.624975
0.678466 0.000000 0.608844
0.940374 0.000000 0.516822
1.115598 0.000000 0.388439
1.196813 0.000000 0.268674
0.000000 0.371579 0.621454
0.000000 0.371342 0.621406
0.000000 0.369469 0.621031
0.339609 0.361170 0.619400
0.661178 0.325448 0.605789
0.932632 0.154698 0.514793
1.112445 0.000000 0.387358
1.195712 0.000000 0.268118
0.000000 0.615255 0.600196
0.000000 0.615134 0.600164
0.000000 0.614181 0.599917
0.000000 0.610012 0.598838
0.595032 0.595032 0.595032
0.904715 0.474322 0.507594
1.101153 0.249795 0.383488
1.191768 0.000000 0.266119
0.000000 0.838606 0.495178
0.000000 0.838542 0.495162
0.000000 0.838030 0.495036
0.000000 0.835799 0.494489
0.194268 0.827842 0.492547
0.809747 0.799072 0.484583
1.063985 0.571631 0.370755
1.178780 0.285893 0.259436
0.000000 0.987791 0.338716
0.000000 0.987761 0.338712
0.000000 0.987532 0.338682
0.000000 0.986529 0.338554
0.000000 0.982948 0.338095
0.315854 0.971248 0.336610
0.944139 0.928298 0.329792
1.137257 0.612070 0.236882
0.000000 1.056478 0.122220
0.000000 1.056468 0.122223
0.000000 1.056384 0.122248
0.000000 1.056021 0.122358
0.000000 1.054718 0.122747
0.000000 1.050435 0.124011
0.348862 1.036814 0.127846
1.003432 0.985513 0.137174
0.000000 0.000000 0.896790
0.000000 0.000000 0.896735
0.000000 0.000000 0.896304
0.269560 0.000000 0.894430
0.590564 0.000000 0.887829
0.931721 0.000000 0.831815
1.112826 0.000000 0.622018
1.195963 0.000000 0.424322
0.000000 0.000000 0.896634
0.000000 0.000000 0.896579
0.000000 0.000000 0.896149
0.268016 0.000000 0.894276
0.590054 0.000000 0.887678
0.931493 0.000000 0.831751
1.112734 0.000000 0.621990
1.195931 0.000000 0.424311
0.000000 0.099492 0.895407
0.000000 0.098203 0.895353
0.000000 0.086938 0.894924
0.255358 0.000000 0.893060
0.586029 0.000000 0.886493
0.929701 0.000000 0.831246
1.112010 0.000000 0.621774
1.195679 0.000000 0.424225
0.000000 0.314083 0.890107
0.000000 0.313864 0.890054
0.000000 0.312137 0.889634
0.183605 0.304455 0.887806
0.568201 0.274776 0.881367
0.921854 0.094442 0.829050
1.108845 0.000000 0.620829
1.194577 0.000000 0.423851
0.000000 0.545294 0.871873
0.000000 0.545184 0.871823
0.000000 0.544315 0.871432
0.000000 0.540515 0.869728
0.500222 0.526859 0.863718
0.893538 0.467656 0.821295
1.097514 0.240300 0.617462
1.190630 0.000000 0.422510
0.000000 0.833339 0.812942
0.000000 0.833275 0.812913
0.000000 0.832766 0.812685
0.000000 0.830546 0.811691
0.000000 0.822631 0.808165
0.796916 0.796916 0.796916
1.060208 0.569473 0.606566
1.177629 0.283191 0.418097
0.000000 0.985442 0.593307
0.000000 0.985413 0.593298
0.000000 0.985184 0.593224
0.000000 0.984185 0.592901
0.000000 0.980615 0.591751
0.283922 0.968953 0.588014
0.939819 0.927662 0.573533
1.136061 0.611388 0.404011
0.000000 1.055628 0.371406
0.000000 1.055618 0.371404
0.000000 1.055534 0.371391
0.000000 1.055171 0.371334
0.000000 1.053871 0.371128
0.000000 1.049593 0.370454
0.339546 1.035989 0.368328
1.002062 0.985329 0.358904
0.000000 0.000000 1.112977
0.000000 0.000000 1.112940
0.000000 0.000000 1.112651
0.000000 0.000000 1.111392
0.380643 0.000000 1.106920
0.742176 0.000000 1.092602
1.101074 0.000000 0.983009
1.192291 0.000000 0.667287
0.000000 0.000000 1.112877
0.000000 0.000000 1.112841
0.000000 0.000000 1.112552
0.000000 0.000000 1.111293
0.380156 0.000000 1.106822
0.741965 0.000000 1.092508
1.100981 0.000000 0.982976
1.192258 0.000000 0.667277
0.000000 0.000000 1.112093
0.000000 0.000000 1.112057
0.000000 0.000000 1.111769
0.000000 0.000000 1.110513
0.376282 0.000000 1.106053
0.740300 0.000000 1.091773
1.100248 0.000000 0.982715
1.192005 0.000000 0.667197
0.000000 0.196929 1.108688
0.000000 0.196696 1.108652
0.000000 0.194850 1.108367
0.000000 0.186462 1.107124
0.358721 0.150338 1.102712
0.733016 0.000000 1.088579
1.097047 0.000000 0.981578
1.190900 0.000000 0.666848
0.000000 0.415681 1.096758
0.000000 0.415601 1.096723
0.000000 0.414971 1.096449
0.000000 0.412209 1.095252
0.283307 0.402188 1.091002
0.706795 0.367501 1.077378
1.085584 0.204379 0.977533
1.186940 0.000000 0.665600
0.000000 0.675625 1.060168
0.000000 0.675577 1.060137
0.000000 0.675197 1.059893
0.000000 0.673540 1.058830
0.000000 0.667619 1.055050
0.617719 0.648244 1.042906
1.047818 0.562385 0.964500
1.173896 0.274166 0.661508
0.000000 0.977918 0.953982
0.000000 0.977889 0.953966
0.000000 0.977663 0.953841
0.000000 0.976674 0.953294
0.000000 0.973142 0.951345
0.000000 0.961600 0.945009
0.925599 0.925599 0.925599
1.132184 0.609176 0.648645
0.000000 1.052894 0.634792
0.000000 1.052884 0.634789
0.000000 1.052801 0.634760
0.000000 1.052439 0.634633
0.000000 1.051144 0.634178
0.000000 1.046884 0.632685
0.306473 1.033336 0.627964
0.997617 0.984731 0.609649
0.000000 0.000000 1.229574
0.000000 0.000000 1.229558
0.000000 0.000000 1.229431
0.000000 0.000000 1.228879
0.000000 0.000000 1.226905
0.435617 0.000000 1.220465
0.816683 0.000000 1.200507
1.180064 0.000000 1.053530
0.000000 0.000000 1.229531
0.000000 0.000000 1.229515
0.000000 0.000000 1.229388
0.000000 0.000000 1.228836
0.000000 0.000000 1.226862
0.435458 0.000000 1.220423
0.816607 0.000000 1.200468
1.180032 0.000000 1.053517
0.000000 0.000000 1.229192
0.000000 0.000000 1.229176
0.000000 0.000000 1.229050
0.000000 0.000000 1.228498
0.000000 0.000000 1.226526
0.434204 0.000000 1.220093
0.816006 0.000000 1.200157
1.179776 0.000000 1.053418
0.000000 0.000000 1.227716
0.000000 0.000000 1.227700
0.000000 0.000000 1.227574
0.000000 0.000000 1.227024
0.000000 0.000000 1.225061
0.428677 0.000000 1.218655
0.813378 0.000000 1.198799
1.178659 0.000000 1.052982
0.000000 0.245597 1.222471
0.000000 0.245532 1.222456
0.000000 0.245014 1.222332
0.000000 0.242734 1.221790
0.000000 0.234312 1.219856
0.408146 0.202910 1.213545
0.803968 0.000000 1.193974
1.174655 0.000000 1.051425
0.000000 0.467220 1.205670
0.000000 0.467193 1.205655
0.000000 0.466977 1.205537
0.000000 0.466032 1.205021
0.000000 0.462638 1.203178
0.328756 0.451332 1.197163
0.772945 0.413630 1.178487
1.161468 0.240416 1.046328
0.000000 0.737900 1.156347
0.000000 0.737882 1.156334
0.000000 0.737742 1.156232
0.000000 0.737133 1.155786
0.000000 0.734952 1.154194
0.000000 0.727786 1.148991
0.672014 0.705046 1.132777
1.119268 0.601802 1.030377
0.000000 1.044022 1.018468
0.000000 1.044011 1.018462
0.000000 1.043930 1.018413
0.000000 1.043573 1.018201
0.000000 1.042295 1.017442
0.000000 1.038092 1.014951
0.064465 1.024721 1.007066
0.982761 0.982761 0.982761
