assets/resources/wfx_effect/nle_default/BaseFilter/PQDCICube/Data/HDR_PQDCI.cube
#Copyright: (C)Copyright 2024 Wondershare Inc.
#Created by: BIAOZHOU.
LUT_3D_SIZE 32
DOMAIN_MIN 0.0 0.0 0.0
DOMAIN_MAX 1.0 1.0 1.0
0.000000 0.000000 0.000000
0.029127 0.000000 0.002347
0.052880 0.000000 0.004260
0.077981 0.000000 0.006282
0.105230 0.000000 0.008477
0.135075 0.000000 0.010882
0.167871 0.000000 0.013524
0.203941 0.000000 0.016430
0.243577 0.000000 0.019623
0.287021 0.000000 0.023122
0.334445 0.000000 0.026943
0.385914 0.000000 0.031089
0.441357 0.000000 0.035556
0.500527 0.000000 0.040323
0.562955 0.000000 0.045352
0.627902 0.000000 0.050584
0.694340 0.000000 0.055936
0.760962 0.000000 0.061303
0.826256 0.000000 0.066563
0.888642 0.000000 0.071589
0.946651 0.000000 0.076262
0.999104 0.000000 0.080488
1.045244 0.000000 0.084205
1.084785 0.000000 0.087390
1.117870 0.000000 0.090056
1.144976 0.000000 0.092239
1.166780 0.000000 0.093996
1.184052 0.000000 0.095387
1.197559 0.000000 0.096476
1.208009 0.000000 0.097317
1.216020 0.000000 0.097963
1.222115 0.000000 0.098454
0.000000 0.026070 0.000000
0.025935 0.025460 0.000000
0.051736 0.022957 0.000000
0.077373 0.014745 0.002745
0.104855 0.000000 0.006941
0.134824 0.000000 0.009929
0.167694 0.000000 0.012873
0.203811 0.000000 0.015960
0.243479 0.000000 0.019273
0.286946 0.000000 0.022856
0.334386 0.000000 0.026736
0.385867 0.000000 0.030927
0.441319 0.000000 0.035427
0.500497 0.000000 0.040220
0.562929 0.000000 0.045270
0.627881 0.000000 0.050518
0.694323 0.000000 0.055884
0.760948 0.000000 0.061261
0.826244 0.000000 0.066530
0.888633 0.000000 0.071563
0.946643 0.000000 0.076241
0.999098 0.000000 0.080472
1.045239 0.000000 0.084192
1.084781 0.000000 0.087381
1.117867 0.000000 0.090048
1.144973 0.000000 0.092234
1.166778 0.000000 0.093992
1.184051 0.000000 0.095384
1.197558 0.000000 0.096473
1.208008 0.000000 0.097315
1.216019 0.000000 0.097961
1.222114 0.000000 0.098453
0.000000 0.047329 0.000000
0.000000 0.047098 0.000000
0.047084 0.046221 0.000000
0.075047 0.044181 0.000000
0.103444 0.039932 0.000000
0.133884 0.030400 0.000815
0.167033 0.000000 0.009796
0.203328 0.000000 0.013987
0.243115 0.000000 0.017877
0.286666 0.000000 0.021820
0.334167 0.000000 0.025946
0.385693 0.000000 0.030313
0.441179 0.000000 0.034944
0.500383 0.000000 0.039836
0.562836 0.000000 0.044964
0.627805 0.000000 0.050274
0.694260 0.000000 0.055688
0.760895 0.000000 0.061105
0.826201 0.000000 0.066406
0.888597 0.000000 0.071464
0.946614 0.000000 0.076164
0.999074 0.000000 0.080411
1.045220 0.000000 0.084145
1.084766 0.000000 0.087344
1.117855 0.000000 0.090020
1.144964 0.000000 0.092212
1.166771 0.000000 0.093975
1.184045 0.000000 0.095372
1.197554 0.000000 0.096464
1.208005 0.000000 0.097309
1.216017 0.000000 0.097956
1.222112 0.000000 0.098449
0.000000 0.069795 0.000000
0.000000 0.069671 0.000000
0.032622 0.069207 0.000000
0.069434 0.068162 0.000000
0.100202 0.066154 0.000000
0.131765 0.062519 0.000000
0.165553 0.055910 0.000000
0.202250 0.042323 0.005612
0.242306 0.000000 0.013918
0.286044 0.000000 0.019190
0.333680 0.000000 0.024042
0.385307 0.000000 0.028875
0.440869 0.000000 0.033833
0.500131 0.000000 0.038965
0.562630 0.000000 0.044274
0.627635 0.000000 0.049725
0.694119 0.000000 0.055251
0.760779 0.000000 0.060757
0.826105 0.000000 0.066129
0.888517 0.000000 0.071245
0.946549 0.000000 0.075992
0.999021 0.000000 0.080276
1.045178 0.000000 0.084041
1.084732 0.000000 0.087263
1.117829 0.000000 0.089958
1.144943 0.000000 0.092165
1.166755 0.000000 0.093940
1.184033 0.000000 0.095345
1.197545 0.000000 0.096444
1.207998 0.000000 0.097294
1.216012 0.000000 0.097945
1.222109 0.000000 0.098441
0.000000 0.094184 0.000000
0.000000 0.094107 0.000000
0.000000 0.093821 0.000000
0.056478 0.093183 0.000000
0.093698 0.091980 0.000000
0.127682 0.089892 0.000000
0.162750 0.086391 0.000000
0.200226 0.080543 0.000000
0.240793 0.070349 0.000000
0.284886 0.049003 0.011509
0.332775 0.000000 0.019670
0.384589 0.000000 0.025855
0.440292 0.000000 0.031601
0.499663 0.000000 0.037260
0.562247 0.000000 0.042947
0.627319 0.000000 0.048680
0.693858 0.000000 0.054424
0.760563 0.000000 0.060102
0.825926 0.000000 0.065611
0.888370 0.000000 0.070837
0.946428 0.000000 0.075671
0.998923 0.000000 0.080026
1.045099 0.000000 0.083846
1.084669 0.000000 0.087113
1.117779 0.000000 0.089843
1.144904 0.000000 0.092077
1.166725 0.000000 0.093873
1.184010 0.000000 0.095295
1.197527 0.000000 0.096406
1.207984 0.000000 0.097265
1.216002 0.000000 0.097924
1.222101 0.000000 0.098425
0.000000 0.120895 0.000000
0.000000 0.120844 0.000000
0.000000 0.120652 0.000000
0.000000 0.120227 0.000000
0.080695 0.119430 0.000000
0.120270 0.118066 0.000000
0.157835 0.115835 0.000000
0.196732 0.112269 0.000000
0.238205 0.106597 0.000000
0.282912 0.097391 0.000000
0.331238 0.081296 0.000000
0.383372 0.041216 0.018827
0.439316 0.000000 0.027127
0.498871 0.000000 0.034060
0.561600 0.000000 0.040544
0.626786 0.000000 0.046832
0.693418 0.000000 0.052983
0.760198 0.000000 0.058970
0.825624 0.000000 0.064721
0.888121 0.000000 0.070138
0.946224 0.000000 0.075124
0.998757 0.000000 0.079599
1.044965 0.000000 0.083516
1.084563 0.000000 0.086859
1.117696 0.000000 0.089649
1.144839 0.000000 0.091929
1.166675 0.000000 0.093761
1.183972 0.000000 0.095210
1.197498 0.000000 0.096342
1.207962 0.000000 0.097218
1.215985 0.000000 0.097889
1.222089 0.000000 0.098399
0.000000 0.150247 0.000000
0.000000 0.150211 0.000000
0.000000 0.150076 0.000000
0.000000 0.149775 0.000000
0.046933 0.149216 0.000000
0.106681 0.148263 0.000000
0.149465 0.146726 0.000000
0.190958 0.144290 0.000000
0.233991 0.140517 0.000000
0.279726 0.134705 0.000000
0.328770 0.125669 0.000000
0.381423 0.111061 0.000000
0.437756 0.084185 0.015284
0.497608 0.000000 0.027654
0.560567 0.000000 0.036171
0.625937 0.000000 0.043624
0.692716 0.000000 0.050551
0.759618 0.000000 0.057095
0.825144 0.000000 0.063264
0.887725 0.000000 0.069003
0.945900 0.000000 0.074240
0.998494 0.000000 0.078914
1.044753 0.000000 0.082986
1.084394 0.000000 0.086452
1.117563 0.000000 0.089337
1.144735 0.000000 0.091692
1.166595 0.000000 0.093581
1.183911 0.000000 0.095075
1.197452 0.000000 0.096241
1.207927 0.000000 0.097142
1.215959 0.000000 0.097833
1.222070 0.000000 0.098357
0.000000 0.182526 0.000000
0.000000 0.182499 0.000000
0.000000 0.182400 0.000000
0.000000 0.182180 0.000000
0.000000 0.181770 0.000000
0.077870 0.181075 0.000000
0.134969 0.179960 0.000000
0.181558 0.178230 0.000000
0.227310 0.175503 0.000000
0.274746 0.171369 0.000000
0.324943 0.165153 0.000000
0.378418 0.155787 0.000000
0.435357 0.141372 0.000000
0.495669 0.117584 0.000000
0.558986 0.064255 0.027114
0.624638 0.000000 0.037839
0.691643 0.000000 0.046430
0.758730 0.000000 0.054027
0.824409 0.000000 0.060930
0.887120 0.000000 0.067209
0.945404 0.000000 0.072858
0.998091 0.000000 0.077848
1.044429 0.000000 0.082167
1.084136 0.000000 0.085824
1.117359 0.000000 0.088858
1.144577 0.000000 0.091329
1.166473 0.000000 0.093307
1.183817 0.000000 0.094868
1.197381 0.000000 0.096086
1.207874 0.000000 0.097027
1.215919 0.000000 0.097747
1.222040 0.000000 0.098294
0.000000 0.217987 0.000000
0.000000 0.217967 0.000000
0.000000 0.217892 0.000000
0.000000 0.217725 0.000000
0.000000 0.217416 0.000000
0.000000 0.216892 0.000000
0.107230 0.216054 0.000000
0.165884 0.214764 0.000000
0.216785 0.212812 0.000000
0.267088 0.209660 0.000000
0.319136 0.204967 0.000000
0.373894 0.198060 0.000000
0.431765 0.187930 0.000000
0.492776 0.172920 0.000000
0.556630 0.149721 0.000000
0.622705 0.108238 0.024903
0.690049 0.000000 0.038953
0.757411 0.000000 0.048889
0.823319 0.000000 0.057183
0.886222 0.000000 0.064403
0.944668 0.000000 0.070728
0.997493 0.000000 0.076225
1.043948 0.000000 0.080927
1.083753 0.000000 0.084880
1.117058 0.000000 0.088141
1.144342 0.000000 0.090785
1.166291 0.000000 0.092896
1.183678 0.000000 0.094560
1.197275 0.000000 0.095855
1.207795 0.000000 0.096855
1.215860 0.000000 0.097619
1.221996 0.000000 0.098200
0.000000 0.256841 0.000000
0.000000 0.256825 0.000000
0.000000 0.256767 0.000000
0.000000 0.256638 0.000000
0.000000 0.256398 0.000000
0.000000 0.255993 0.000000
0.000000 0.255346 0.000000
0.137791 0.254352 0.000000
0.199650 0.252866 0.000000
0.255330 0.250650 0.000000
0.310414 0.246874 0.000000
0.367185 0.241357 0.000000
0.426479 0.233412 0.000000
0.488539 0.222063 0.000000
0.553192 0.205797 0.000000
0.619890 0.181862 0.000000
0.687731 0.143384 0.019370
0.755496 0.000000 0.039397
0.821737 0.000000 0.050937
0.884919 0.000000 0.059953
0.943601 0.000000 0.067449
0.996627 0.000000 0.073769
1.043251 0.000000 0.079076
1.083199 0.000000 0.083481
1.116621 0.000000 0.087083
1.144002 0.000000 0.089988
1.166029 0.000000 0.092297
1.183477 0.000000 0.094110
1.197123 0.000000 0.095519
1.207680 0.000000 0.096604
1.215774 0.000000 0.097433
1.221932 0.000000 0.098062
0.000000 0.299229 0.000000
0.000000 0.299217 0.000000
0.000000 0.299170 0.000000
0.000000 0.299068 0.000000
0.000000 0.298878 0.000000
0.000000 0.298557 0.000000
0.000000 0.298045 0.000000
0.061918 0.297260 0.000000
0.170347 0.296091 0.000000
0.236402 0.294383 0.000000
0.297293 0.291844 0.000000
0.357297 0.287164 0.000000
0.418781 0.280471 0.000000
0.482417 0.271059 0.000000
0.548248 0.257968 0.000000
0.615855 0.239788 0.000000
0.684415 0.214133 0.000000
0.752761 0.175736 0.000000
0.819480 0.101694 0.039052
0.883061 0.000000 0.052526
0.942081 0.000000 0.062291
0.995392 0.000000 0.070033
1.042258 0.000000 0.076315
1.082408 0.000000 0.081422
1.115999 0.000000 0.085542
1.143517 0.000000 0.088832
1.165654 0.000000 0.091432
1.183191 0.000000 0.093463
1.196905 0.000000 0.095037
1.207516 0.000000 0.096246
1.215651 0.000000 0.097168
1.221840 0.000000 0.097867
0.000000 0.345195 0.000000
0.000000 0.345185 0.000000
0.000000 0.345148 0.000000
0.000000 0.345065 0.000000
0.000000 0.344912 0.000000
0.000000 0.344652 0.000000
0.000000 0.344239 0.000000
0.000000 0.343606 0.000000
0.106402 0.342665 0.000000
0.205204 0.341294 0.000000
0.276174 0.339328 0.000000
0.342669 0.336388 0.000000
0.407610 0.330424 0.000000
0.473633 0.322100 0.000000
0.541207 0.310688 0.000000
0.610136 0.295243 0.000000
0.679729 0.274450 0.000000
0.748904 0.246216 0.000000
0.816301 0.206279 0.000000
0.880447 0.140148 0.037797
0.939942 0.000000 0.053639
0.993656 0.000000 0.064182
1.040862 0.000000 0.072150
1.081297 0.000000 0.078384
1.115124 0.000000 0.083300
1.142835 0.000000 0.087169
1.165128 0.000000 0.090194
1.182788 0.000000 0.092543
1.196600 0.000000 0.094353
1.207285 0.000000 0.095739
1.215478 0.000000 0.096793
1.221712 0.000000 0.097590
0.000000 0.394657 0.000000
0.000000 0.394649 0.000000
0.000000 0.394619 0.000000
0.000000 0.394551 0.000000
0.000000 0.394424 0.000000
0.000000 0.394211 0.000000
0.000000 0.393872 0.000000
0.000000 0.393352 0.000000
0.000000 0.392581 0.000000
0.144077 0.391458 0.000000
0.242426 0.389853 0.000000
0.318874 0.387583 0.000000
0.391314 0.384141 0.000000
0.461048 0.376397 0.000000
0.531229 0.365866 0.000000
0.602088 0.351805 0.000000
0.673166 0.333303 0.000000
0.743518 0.309158 0.000000
0.811871 0.277560 0.000000
0.876808 0.234989 0.000000
0.936967 0.170845 0.035500
0.991242 0.000000 0.054294
1.038922 0.000000 0.065645
1.079753 0.000000 0.073830
1.113909 0.000000 0.080020
1.141888 0.000000 0.084772
1.164397 0.000000 0.088430
1.182229 0.000000 0.091240
1.196175 0.000000 0.093390
1.206965 0.000000 0.095027
1.215239 0.000000 0.096268
1.221534 0.000000 0.097204
0.000000 0.447372 0.000000
0.000000 0.447365 0.000000
0.000000 0.447339 0.000000
0.000000 0.447283 0.000000
0.000000 0.447177 0.000000
0.000000 0.446999 0.000000
0.000000 0.446716 0.000000
0.000000 0.446283 0.000000
0.000000 0.445640 0.000000
0.000000 0.444706 0.000000
0.180935 0.443372 0.000000
0.281889 0.441490 0.000000
0.364261 0.438863 0.000000
0.442909 0.434791 0.000000
0.517091 0.424639 0.000000
0.590804 0.411194 0.000000
0.664025 0.393725 0.000000
0.736047 0.371392 0.000000
0.805744 0.343156 0.000000
0.871785 0.307505 0.000000
0.932866 0.261532 0.000000
0.987916 0.196912 0.031978
1.036249 0.000000 0.054545
1.077627 0.000000 0.066726
1.112235 0.000000 0.075126
1.140583 0.000000 0.081287
1.163390 0.000000 0.085907
1.181458 0.000000 0.089397
1.195590 0.000000 0.092037
1.206524 0.000000 0.094033
1.214909 0.000000 0.095538
1.221288 0.000000 0.096669
0.000000 0.502891 0.000000
0.000000 0.502885 0.000000
0.000000 0.502864 0.000000
0.000000 0.502816 0.000000
0.000000 0.502727 0.000000
0.000000 0.502576 0.000000
0.000000 0.502337 0.000000
0.000000 0.501971 0.000000
0.000000 0.501428 0.000000
0.000000 0.500640 0.000000
0.000000 0.499516 0.000000
0.218178 0.497932 0.000000
0.323282 0.495726 0.000000
0.411906 0.492676 0.000000
0.496924 0.487816 0.000000
0.574965 0.474486 0.000000
0.651321 0.457300 0.000000
0.725732 0.435586 0.000000
0.797317 0.408635 0.000000
0.864894 0.375631 0.000000
0.927249 0.335390 0.000000
0.983366 0.285525 0.000000
1.032595 0.219189 0.026831
1.074721 0.087347 0.054479
1.109947 0.000000 0.067497
1.138800 0.000000 0.076110
1.162013 0.000000 0.082259
1.180405 0.000000 0.086777
1.194790 0.000000 0.090137
1.205922 0.000000 0.092647
1.214458 0.000000 0.094525
1.220953 0.000000 0.095929
0.000000 0.560527 0.000000
0.000000 0.560522 0.000000
0.000000 0.560504 0.000000
0.000000 0.560463 0.000000
0.000000 0.560387 0.000000
0.000000 0.560258 0.000000
0.000000 0.560054 0.000000
0.000000 0.559742 0.000000
0.000000 0.559278 0.000000
0.000000 0.558606 0.000000
0.000000 0.557648 0.000000
0.000000 0.556300 0.000000
0.255962 0.554425 0.000000
0.366093 0.551837 0.000000
0.461166 0.548290 0.000000
0.552584 0.542455 0.000000
0.633641 0.525050 0.000000
0.711510 0.503216 0.000000
0.785767 0.476405 0.000000
0.855484 0.444118 0.000000
0.919596 0.405817 0.000000
0.977175 0.360649 0.000000
1.027626 0.306660 0.000000
1.070771 0.237989 0.018617
1.106838 0.120932 0.054206
1.136377 0.000000 0.068039
1.160143 0.000000 0.076857
1.178973 0.000000 0.083007
1.193703 0.000000 0.087450
1.205102 0.000000 0.090711
1.213844 0.000000 0.093121
1.220497 0.000000 0.094909
0.000000 0.619332 0.000000
0.000000 0.619328 0.000000
0.000000 0.619312 0.000000
0.000000 0.619277 0.000000
0.000000 0.619211 0.000000
0.000000 0.619101 0.000000
0.000000 0.618925 0.000000
0.000000 0.618657 0.000000
0.000000 0.618259 0.000000
0.000000 0.617681 0.000000
0.000000 0.616859 0.000000
0.000000 0.615702 0.000000
0.000000 0.614094 0.000000
0.293979 0.611879 0.000000
0.409606 0.608847 0.000000
0.511173 0.604722 0.000000
0.608865 0.597705 0.000000
0.691863 0.575250 0.000000
0.769951 0.547852 0.000000
0.842669 0.515175 0.000000
0.909207 0.476995 0.000000
0.968788 0.433080 0.000000
1.020902 0.382882 0.000000
1.065428 0.324768 0.000000
1.102633 0.253510 0.000000
1.133101 0.142113 0.053845
1.157613 0.000000 0.068436
1.177037 0.000000 0.077439
1.192233 0.000000 0.083598
1.203994 0.000000 0.087985
1.213015 0.000000 0.091169
1.219879 0.000000 0.093501
0.000000 0.678117 0.000000
0.000000 0.678114 0.000000
0.000000 0.678100 0.000000
0.000000 0.678070 0.000000
0.000000 0.678013 0.000000
0.000000 0.677918 0.000000
0.000000 0.677767 0.000000
0.000000 0.677535 0.000000
0.000000 0.677192 0.000000
0.000000 0.676695 0.000000
0.000000 0.675986 0.000000
0.000000 0.674990 0.000000
0.000000 0.673606 0.000000
0.121839 0.671701 0.000000
0.331636 0.669096 0.000000
0.452923 0.665558 0.000000
0.560865 0.660774 0.000000
0.664541 0.652361 0.000000
0.748248 0.623884 0.000000
0.825223 0.590107 0.000000
0.895133 0.550978 0.000000
0.957457 0.506586 0.000000
1.011833 0.456993 0.000000
1.058227 0.401885 0.000000
1.096969 0.339827 0.000000
1.128688 0.265947 0.000000
1.154206 0.156738 0.053512
1.174429 0.000000 0.068765
1.190252 0.000000 0.077924
1.202501 0.000000 0.084089
1.211896 0.000000 0.088429
1.219047 0.000000 0.091551
0.000000 0.735528 0.000000
0.000000 0.735525 0.000000
0.000000 0.735513 0.000000
0.000000 0.735487 0.000000
0.000000 0.735438 0.000000
0.000000 0.735356 0.000000
0.000000 0.735226 0.000000
0.000000 0.735027 0.000000
0.000000 0.734731 0.000000
0.000000 0.734303 0.000000
0.000000 0.733693 0.000000
0.000000 0.732837 0.000000
0.000000 0.731646 0.000000
0.000000 0.730008 0.000000
0.170318 0.727771 0.000000
0.368169 0.724734 0.000000
0.495026 0.720633 0.000000
0.609058 0.715117 0.000000
0.718273 0.705108 0.000000
0.801425 0.669761 0.000000
0.876073 0.628997 0.000000
0.942176 0.583095 0.000000
0.999630 0.532450 0.000000
1.048551 0.477355 0.000000
1.089362 0.417639 0.000000
1.122761 0.351937 0.000000
1.149629 0.275521 0.000000
1.170925 0.166660 0.053311
1.187591 0.000000 0.069092
1.200494 0.000000 0.078364
1.210393 0.000000 0.084527
1.217929 0.000000 0.088823
0.000000 0.790169 0.000000
0.000000 0.790166 0.000000
0.000000 0.790156 0.000000
0.000000 0.790134 0.000000
0.000000 0.790092 0.000000
0.000000 0.790022 0.000000
0.000000 0.789910 0.000000
0.000000 0.789740 0.000000
0.000000 0.789487 0.000000
0.000000 0.789121 0.000000
0.000000 0.788599 0.000000
0.000000 0.787866 0.000000
0.000000 0.786848 0.000000
0.000000 0.785447 0.000000
0.000000 0.783535 0.000000
0.208731 0.780939 0.000000
0.402748 0.777436 0.000000
0.534880 0.772728 0.000000
0.654569 0.766427 0.000000
0.768758 0.754668 0.000000
0.850203 0.711838 0.000000
0.921568 0.663773 0.000000
0.983232 0.611081 0.000000
1.035572 0.554406 0.000000
1.079166 0.494183 0.000000
1.114820 0.430278 0.000000
1.143498 0.361289 0.000000
1.166230 0.282459 0.000000
1.184024 0.172742 0.053324
1.197804 0.000000 0.069471
1.208378 0.000000 0.078805
1.216430 0.000000 0.084946
0.000000 0.840768 0.000000
0.000000 0.840766 0.000000
0.000000 0.840757 0.000000
0.000000 0.840738 0.000000
0.000000 0.840703 0.000000
0.000000 0.840644 0.000000
0.000000 0.840549 0.000000
0.000000 0.840405 0.000000
0.000000 0.840191 0.000000
0.000000 0.839880 0.000000
0.000000 0.839438 0.000000
0.000000 0.838817 0.000000
0.000000 0.837954 0.000000
0.000000 0.836767 0.000000
0.000000 0.835147 0.000000
0.000000 0.832948 0.000000
0.241386 0.829981 0.000000
0.434593 0.825994 0.000000
0.571551 0.820660 0.000000
0.696353 0.813547 0.000000
0.814884 0.799948 0.000000
0.893717 0.749344 0.000000
0.961193 0.693996 0.000000
1.018178 0.634782 0.000000
1.065521 0.572509 0.000000
1.104197 0.507656 0.000000
1.135296 0.440031 0.000000
1.159949 0.368113 0.000000
1.179250 0.286985 0.000000
1.194203 0.175436 0.053609
1.205680 0.000000 0.069939
1.214422 0.000000 0.079278
0.000000 0.886332 0.000000
0.000000 0.886330 0.000000
0.000000 0.886323 0.000000
0.000000 0.886307 0.000000
0.000000 0.886277 0.000000
0.000000 0.886228 0.000000
0.000000 0.886148 0.000000
0.000000 0.886028 0.000000
0.000000 0.885848 0.000000
0.000000 0.885589 0.000000
0.000000 0.885219 0.000000
0.000000 0.884699 0.000000
0.000000 0.883977 0.000000
0.000000 0.882984 0.000000
0.000000 0.881628 0.000000
0.000000 0.879787 0.000000
0.000000 0.877304 0.000000
0.269345 0.873967 0.000000
0.463073 0.869500 0.000000
0.604322 0.863544 0.000000
0.733631 0.855626 0.000000
0.855866 0.840179 0.000000
0.931509 0.781861 0.000000
0.994859 0.719546 0.000000
1.047269 0.654301 0.000000
1.090001 0.586994 0.000000
1.124337 0.518058 0.000000
1.151555 0.447178 0.000000
1.172870 0.372651 0.000000
1.189387 0.289297 0.000000
1.202072 0.174956 0.054197
1.211735 0.000000 0.070521
0.000000 0.926251 0.000000
0.000000 0.926249 0.000000
0.000000 0.926243 0.000000
0.000000 0.926230 0.000000
0.000000 0.926206 0.000000
0.000000 0.926165 0.000000
0.000000 0.926099 0.000000
0.000000 0.926000 0.000000
0.000000 0.925852 0.000000
0.000000 0.925638 0.000000
0.000000 0.925333 0.000000
0.000000 0.924904 0.000000
0.000000 0.924309 0.000000
0.000000 0.923489 0.000000
0.000000 0.922370 0.000000
0.000000 0.920852 0.000000
0.000000 0.918802 0.000000
0.000000 0.916046 0.000000
0.292927 0.912357 0.000000
0.487782 0.907435 0.000000
0.632759 0.900886 0.000000
0.765964 0.892201 0.000000
0.891311 0.874974 0.000000
0.963529 0.809318 0.000000
1.022841 0.740584 0.000000
1.071033 0.669931 0.000000
1.109703 0.598202 0.000000
1.140345 0.525720 0.000000
1.164346 0.452003 0.000000
1.182952 0.375130 0.000000
1.197246 0.289556 0.000000
1.208141 0.171310 0.055092
0.000000 0.960332 0.000000
0.000000 0.960330 0.000000
0.000000 0.960326 0.000000
0.000000 0.960315 0.000000
0.000000 0.960295 0.000000
0.000000 0.960262 0.000000
0.000000 0.960209 0.000000
0.000000 0.960128 0.000000
0.000000 0.960008 0.000000
0.000000 0.959834 0.000000
0.000000 0.959586 0.000000
0.000000 0.959238 0.000000
0.000000 0.958754 0.000000
0.000000 0.958088 0.000000
0.000000 0.957179 0.000000
0.000000 0.955944 0.000000
0.000000 0.954277 0.000000
0.000000 0.952035 0.000000
0.000000 0.949032 0.000000
0.312287 0.945022 0.000000
0.508554 0.939683 0.000000
0.656728 0.932593 0.000000
0.793260 0.923204 0.000000
0.921216 0.904331 0.000000
0.990074 0.831944 0.000000
1.045670 0.757471 0.000000
1.090157 0.682080 0.000000
1.125375 0.606525 0.000000
1.152959 0.530980 0.000000
1.174352 0.454775 0.000000
1.190795 0.375747 0.000000
1.203334 0.287880 0.000000
0.000000 0.988753 0.000000
0.000000 0.988752 0.000000
0.000000 0.988748 0.000000
0.000000 0.988740 0.000000
0.000000 0.988724 0.000000
0.000000 0.988697 0.000000
0.000000 0.988655 0.000000
0.000000 0.988590 0.000000
0.000000 0.988494 0.000000
0.000000 0.988355 0.000000
0.000000 0.988156 0.000000
0.000000 0.987878 0.000000
0.000000 0.987490 0.000000
0.000000 0.986957 0.000000
0.000000 0.986229 0.000000
0.000000 0.985240 0.000000
0.000000 0.983904 0.000000
0.000000 0.982107 0.000000
0.000000 0.979698 0.000000
0.000000 0.976479 0.000000
0.327584 0.972188 0.000000
0.525441 0.966483 0.000000
0.676357 0.958915 0.000000
0.815726 0.948900 0.000000
0.945894 0.928557 0.000000
1.011674 0.850171 0.000000
1.064022 0.770681 0.000000
1.105374 0.691196 0.000000
1.137745 0.612348 0.000000
1.162855 0.534147 0.000000
1.182166 0.455728 0.000000
1.196901 0.374661 0.000000
0.000000 1.011969 0.000000
0.000000 1.011969 0.000000
0.000000 1.011966 0.000000
0.000000 1.011959 0.000000
0.000000 1.011946 0.000000
0.000000 1.011925 0.000000
0.000000 1.011892 0.000000
0.000000 1.011841 0.000000
0.000000 1.011765 0.000000
0.000000 1.011655 0.000000
0.000000 1.011498 0.000000
0.000000 1.011278 0.000000
0.000000 1.010972 0.000000
0.000000 1.010551 0.000000
0.000000 1.009976 0.000000
0.000000 1.009195 0.000000
0.000000 1.008139 0.000000
0.000000 1.006718 0.000000
0.000000 1.004812 0.000000
0.000000 1.002264 0.000000
0.000000 0.998863 0.000000
0.339027 0.994336 0.000000
0.538659 0.988321 0.000000
0.691959 0.980345 0.000000
0.833772 0.969789 0.000000
0.965871 0.948167 0.000000
1.028990 0.864546 0.000000
1.078614 0.780724 0.000000
1.117396 0.697720 0.000000
1.147473 0.616028 0.000000
1.170614 0.535493 0.000000
1.188283 0.455053 0.000000
0.000000 1.030600 0.000000
0.000000 1.030599 0.000000
0.000000 1.030597 0.000000
0.000000 1.030591 0.000000
0.000000 1.030582 0.000000
0.000000 1.030565 0.000000
0.000000 1.030539 0.000000
0.000000 1.030499 0.000000
0.000000 1.030440 0.000000
0.000000 1.030355 0.000000
0.000000 1.030232 0.000000
0.000000 1.030061 0.000000
0.000000 1.029822 0.000000
0.000000 1.029494 0.000000
0.000000 1.029045 0.000000
0.000000 1.028436 0.000000
0.000000 1.027612 0.000000
0.000000 1.026502 0.000000
0.000000 1.025014 0.000000
0.000000 1.023022 0.000000
0.000000 1.020361 0.000000
0.000000 1.016816 0.000000
0.346853 1.012097 0.000000
0.548521 1.005827 0.000000
0.703959 0.997510 0.000000
0.847930 0.986496 0.000000
0.981781 0.963786 0.000000
1.042712 0.875647 0.000000
1.090135 0.788097 0.000000
1.126868 0.702052 0.000000
1.155131 0.617871 0.000000
1.176724 0.535239 0.000000
0.000000 1.045328 0.000000
0.000000 1.045327 0.000000
0.000000 1.045325 0.000000
0.000000 1.045321 0.000000
0.000000 1.045314 0.000000
0.000000 1.045301 0.000000
0.000000 1.045281 0.000000
0.000000 1.045250 0.000000
0.000000 1.045205 0.000000
0.000000 1.045139 0.000000
0.000000 1.045044 0.000000
0.000000 1.044912 0.000000
0.000000 1.044728 0.000000
0.000000 1.044475 0.000000
0.000000 1.044129 0.000000
0.000000 1.043658 0.000000
0.000000 1.043023 0.000000
0.000000 1.042166 0.000000
0.000000 1.041017 0.000000
0.000000 1.039477 0.000000
