assets/resources/wfx_effect/nle_default/BaseFilter/PQDCICube/Data/HDR_PQDCI.cube
#Copyright: (C)Copyright 2024 Wondershare Inc.
#Created by: BIAOZHOU.
LUT_3D_SIZE 5
DOMAIN_MIN 0.000000 0.000000 0.000000
DOMAIN_MAX 0.903226 0.903226 0.903226
0.000000 0.000000 0.000000
0.203941 0.000000 0.016430
0.562955 0.000000 0.045352
0.999104 0.000000 0.080488
1.197559 0.000000 0.096476
0.000000 0.182526 0.000000
0.181558 0.178230 0.000000
0.558986 0.064255 0.027114
0.998091 0.000000 0.077848
1.197381 0.000000 0.096086
0.000000 0.502891 0.000000
0.000000 0.501971 0.000000
0.496924 0.487816 0.000000
0.983366 0.285525 0.000000
1.194790 0.000000 0.090137
0.000000 0.886332 0.000000
0.000000 0.886028 0.000000
0.000000 0.881628 0.000000
0.855866 0.840179 0.000000
1.172870 0.372651 0.000000
0.000000 1.056826 0.000000
0.000000 1.056767 0.000000
0.000000 1.055910 0.000000
0.000000 1.048677 0.000000
1.003991 0.985589 0.000000
0.000000 0.000000 0.178852
0.200446 0.000000 0.178953
0.562353 0.000000 0.173997
0.998994 0.000000 0.144428
1.197544 0.000000 0.111218
0.000000 0.181654 0.177208
0.177329 0.177329 0.177329
0.558378 0.059874 0.172394
0.997981 0.000000 0.143380
1.197365 0.000000 0.110906
0.000000 0.502704 0.144745
0.000000 0.501784 0.144869
0.496202 0.487668 0.146436
0.983254 0.285341 0.126752
1.194774 0.000000 0.106222
0.000000 0.886271 0.000000
0.000000 0.885967 0.000000
0.000000 0.881568 0.000000
0.855734 0.840157 0.000000
1.172854 0.372628 0.019252
0.000000 1.056814 0.000000
0.000000 1.056755 0.000000
0.000000 1.055899 0.000000
0.000000 1.048665 0.000000
1.003972 0.985586 0.000000
0.000000 0.000000 0.502217
0.128360 0.000000 0.502009
0.553494 0.000000 0.494145
0.997393 0.000000 0.379726
1.197319 0.000000 0.214056
0.000000 0.164398 0.501338
0.066385 0.159545 0.501130
0.549426 0.000000 0.493586
0.996377 0.000000 0.379402
1.197140 0.000000 0.213937
0.000000 0.499980 0.487742
0.000000 0.499056 0.487598
0.485512 0.485512 0.485512
0.981624 0.282644 0.374699
1.194549 0.000000 0.212194
0.000000 0.885394 0.341769
0.000000 0.885090 0.341730
0.000000 0.880695 0.341165
0.853813 0.839841 0.334848
1.172624 0.372287 0.196700
0.000000 1.056645 0.000000
0.000000 1.056586 0.000000
0.000000 1.055730 0.000000
0.000000 1.048498 0.000000
1.003701 0.985550 0.000000
0.000000 0.000000 0.959089
0.000000 0.000000 0.958799
0.386619 0.000000 0.954629
0.983554 0.000000 0.878091
1.195404 0.000000 0.475266
0.000000 0.000000 0.958278
0.000000 0.000000 0.957989
0.382171 0.000000 0.953831
0.982522 0.000000 0.877777
1.195225 0.000000 0.475208
0.000000 0.398092 0.946748
0.000000 0.397310 0.946471
0.307884 0.385813 0.942481
0.967529 0.257727 0.873253
1.192629 0.000000 0.474369
0.000000 0.877970 0.856481
0.000000 0.877669 0.856335
0.000000 0.873312 0.854236
0.837140 0.837140 0.837140
1.170667 0.369366 0.467298
0.000000 1.055209 0.430142
0.000000 1.055151 0.430130
0.000000 1.054296 0.429954
0.000000 1.047080 0.428471
1.001385 0.985237 0.414362
0.000000 0.000000 1.229574
0.000000 0.000000 1.229484
0.000000 0.000000 1.228184
0.528656 0.000000 1.217335
1.180064 0.000000 1.053530
0.000000 0.000000 1.229334
0.000000 0.000000 1.229244
0.000000 0.000000 1.227945
0.527971 0.000000 1.217103
1.179883 0.000000 1.053459
0.000000 0.106888 1.225866
0.000000 0.105538 1.225777
0.000000 0.081705 1.224491
0.517943 0.000000 1.213754
1.177252 0.000000 1.052434
0.000000 0.528919 1.197666
0.000000 0.528785 1.197584
0.000000 0.526846 1.196399
0.423415 0.510304 1.186495
1.154984 0.344810 1.043842
0.000000 1.044022 1.018468
0.000000 1.043964 1.018433
0.000000 1.043124 1.017934
0.000000 1.036030 1.013730
0.982761 0.982761 0.982761
