assets/resources/wfx_effect/nle_default/BaseFilter/HLGDCICube/Data/HDR_HLGDCI.cube
#Copyright: (C)Copyright 2024 Wondershare Inc.
#Created by: BIAOZHOU.
LUT_3D_SIZE 5
DOMAIN_MIN 0.000000 0.000000 0.000000
DOMAIN_MAX 0.903226 0.903226 0.903226
0.000000 0.000000 0.000000
0.352096 0.000000 0.028365
0.533677 0.000000 0.042993
0.720020 0.000000 0.058005
1.021530 0.000000 0.082295
0.000000 0.307642 0.000000
0.302307 0.296766 0.000000
0.514517 0.249647 0.000000
0.710414 0.171622 0.000000
1.017266 0.000000 0.070523
0.000000 0.466298 0.000000
0.000000 0.462104 0.000000
0.458212 0.449814 0.000000
0.682102 0.403887 0.000000
1.004565 0.298382 0.000000
0.000000 0.629114 0.000000
0.000000 0.627020 0.000000
0.297183 0.620799 0.000000
0.618205 0.606874 0.000000
0.975935 0.531021 0.000000
0.000000 0.892557 0.000000
0.000000 0.891629 0.000000
0.000000 0.888856 0.000000
0.316421 0.882566 0.000000
0.877080 0.861004 0.000000
0.000000 0.000000 0.313337
0.344719 0.000000 0.307756
0.530889 0.000000 0.275122
0.718634 0.000000 0.254322
1.020917 0.000000 0.234620
0.000000 0.305280 0.297808
0.294514 0.294514 0.294514
0.511736 0.247869 0.269826
0.709032 0.169225 0.251077
1.016654 0.000000 0.232363
0.000000 0.465398 0.258038
0.000000 0.461217 0.257428
0.455288 0.448957 0.255776
0.680717 0.403192 0.241536
1.003954 0.297612 0.225487
0.000000 0.628666 0.220426
0.000000 0.626575 0.220388
0.292769 0.620360 0.220290
0.616754 0.606448 0.220160
0.975324 0.530682 0.209030
0.000000 0.892358 0.119504
0.000000 0.891432 0.119927
0.000000 0.888659 0.121177
0.313366 0.882372 0.123939
0.876439 0.860815 0.132714
0.000000 0.000000 0.474929
0.293534 0.000000 0.472610
0.522496 0.000000 0.466471
0.714473 0.000000 0.430299
1.019079 0.000000 0.392060
0.000000 0.275492 0.467961
0.250628 0.267522 0.465994
0.503342 0.242467 0.460710
0.704880 0.161717 0.427627
1.014818 0.000000 0.390701
0.000000 0.462718 0.451392
0.000000 0.458573 0.450066
0.446399 0.446399 0.446399
0.676553 0.401105 0.420112
1.002121 0.295285 0.386668
0.000000 0.627326 0.409050
0.000000 0.625242 0.408645
0.278882 0.619047 0.407473
0.612380 0.605171 0.405011
0.973489 0.529665 0.377658
0.000000 0.891765 0.348839
0.000000 0.890839 0.348792
0.000000 0.888070 0.348653
0.303911 0.881788 0.348354
0.874513 0.860250 0.347479
0.000000 0.000000 0.640759
0.227163 0.000000 0.639581
0.470562 0.000000 0.636217
0.704935 0.000000 0.629347
1.014876 0.000000 0.572714
0.000000 0.246168 0.637139
0.173404 0.239065 0.636035
0.454830 0.215923 0.632873
0.695353 0.142250 0.626382
1.010618 0.000000 0.571519
0.000000 0.431936 0.627318
0.000000 0.428693 0.626392
0.404428 0.418933 0.623722
0.666975 0.396318 0.618168
0.997928 0.289873 0.568007
0.000000 0.624284 0.609003
0.000000 0.622215 0.608335
0.242375 0.616063 0.606392
0.602267 0.602267 0.602267
0.969290 0.527337 0.560349
0.000000 0.890411 0.541636
0.000000 0.889487 0.541475
0.000000 0.886725 0.540996
0.280377 0.880458 0.539932
0.870096 0.858961 0.536512
0.000000 0.000000 0.909078
0.000000 0.000000 0.908553
0.373740 0.000000 0.907002
0.620610 0.000000 0.903588
1.000128 0.000000 0.892887
0.000000 0.190612 0.907448
0.000000 0.182573 0.906933
0.357511 0.154377 0.905413
0.613004 0.000000 0.902067
0.995878 0.000000 0.891557
0.000000 0.384124 0.902718
0.000000 0.381427 0.902234
0.300906 0.373202 0.900801
0.589649 0.353553 0.897641
0.983199 0.269723 0.887671
0.000000 0.574600 0.892717
0.000000 0.573045 0.892290
0.000000 0.568370 0.891026
0.532357 0.557632 0.888229
0.954514 0.519141 0.879319
0.000000 0.885704 0.864025
0.000000 0.884788 0.863728
0.000000 0.882047 0.862846
0.147973 0.875828 0.860878
0.854468 0.854468 0.854468
