assets/resources/wfx_effect/nle_default/BaseFilter/HLGDCICube/Data/HDR_HLGDCI.cube
#Copyright: (C)Copyright 2024 Wondershare Inc.
#Created by: BIAOZHOU.
LUT_3D_SIZE 32
DOMAIN_MIN 0.0 0.0 0.0
DOMAIN_MAX 1.0 1.0 1.0
0.000000 0.000000 0.000000
0.109547 0.000000 0.008825
0.166043 0.000000 0.013376
0.211775 0.000000 0.017061
0.251674 0.000000 0.020275
0.287729 0.000000 0.023179
0.320991 0.000000 0.025859
0.352096 0.000000 0.028365
0.381466 0.000000 0.030731
0.409400 0.000000 0.032981
0.436116 0.000000 0.035134
0.461783 0.000000 0.037201
0.486531 0.000000 0.039195
0.510467 0.000000 0.041123
0.533677 0.000000 0.042993
0.556233 0.000000 0.044810
0.578513 0.000000 0.046605
0.602491 0.000000 0.048537
0.628557 0.000000 0.050637
0.656785 0.000000 0.052911
0.687247 0.000000 0.055365
0.720020 0.000000 0.058005
0.755181 0.000000 0.060837
0.792816 0.000000 0.063869
0.833014 0.000000 0.067108
0.875874 0.000000 0.070561
0.921502 0.000000 0.074236
0.970013 0.000000 0.078144
1.021530 0.000000 0.082295
1.076188 0.000000 0.086698
1.134131 0.000000 0.091366
1.149887 0.000000 0.092635
0.000000 0.095716 0.000000
0.094057 0.092333 0.000000
0.160081 0.077673 0.000000
0.208371 0.060223 0.000000
0.249392 0.023355 0.012480
0.286057 0.000000 0.018289
0.319695 0.000000 0.022296
0.351051 0.000000 0.025585
0.380599 0.000000 0.028470
0.408664 0.000000 0.031089
0.435481 0.000000 0.033515
0.461227 0.000000 0.035794
0.486039 0.000000 0.037955
0.510027 0.000000 0.040019
0.533281 0.000000 0.042001
0.555873 0.000000 0.043911
0.578184 0.000000 0.045786
0.602192 0.000000 0.047793
0.628286 0.000000 0.049964
0.656541 0.000000 0.052305
0.687028 0.000000 0.054820
0.719823 0.000000 0.057517
0.755005 0.000000 0.060401
0.792658 0.000000 0.063480
0.832874 0.000000 0.066761
0.875750 0.000000 0.070253
0.921391 0.000000 0.073963
0.969914 0.000000 0.077902
1.021442 0.000000 0.082080
1.076110 0.000000 0.086508
1.134063 0.000000 0.091198
1.149843 0.000000 0.092478
0.000000 0.145079 0.000000
0.000000 0.143774 0.000000
0.142563 0.139950 0.000000
0.198360 0.128910 0.000000
0.242638 0.117730 0.000000
0.281088 0.105594 0.000000
0.315832 0.091282 0.000000
0.347931 0.072231 0.009962
0.378008 0.035399 0.018916
0.406464 0.000000 0.023898
0.433582 0.000000 0.027721
0.459564 0.000000 0.030945
0.484566 0.000000 0.033794
0.508710 0.000000 0.036383
0.532093 0.000000 0.038780
0.554794 0.000000 0.041026
0.577200 0.000000 0.043183
0.601296 0.000000 0.045448
0.627475 0.000000 0.047858
0.655808 0.000000 0.050418
0.686369 0.000000 0.053135
0.719231 0.000000 0.056014
0.754476 0.000000 0.059063
0.792186 0.000000 0.062291
0.832453 0.000000 0.065706
0.875375 0.000000 0.069316
0.921059 0.000000 0.073134
0.969619 0.000000 0.077168
1.021181 0.000000 0.081430
1.075879 0.000000 0.085934
1.133858 0.000000 0.090690
1.149710 0.000000 0.092006
0.000000 0.185037 0.000000
0.000000 0.184295 0.000000
0.107177 0.182093 0.000000
0.181829 0.178496 0.000000
0.231563 0.169090 0.000000
0.272922 0.159725 0.000000
0.309466 0.150155 0.000000
0.342778 0.140053 0.000000
0.373720 0.129004 0.000000
0.402820 0.116423 0.000000
0.430432 0.101281 0.000000
0.456804 0.081189 0.017846
0.482120 0.045149 0.024126
0.506522 0.000000 0.028588
0.530119 0.000000 0.032219
0.553001 0.000000 0.035356
0.575563 0.000000 0.038199
0.599807 0.000000 0.041057
0.626125 0.000000 0.043987
0.654589 0.000000 0.047005
0.685272 0.000000 0.050124
0.718247 0.000000 0.053359
0.753595 0.000000 0.056722
0.791399 0.000000 0.060226
0.831752 0.000000 0.063885
0.874752 0.000000 0.067711
0.920505 0.000000 0.071718
0.969128 0.000000 0.075920
1.020745 0.000000 0.080330
1.075493 0.000000 0.084963
1.133517 0.000000 0.089835
1.149489 0.000000 0.091211
0.000000 0.219899 0.000000
0.000000 0.219402 0.000000
0.000000 0.217921 0.000000
0.153910 0.215483 0.000000
0.216086 0.212125 0.000000
0.261613 0.203730 0.000000
0.300657 0.195391 0.000000
0.335639 0.187011 0.000000
0.367770 0.178445 0.000000
0.397757 0.169524 0.000000
0.426050 0.160051 0.000000
0.452961 0.149777 0.000000
0.478712 0.138357 0.000000
0.503470 0.125253 0.000000
0.527365 0.109481 0.015099
0.550498 0.088763 0.023428
0.573278 0.052822 0.028738
0.597726 0.000000 0.033267
0.624239 0.000000 0.037450
0.652886 0.000000 0.041450
0.683739 0.000000 0.045364
0.716871 0.000000 0.049255
0.752363 0.000000 0.053167
0.790300 0.000000 0.057136
0.830772 0.000000 0.061192
0.873879 0.000000 0.065359
0.919730 0.000000 0.069660
0.968440 0.000000 0.074117
1.020136 0.000000 0.078749
1.074953 0.000000 0.083576
1.133039 0.000000 0.088616
1.149179 0.000000 0.090078
0.000000 0.251402 0.000000
0.000000 0.251038 0.000000
0.000000 0.249951 0.000000
0.115079 0.248155 0.000000
0.191940 0.245669 0.000000
0.247043 0.242515 0.000000
0.289407 0.234829 0.000000
0.326541 0.227194 0.000000
0.360189 0.219565 0.000000
0.391300 0.211867 0.000000
0.420458 0.204009 0.000000
0.448052 0.195893 0.000000
0.474355 0.187405 0.000000
0.499567 0.178411 0.000000
0.523840 0.168743 0.000000
0.547293 0.158179 0.000000
0.570350 0.146205 0.000000
0.595060 0.130833 0.011948
0.621821 0.109183 0.024614
0.650702 0.071008 0.031874
0.681772 0.000000 0.037763
0.715106 0.000000 0.043026
0.750782 0.000000 0.047964
0.788887 0.000000 0.052733
0.829513 0.000000 0.057431
0.872759 0.000000 0.062126
0.918734 0.000000 0.066867
0.967556 0.000000 0.071694
1.019352 0.000000 0.076641
1.074259 0.000000 0.081737
1.132425 0.000000 0.087009
1.148781 0.000000 0.088590
0.000000 0.280464 0.000000
0.000000 0.280182 0.000000
0.000000 0.279339 0.000000
0.000000 0.277942 0.000000
0.162451 0.276002 0.000000
0.225313 0.273533 0.000000
0.275601 0.270550 0.000000
0.315464 0.263400 0.000000
0.350983 0.256293 0.000000
0.383465 0.249206 0.000000
0.413672 0.242097 0.000000
0.442093 0.234913 0.000000
0.469063 0.227593 0.000000
0.494824 0.220073 0.000000
0.519555 0.212280 0.000000
0.543395 0.204133 0.000000
0.566787 0.195404 0.000000
0.591814 0.185062 0.000000
0.618876 0.172367 0.000000
0.648040 0.156226 0.000000
0.679374 0.134376 0.022395
0.712952 0.100145 0.032636
0.748854 0.000000 0.040059
0.787164 0.000000 0.046413
0.827976 0.000000 0.052235
0.871391 0.000000 0.057778
0.917519 0.000000 0.063184
0.966478 0.000000 0.068547
1.018396 0.000000 0.073935
1.073412 0.000000 0.079398
1.131675 0.000000 0.084981
1.148295 0.000000 0.086715
0.000000 0.307642 0.000000
0.000000 0.307415 0.000000
0.000000 0.306734 0.000000
0.000000 0.305606 0.000000
0.120318 0.304035 0.000000
0.200263 0.302032 0.000000
0.255602 0.299606 0.000000
0.302307 0.296766 0.000000
0.340124 0.290042 0.000000
0.374250 0.283352 0.000000
0.405699 0.276686 0.000000
0.435094 0.270019 0.000000
0.462847 0.263317 0.000000
0.489250 0.256540 0.000000
0.514517 0.249647 0.000000
0.538810 0.242593 0.000000
0.562595 0.235220 0.000000
0.587993 0.226748 0.000000
0.615409 0.216773 0.000000
0.644905 0.204841 0.000000
0.676549 0.190222 0.000000
0.710414 0.171622 0.000000
0.746580 0.146283 0.025126
0.785132 0.105551 0.036529
0.826164 0.000000 0.044794
0.869778 0.000000 0.051866
0.916084 0.000000 0.058345
0.965204 0.000000 0.064510
1.017266 0.000000 0.070523
1.072411 0.000000 0.076489
1.130789 0.000000 0.082482
1.147721 0.000000 0.084415
0.000000 0.333304 0.000000
0.000000 0.333116 0.000000
0.000000 0.332551 0.000000
0.000000 0.331613 0.000000
0.000000 0.330307 0.000000
0.169099 0.328637 0.000000
0.233284 0.326612 0.000000
0.283632 0.324237 0.000000
0.327525 0.321521 0.000000
0.363622 0.315144 0.000000
0.396531 0.308796 0.000000
0.427055 0.302473 0.000000
0.455711 0.296157 0.000000
0.482852 0.289827 0.000000
0.508734 0.283455 0.000000
0.533546 0.277014 0.000000
0.557780 0.270375 0.000000
0.583604 0.262875 0.000000
0.611424 0.254230 0.000000
0.641300 0.244175 0.000000
0.673300 0.232324 0.000000
0.707494 0.218083 0.000000
0.743963 0.200467 0.000000
0.782792 0.177609 0.005597
0.824076 0.145062 0.032533
0.867918 0.082611 0.043352
0.914431 0.000000 0.051832
0.963736 0.000000 0.059295
1.015964 0.000000 0.066235
1.071258 0.000000 0.072901
1.129768 0.000000 0.079443
1.147058 0.000000 0.081633
0.000000 0.357711 0.000000
0.000000 0.357551 0.000000
0.000000 0.357072 0.000000
0.000000 0.356276 0.000000
0.000000 0.355165 0.000000
0.123908 0.353745 0.000000
0.207193 0.352020 0.000000
0.263220 0.349994 0.000000
0.309908 0.347674 0.000000
0.351508 0.345065 0.000000
0.386134 0.338980 0.000000
0.417964 0.332920 0.000000
0.447653 0.326882 0.000000
0.475633 0.320857 0.000000
0.502210 0.314828 0.000000
0.527608 0.308777 0.000000
0.552349 0.302593 0.000000
0.578651 0.295680 0.000000
0.606926 0.287815 0.000000
0.637230 0.278818 0.000000
0.669630 0.268439 0.000000
0.704195 0.256319 0.000000
0.741005 0.241921 0.000000
0.780147 0.224380 0.000000
0.821715 0.202149 0.000000
0.865815 0.171929 0.028280
0.912560 0.123235 0.042392
0.962074 0.000000 0.052342
1.014490 0.000000 0.060777
1.069952 0.000000 0.068467
1.128611 0.000000 0.075764
1.146307 0.000000 0.078289
0.000000 0.381054 0.000000
0.000000 0.380916 0.000000
0.000000 0.380503 0.000000
0.000000 0.379815 0.000000
0.000000 0.378856 0.000000
0.000000 0.377627 0.000000
0.174428 0.376133 0.000000
0.240189 0.374377 0.000000
0.290927 0.372364 0.000000
0.334765 0.370098 0.000000
0.374447 0.367584 0.000000
0.407792 0.361748 0.000000
0.438658 0.355934 0.000000
0.467586 0.350141 0.000000
0.494944 0.344362 0.000000
0.520997 0.338585 0.000000
0.546303 0.332713 0.000000
0.573139 0.326191 0.000000
0.601918 0.318834 0.000000
0.632699 0.310508 0.000000
0.665543 0.301034 0.000000
0.700520 0.290166 0.000000
0.737709 0.277552 0.000000
0.777198 0.262668 0.000000
0.819082 0.244687 0.000000
0.863469 0.222177 0.000000
0.910473 0.192224 0.024293
0.960220 0.146685 0.042253
1.012845 0.000000 0.053582
1.068493 0.000000 0.062907
1.127320 0.000000 0.071289
1.145469 0.000000 0.074264
0.000000 0.403480 0.000000
0.000000 0.403359 0.000000
0.000000 0.402998 0.000000
0.000000 0.402396 0.000000
0.000000 0.401555 0.000000
0.000000 0.400478 0.000000
0.126337 0.399167 0.000000
0.213062 0.397625 0.000000
0.269995 0.395856 0.000000
0.316913 0.393863 0.000000
0.358442 0.391648 0.000000
0.396484 0.389217 0.000000
0.428701 0.383599 0.000000
0.458699 0.378000 0.000000
0.486930 0.372419 0.000000
0.513712 0.366853 0.000000
0.539644 0.361211 0.000000
0.567068 0.354971 0.000000
0.596405 0.347970 0.000000
0.627709 0.340106 0.000000
0.661041 0.331241 0.000000
0.696471 0.321191 0.000000
0.734077 0.309704 0.000000
0.773947 0.296418 0.000000
0.816180 0.280801 0.000000
0.860882 0.262015 0.000000
0.908171 0.238625 0.000000
0.958174 0.207772 0.021816
1.011029 0.161825 0.043244
1.066883 0.000000 0.055688
1.125894 0.000000 0.065765
1.144542 0.000000 0.069375
0.000000 0.425104 0.000000
0.000000 0.424997 0.000000
0.000000 0.424677 0.000000
0.000000 0.424144 0.000000
0.000000 0.423399 0.000000
0.000000 0.422444 0.000000
0.000000 0.421281 0.000000
0.178778 0.419912 0.000000
0.246229 0.418341 0.000000
0.297536 0.416568 0.000000
0.341511 0.414598 0.000000
0.381114 0.412434 0.000000
0.417733 0.410076 0.000000
0.448945 0.404650 0.000000
0.478154 0.399240 0.000000
0.505745 0.393847 0.000000
0.532368 0.388388 0.000000
0.560438 0.382365 0.000000
0.590386 0.375632 0.000000
0.622262 0.368105 0.000000
0.656127 0.359675 0.000000
0.692050 0.350200 0.000000
0.730111 0.339484 0.000000
0.770397 0.327260 0.000000
0.813008 0.313147 0.000000
0.858054 0.296580 0.000000
0.905654 0.276673 0.000000
0.955937 0.251905 0.000000
1.009044 0.219248 0.022613
1.065122 0.170599 0.045537
1.124334 0.000000 0.058724
1.143527 0.000000 0.063306
0.000000 0.446018 0.000000
0.000000 0.445923 0.000000
0.000000 0.445636 0.000000
0.000000 0.445159 0.000000
0.000000 0.444493 0.000000
0.000000 0.443638 0.000000
0.000000 0.442597 0.000000
0.127876 0.441371 0.000000
0.218100 0.439962 0.000000
0.276053 0.438372 0.000000
0.323348 0.436604 0.000000
0.364956 0.434659 0.000000
0.402917 0.432541 0.000000
0.438284 0.430251 0.000000
0.468593 0.424995 0.000000
0.497083 0.419754 0.000000
0.524467 0.414451 0.000000
0.553247 0.408605 0.000000
0.583860 0.402085 0.000000
0.616359 0.394818 0.000000
0.650802 0.386716 0.000000
0.687260 0.377664 0.000000
0.725812 0.367506 0.000000
0.766549 0.356034 0.000000
0.809570 0.342958 0.000000
0.854988 0.327863 0.000000
0.902924 0.310132 0.000000
0.953510 0.288793 0.000000
1.006889 0.262157 0.000000
1.063211 0.226805 0.026911
1.122640 0.173200 0.049126
1.142425 0.130958 0.055446
0.000000 0.466298 0.000000
0.000000 0.466212 0.000000
0.000000 0.465953 0.000000
0.000000 0.465523 0.000000
0.000000 0.464922 0.000000
0.000000 0.464151 0.000000
0.000000 0.463211 0.000000
0.000000 0.462104 0.000000
0.182368 0.460831 0.000000
0.251561 0.459394 0.000000
0.303542 0.457795 0.000000
0.347774 0.456035 0.000000
0.387420 0.454117 0.000000
0.423959 0.452043 0.000000
0.458212 0.449814 0.000000
0.487704 0.444711 0.000000
0.515929 0.439546 0.000000
0.545486 0.433854 0.000000
0.576825 0.427511 0.000000
0.609999 0.420456 0.000000
0.645067 0.412613 0.000000
0.682102 0.403887 0.000000
0.721183 0.394151 0.000000
0.762404 0.383237 0.000000
0.805866 0.370915 0.000000
0.851684 0.356863 0.000000
0.899982 0.340620 0.000000
0.950894 0.321495 0.000000
1.004565 0.298382 0.000000
1.061150 0.269330 0.000000
1.120813 0.230241 0.033302
1.141235 0.204174 0.044254
0.000000 0.486006 0.000000
0.000000 0.485928 0.000000
0.000000 0.485693 0.000000
0.000000 0.485302 0.000000
0.000000 0.484757 0.000000
0.000000 0.484056 0.000000
0.000000 0.483202 0.000000
0.000000 0.482195 0.000000
0.128687 0.481037 0.000000
0.222470 0.479729 0.000000
0.281504 0.478273 0.000000
0.329267 0.476670 0.000000
0.371055 0.474923 0.000000
0.409035 0.473031 0.000000
0.444324 0.470998 0.000000
0.477579 0.468825 0.000000
0.506735 0.463788 0.000000
0.537144 0.458234 0.000000
0.569274 0.452046 0.000000
0.603178 0.445170 0.000000
0.638921 0.437540 0.000000
0.676575 0.429075 0.000000
0.716225 0.419671 0.000000
0.757964 0.409187 0.000000
0.801898 0.397435 0.000000
0.848144 0.384157 0.000000
0.896828 0.368992 0.000000
0.948089 0.351414 0.000000
1.002073 0.330629 0.000000
1.058939 0.305344 0.000000
1.118853 0.273204 0.000000
1.139957 0.252312 0.021097
0.000000 0.505473 0.000000
0.000000 0.505401 0.000000
0.000000 0.505188 0.000000
0.000000 0.504831 0.000000
0.000000 0.504333 0.000000
0.000000 0.503693 0.000000
0.000000 0.502913 0.000000
0.000000 0.501993 0.000000
0.000000 0.500935 0.000000
0.184704 0.499740 0.000000
0.255906 0.498408 0.000000
0.308709 0.496942 0.000000
0.353326 0.495342 0.000000
0.393128 0.493610 0.000000
0.429690 0.491747 0.000000
0.463882 0.489756 0.000000
0.496708 0.487604 0.000000
0.528069 0.482181 0.000000
0.561074 0.476135 0.000000
0.595782 0.469419 0.000000
0.632262 0.461974 0.000000
0.670591 0.453730 0.000000
0.710856 0.444597 0.000000
0.753157 0.434460 0.000000
0.797602 0.423160 0.000000
0.844311 0.410485 0.000000
0.893414 0.396144 0.000000
0.945051 0.379720 0.000000
0.999374 0.360609 0.000000
1.056544 0.337878 0.000000
1.116730 0.309971 0.000000
1.138572 0.291711 0.000000
0.000000 0.526423 0.000000
0.000000 0.526358 0.000000
0.000000 0.526164 0.000000
0.000000 0.525839 0.000000
0.000000 0.525386 0.000000
0.000000 0.524804 0.000000
0.000000 0.524094 0.000000
0.000000 0.523256 0.000000
0.000000 0.522292 0.000000
0.117418 0.521203 0.000000
0.221670 0.519989 0.000000
0.283136 0.518652 0.000000
0.332030 0.517192 0.000000
0.374421 0.515612 0.000000
0.412725 0.513911 0.000000
0.448171 0.512092 0.000000
0.481953 0.510126 0.000000
0.517295 0.507814 0.000000
0.551364 0.501915 0.000000
0.587040 0.495358 0.000000
0.624401 0.488093 0.000000
0.663532 0.480056 0.000000
0.704528 0.471174 0.000000
0.747493 0.461346 0.000000
0.792540 0.450442 0.000000
0.839794 0.438288 0.000000
0.889389 0.424645 0.000000
0.941470 0.409181 0.000000
0.996192 0.391426 0.000000
1.053719 0.370682 0.000000
1.114225 0.345860 0.000000
1.136935 0.329285 0.000000
0.000000 0.549199 0.000000
0.000000 0.549140 0.000000
0.000000 0.548964 0.000000
0.000000 0.548670 0.000000
0.000000 0.548259 0.000000
0.000000 0.547731 0.000000
0.000000 0.547088 0.000000
0.000000 0.546328 0.000000
0.000000 0.545454 0.000000
0.000000 0.544465 0.000000
0.168668 0.543363 0.000000
0.249251 0.542149 0.000000
0.305374 0.540823 0.000000
0.351713 0.539387 0.000000
0.392531 0.537841 0.000000
0.429724 0.536186 0.000000
0.464807 0.534398 0.000000
0.501233 0.532293 0.000000
0.539676 0.529784 0.000000
0.576545 0.523393 0.000000
0.614982 0.516308 0.000000
0.655087 0.508474 0.000000
0.696963 0.499827 0.000000
0.740725 0.490283 0.000000
0.786493 0.479734 0.000000
0.834398 0.468035 0.000000
0.884581 0.454993 0.000000
0.937192 0.440341 0.000000
0.992389 0.423706 0.000000
1.050342 0.404558 0.000000
1.111229 0.382103 0.000000
1.134977 0.366673 0.000000
0.000000 0.573863 0.000000
0.000000 0.573810 0.000000
0.000000 0.573650 0.000000
0.000000 0.573385 0.000000
0.000000 0.573014 0.000000
0.000000 0.572538 0.000000
0.000000 0.571956 0.000000
0.000000 0.571270 0.000000
0.000000 0.570480 0.000000
0.000000 0.569587 0.000000
0.000000 0.568590 0.000000
0.199448 0.567492 0.000000
0.270410 0.566292 0.000000
0.323364 0.564992 0.000000
0.368030 0.563592 0.000000
0.407762 0.562093 0.000000
0.444672 0.560472 0.000000
0.482582 0.558564 0.000000
0.522260 0.556289 0.000000
0.563912 0.553576 0.000000
0.603677 0.546676 0.000000
0.644969 0.539044 0.000000
0.687912 0.530624 0.000000
0.732634 0.521344 0.000000
0.779268 0.511115 0.000000
0.827953 0.499818 0.000000
0.878838 0.487294 0.000000
0.932080 0.473328 0.000000
0.987845 0.457626 0.000000
1.046307 0.439772 0.000000
1.107649 0.419172 0.000000
1.132632 0.404532 0.000000
0.000000 0.600479 0.000000
0.000000 0.600431 0.000000
0.000000 0.600288 0.000000
0.000000 0.600049 0.000000
0.000000 0.599716 0.000000
0.000000 0.599287 0.000000
0.000000 0.598763 0.000000
0.000000 0.598146 0.000000
0.000000 0.597434 0.000000
0.000000 0.596629 0.000000
0.000000 0.595732 0.000000
0.088274 0.594741 0.000000
0.220022 0.593660 0.000000
0.286267 0.592487 0.000000
0.337412 0.591224 0.000000
0.381065 0.589871 0.000000
0.420657 0.588407 0.000000
0.460670 0.586683 0.000000
0.502051 0.584627 0.000000
0.545097 0.582174 0.000000
0.590067 0.579252 0.000000
0.632826 0.571826 0.000000
0.677072 0.563629 0.000000
0.722957 0.554600 0.000000
0.770632 0.544665 0.000000
0.820253 0.533726 0.000000
0.871979 0.521653 0.000000
0.925975 0.508271 0.000000
0.982417 0.493346 0.000000
1.041486 0.476550 0.000000
1.103371 0.457427 0.000000
1.129827 0.443328 0.000000
0.000000 0.629114 0.000000
0.000000 0.629071 0.000000
0.000000 0.628942 0.000000
0.000000 0.628728 0.000000
0.000000 0.628429 0.000000
0.000000 0.628044 0.000000
0.000000 0.627574 0.000000
0.000000 0.627020 0.000000
0.000000 0.626381 0.000000
0.000000 0.625658 0.000000
0.000000 0.624852 0.000000
0.000000 0.623962 0.000000
0.120073 0.622990 0.000000
0.232915 0.621935 0.000000
0.297183 0.620799 0.000000
0.347546 0.619581 0.000000
0.391348 0.618264 0.000000
0.434486 0.616712 0.000000
0.478298 0.614859 0.000000
0.523276 0.612649 0.000000
0.569805 0.610014 0.000000
0.618205 0.606874 0.000000
0.664060 0.598904 0.000000
0.711366 0.590122 0.000000
0.760305 0.580464 0.000000
0.811052 0.569850 0.000000
0.863785 0.558174 0.000000
0.918684 0.545294 0.000000
0.975935 0.531021 0.000000
1.035727 0.515096 0.000000
1.098260 0.497163 0.000000
1.126469 0.483423 0.000000
0.000000 0.659836 0.000000
0.000000 0.659797 0.000000
0.000000 0.659682 0.000000
0.000000 0.659491 0.000000
0.000000 0.659223 0.000000
0.000000 0.658879 0.000000
0.000000 0.658458 0.000000
0.000000 0.657962 0.000000
0.000000 0.657390 0.000000
0.000000 0.656742 0.000000
0.000000 0.656020 0.000000
0.000000 0.655222 0.000000
0.000000 0.654351 0.000000
0.127409 0.653405 0.000000
0.238633 0.652386 0.000000
0.303052 0.651294 0.000000
0.354253 0.650111 0.000000
0.402390 0.648718 0.000000
0.449858 0.647054 0.000000
0.497616 0.645068 0.000000
0.546317 0.642699 0.000000
0.596447 0.639875 0.000000
0.648394 0.636510 0.000000
0.697456 0.627977 0.000000
0.747937 0.618589 0.000000
0.800048 0.608279 0.000000
0.853995 0.596959 0.000000
0.909977 0.584516 0.000000
0.968194 0.570797 0.000000
1.028850 0.555596 0.000000
1.092156 0.538631 0.000000
1.122451 0.525115 0.000000
0.000000 0.692719 0.000000
0.000000 0.692685 0.000000
0.000000 0.692582 0.000000
0.000000 0.692411 0.000000
0.000000 0.692172 0.000000
0.000000 0.691864 0.000000
0.000000 0.691489 0.000000
0.000000 0.691045 0.000000
0.000000 0.690534 0.000000
0.000000 0.689956 0.000000
0.000000 0.689310 0.000000
0.000000 0.688597 0.000000
0.000000 0.687818 0.000000
0.000000 0.686972 0.000000
0.112952 0.686060 0.000000
0.236509 0.685083 0.000000
0.304188 0.684024 0.000000
0.361424 0.682777 0.000000
0.414851 0.681286 0.000000
0.466836 0.679506 0.000000
0.518684 0.677382 0.000000
0.571234 0.674849 0.000000
0.625088 0.671829 0.000000
0.680707 0.668231 0.000000
0.733094 0.659114 0.000000
0.786872 0.649097 0.000000
0.842288 0.638109 0.000000
0.899573 0.626056 0.000000
0.958949 0.612816 0.000000
1.020639 0.598223 0.000000
1.084867 0.582054 0.000000
1.117642 0.568662 0.000000
0.000000 0.727842 0.000000
0.000000 0.727812 0.000000
0.000000 0.727720 0.000000
0.000000 0.727568 0.000000
0.000000 0.727354 0.000000
0.000000 0.727080 0.000000
0.000000 0.726746 0.000000
0.000000 0.726351 0.000000
0.000000 0.725895 0.000000
0.000000 0.725379 0.000000
0.000000 0.724803 0.000000
0.000000 0.724167 0.000000
0.000000 0.723472 0.000000
0.000000 0.722717 0.000000
0.000000 0.721903 0.000000
0.000000 0.721030 0.000000
0.225755 0.720085 0.000000
0.305124 0.718970 0.000000
0.369801 0.717638 0.000000
0.428800 0.716047 0.000000
0.485479 0.714147 0.000000
0.541559 0.711880 0.000000
0.598090 0.709175 0.000000
0.655797 0.705952 0.000000
0.715221 0.702112 0.000000
0.771061 0.692390 0.000000
0.828271 0.681720 0.000000
0.887133 0.670026 0.000000
0.947904 0.657210 0.000000
1.010833 0.643138 0.000000
1.076163 0.627633 0.000000
1.111887 0.614291 0.000000
0.000000 0.765291 0.000000
0.000000 0.765264 0.000000
0.000000 0.765182 0.000000
0.000000 0.765047 0.000000
0.000000 0.764857 0.000000
0.000000 0.764613 0.000000
0.000000 0.764316 0.000000
0.000000 0.763964 0.000000
0.000000 0.763558 0.000000
0.000000 0.763099 0.000000
0.000000 0.762586 0.000000
0.000000 0.762020 0.000000
0.000000 0.761401 0.000000
0.000000 0.760728 0.000000
0.000000 0.760003 0.000000
0.000000 0.759225 0.000000
0.000000 0.758383 0.000000
0.211671 0.757388 0.000000
0.306733 0.756200 0.000000
0.379460 0.754781 0.000000
0.444296 0.753085 0.000000
0.505844 0.751060 0.000000
0.566300 0.748644 0.000000
0.626948 0.745763 0.000000
0.688646 0.742328 0.000000
0.752021 0.738237 0.000000
0.811451 0.727885 0.000000
0.872240 0.716535 0.000000
0.934700 0.704107 0.000000
0.999119 0.690493 0.000000
1.065769 0.675554 0.000000
1.104998 0.662213 0.000000
0.000000 0.805158 0.000000
0.000000 0.805134 0.000000
0.000000 0.805062 0.000000
0.000000 0.804941 0.000000
0.000000 0.804773 0.000000
0.000000 0.804556 0.000000
0.000000 0.804292 0.000000
0.000000 0.803979 0.000000
0.000000 0.803619 0.000000
0.000000 0.803211 0.000000
0.000000 0.802755 0.000000
0.000000 0.802251 0.000000
0.000000 0.801701 0.000000
0.000000 0.801103 0.000000
0.000000 0.800457 0.000000
0.000000 0.799765 0.000000
0.000000 0.799015 0.000000
0.000000 0.798131 0.000000
0.194464 0.797073 0.000000
0.309098 0.795808 0.000000
0.390473 0.794297 0.000000
0.461397 0.792493 0.000000
0.527984 0.790338 0.000000
0.592966 0.787767 0.000000
0.657877 0.784701 0.000000
0.723716 0.781047 0.000000
0.791197 0.776695 0.000000
0.854368 0.765687 0.000000
0.918891 0.753628 0.000000
0.985114 0.740433 0.000000
1.053354 0.725987 0.000000
1.096747 0.712619 0.000000
0.000000 0.847544 0.000000
0.000000 0.847522 0.000000
0.000000 0.847458 0.000000
0.000000 0.847351 0.000000
0.000000 0.847202 0.000000
0.000000 0.847010 0.000000
0.000000 0.846775 0.000000
0.000000 0.846498 0.000000
0.000000 0.846178 0.000000
0.000000 0.845815 0.000000
0.000000 0.845411 0.000000
0.000000 0.844964 0.000000
0.000000 0.844475 0.000000
0.000000 0.843944 0.000000
0.000000 0.843371 0.000000
0.000000 0.842756 0.000000
0.000000 0.842089 0.000000
0.000000 0.841303 0.000000
0.000000 0.840362 0.000000
0.172380 0.839238 0.000000
