assets/resources/wfx_effect/nle_default/BaseFilter/HLGDCICube/Data/HDR_HLGDCI.cube
#Copyright: (C)Copyright 2024 Wondershare Inc.
#Created by: BIAOZHOU.
LUT_3D_SIZE 8
DOMAIN_MIN 0.000000 0.000000 0.000000
DOMAIN_MAX 0.903226 0.903226 0.903226
0.000000 0.000000 0.000000
0.251674 0.000000 0.020275
0.381466 0.000000 0.030731
0.486531 0.000000 0.039195
0.578513 0.000000 0.046605
0.687247 0.000000 0.055365
0.833014 0.000000 0.067108
1.021530 0.000000 0.082295
0.000000 0.219899 0.000000
0.216086 0.212125 0.000000
0.367770 0.178445 0.000000
0.478712 0.138357 0.000000
0.573278 0.052822 0.028738
0.683739 0.000000 0.045364
0.830772 0.000000 0.061192
1.020136 0.000000 0.078749
0.000000 0.333304 0.000000
0.000000 0.330307 0.000000
0.327525 0.321521 0.000000
0.455711 0.296157 0.000000
0.557780 0.270375 0.000000
0.673300 0.232324 0.000000
0.824076 0.145062 0.032533
1.015964 0.000000 0.066235
0.000000 0.425104 0.000000
0.000000 0.423399 0.000000
0.246229 0.418341 0.000000
0.417733 0.410076 0.000000
0.532368 0.388388 0.000000
0.656127 0.359675 0.000000
0.813008 0.313147 0.000000
1.009044 0.219248 0.022613
0.000000 0.505473 0.000000
0.000000 0.504333 0.000000
0.000000 0.500935 0.000000
0.353326 0.495342 0.000000
0.496708 0.487604 0.000000
0.632262 0.461974 0.000000
0.797602 0.423160 0.000000
0.999374 0.360609 0.000000
0.000000 0.600479 0.000000
0.000000 0.599716 0.000000
0.000000 0.597434 0.000000
0.220022 0.593660 0.000000
0.420657 0.588407 0.000000
0.590067 0.579252 0.000000
0.770632 0.544665 0.000000
0.982417 0.493346 0.000000
0.000000 0.727842 0.000000
0.000000 0.727354 0.000000
0.000000 0.725895 0.000000
0.000000 0.723472 0.000000
0.225755 0.720085 0.000000
0.485479 0.714147 0.000000
0.715221 0.702112 0.000000
0.947904 0.657210 0.000000
0.000000 0.892557 0.000000
0.000000 0.892254 0.000000
0.000000 0.891346 0.000000
0.000000 0.889835 0.000000
0.000000 0.887719 0.000000
0.141300 0.883993 0.000000
0.577811 0.876394 0.000000
0.877080 0.861004 0.000000
0.000000 0.000000 0.223969
0.246401 0.000000 0.219980
0.379473 0.000000 0.196654
0.485402 0.000000 0.184417
0.577759 0.000000 0.176597
0.686743 0.000000 0.169800
0.832692 0.000000 0.163816
1.021330 0.000000 0.160193
0.000000 0.218210 0.212869
0.210515 0.210515 0.210515
0.365783 0.177174 0.192868
0.477586 0.136871 0.181911
0.572525 0.046331 0.174584
0.683235 0.000000 0.168101
0.830450 0.000000 0.162362
1.019936 0.000000 0.158949
0.000000 0.332661 0.184442
0.000000 0.329673 0.184006
0.325434 0.320909 0.182825
0.454579 0.295646 0.174630
0.557029 0.269894 0.168557
0.672797 0.231814 0.162941
0.823755 0.144158 0.157916
1.015765 0.000000 0.155142
0.000000 0.424739 0.163517
0.000000 0.423036 0.163439
0.243617 0.417985 0.163226
0.416550 0.409729 0.162936
0.531608 0.388085 0.158436
0.655624 0.359399 0.154065
0.812688 0.312869 0.150182
1.008844 0.218845 0.148506
0.000000 0.505229 0.142631
0.000000 0.504090 0.142689
0.000000 0.500695 0.142867
0.352024 0.495105 0.143173
0.495919 0.487372 0.143624
0.631754 0.461771 0.140746
0.797281 0.422976 0.138434
0.999175 0.360420 0.138432
0.000000 0.600316 0.107631
0.000000 0.599553 0.107823
0.000000 0.597273 0.108395
0.217633 0.593500 0.109332
0.419790 0.588249 0.110619
0.589539 0.579096 0.112814
0.770309 0.544532 0.113669
0.982218 0.493224 0.117502
0.000000 0.727738 0.000000
0.000000 0.727251 0.000000
0.000000 0.725791 0.000000
0.000000 0.723369 0.000000
0.223772 0.719982 0.000000
0.484883 0.714046 0.000000
0.714885 0.702013 0.000000
0.947703 0.657125 0.000000
0.000000 0.892492 0.000000
0.000000 0.892189 0.000000
0.000000 0.891281 0.000000
0.000000 0.889771 0.000000
0.000000 0.887655 0.000000
0.137650 0.883929 0.000000
0.577424 0.876331 0.000000
0.876871 0.860942 0.000000
0.000000 0.000000 0.339474
0.209815 0.000000 0.337816
0.373474 0.000000 0.333428
0.482010 0.000000 0.312283
0.575496 0.000000 0.298027
0.685230 0.000000 0.284695
0.831726 0.000000 0.271045
1.020730 0.000000 0.258447
0.000000 0.196918 0.334493
0.179146 0.191221 0.333087
0.359783 0.173313 0.329310
0.474201 0.132271 0.310099
0.570266 0.000000 0.296553
0.681723 0.000000 0.283626
0.829485 0.000000 0.270233
1.019336 0.000000 0.257793
0.000000 0.330745 0.322650
0.000000 0.327782 0.321702
0.319081 0.319081 0.319081
0.451173 0.294112 0.304054
0.554771 0.268448 0.292296
0.671288 0.230277 0.280468
0.822791 0.141391 0.267808
1.015165 0.000000 0.255827
0.000000 0.423648 0.298287
0.000000 0.421952 0.297920
0.235528 0.416919 0.296862
0.412981 0.408689 0.295232
0.529325 0.387177 0.285660
0.654113 0.358569 0.275350
0.811725 0.312032 0.263785
1.008246 0.217628 0.252532
0.000000 0.504500 0.279499
0.000000 0.503363 0.279331
0.000000 0.499976 0.278840
0.348078 0.494397 0.278063
0.493544 0.486677 0.277051
0.630227 0.461164 0.268398
0.796318 0.422425 0.258160
0.998577 0.359851 0.247857
0.000000 0.599827 0.258042
0.000000 0.599065 0.257983
0.000000 0.596788 0.257809
0.210207 0.593019 0.257530
0.417173 0.587775 0.257162
0.587953 0.578631 0.256574
0.769337 0.544131 0.248235
0.981619 0.492858 0.239443
0.000000 0.727426 0.226891
0.000000 0.726939 0.226899
0.000000 0.725480 0.226925
0.000000 0.723060 0.226971
0.217650 0.719675 0.227039
0.483089 0.713742 0.227172
0.713873 0.701716 0.227490
0.947101 0.656871 0.221327
0.000000 0.892298 0.171356
0.000000 0.891995 0.171421
0.000000 0.891088 0.171616
0.000000 0.889578 0.171939
0.000000 0.887462 0.172390
0.125649 0.883738 0.173182
0.576260 0.876142 0.174785
0.876242 0.860758 0.177981
0.000000 0.000000 0.432973
0.174355 0.000000 0.432016
0.344248 0.000000 0.429307
0.476338 0.000000 0.425262
0.571718 0.000000 0.405917
0.682705 0.000000 0.387452
0.830116 0.000000 0.368009
1.019729 0.000000 0.349096
0.000000 0.180395 0.430039
0.139560 0.175258 0.429153
0.332703 0.158621 0.426637
0.468535 0.124056 0.422856
0.566493 0.000000 0.404418
0.679201 0.000000 0.386469
0.827875 0.000000 0.367346
1.018336 0.000000 0.348612
0.000000 0.313364 0.422223
0.000000 0.310945 0.421502
0.296130 0.303693 0.419438
0.445455 0.291553 0.416288
0.550998 0.266024 0.400143
0.668770 0.227686 0.383595
0.821184 0.136585 0.365374
1.014166 0.000000 0.347164
0.000000 0.421840 0.411515
0.000000 0.420155 0.410972
0.221063 0.415153 0.409401
0.406963 0.406963 0.406963
0.525502 0.385665 0.393634
0.651590 0.357183 0.379020
0.810119 0.310632 0.362149
1.007248 0.215576 0.344762
0.000000 0.503288 0.389603
0.000000 0.502155 0.389324
0.000000 0.498780 0.388505
0.341363 0.493220 0.387200
0.489560 0.485522 0.385477
0.627677 0.460154 0.372972
0.794710 0.421506 0.357726
0.997580 0.358900 0.341404
0.000000 0.599014 0.366605
0.000000 0.598254 0.366471
0.000000 0.595982 0.366074
0.196835 0.592221 0.365431
0.412762 0.586986 0.364562
0.585299 0.577857 0.363123
0.767716 0.543464 0.350175
0.980622 0.492248 0.335511
0.000000 0.726906 0.337745
0.000000 0.726420 0.337697
0.000000 0.724963 0.337553
0.000000 0.722545 0.337317
0.206800 0.719164 0.336996
0.480078 0.713237 0.336453
0.712184 0.701221 0.335431
0.946095 0.656448 0.323502
0.000000 0.891975 0.298737
0.000000 0.891672 0.298736
0.000000 0.890765 0.298731
0.000000 0.889257 0.298725
0.000000 0.887142 0.298717
0.100127 0.883420 0.298709
0.574312 0.875828 0.298711
0.875194 0.860450 0.298786
0.000000 0.000000 0.514830
0.126202 0.000000 0.514186
0.317925 0.000000 0.512320
0.450760 0.000000 0.509403
0.566393 0.000000 0.505660
0.679151 0.000000 0.482780
0.827850 0.000000 0.458323
1.018323 0.000000 0.434037
0.000000 0.165569 0.512843
0.055276 0.160516 0.512227
0.307051 0.143824 0.510439
0.443965 0.106977 0.507640
0.561172 0.000000 0.504036
0.675650 0.000000 0.481770
0.825611 0.000000 0.457694
1.016930 0.000000 0.433617
0.000000 0.298421 0.507288
0.000000 0.296277 0.506744
0.271440 0.289789 0.505160
0.423349 0.278745 0.502664
0.545667 0.262582 0.499427
0.665222 0.223978 0.478830
0.818922 0.129348 0.455829
1.012761 0.000000 0.432363
0.000000 0.406630 0.499121
0.000000 0.405179 0.498667
0.192282 0.400837 0.497341
0.387594 0.393633 0.495237
0.520090 0.383540 0.492479
0.648034 0.355228 0.474193
0.807859 0.308650 0.452798
1.005844 0.212641 0.430292
0.000000 0.501592 0.489315
0.000000 0.500466 0.488950
0.000000 0.497107 0.487880
0.331607 0.491572 0.486169
0.483903 0.483902 0.483903
0.624079 0.458733 0.468143
0.792447 0.420212 0.448685
0.996177 0.357558 0.427417
0.000000 0.597875 0.463402
0.000000 0.597117 0.463215
0.000000 0.594851 0.462659
0.175200 0.591101 0.461757
0.406450 0.585879 0.460534
0.581548 0.576770 0.458493
0.765432 0.542526 0.441774
0.979219 0.491389 0.422429
0.000000 0.726177 0.432718
0.000000 0.725691 0.432636
0.000000 0.724237 0.432391
0.000000 0.721822 0.431990
0.189828 0.718447 0.431438
0.475801 0.712528 0.430496
0.709802 0.700526 0.428685
0.944681 0.655854 0.412491
0.000000 0.891521 0.395460
0.000000 0.891218 0.395434
0.000000 0.890312 0.395356
0.000000 0.888805 0.395227
0.000000 0.886692 0.395048
0.000000 0.882973 0.394740
0.571558 0.875386 0.394137
0.873719 0.860018 0.393016
0.000000 0.000000 0.611594
0.000000 0.000000 0.611162
0.283066 0.000000 0.609890
0.420224 0.000000 0.607849
0.536156 0.000000 0.605130
0.672849 0.000000 0.600702
0.823838 0.000000 0.570409
1.015834 0.000000 0.539830
0.000000 0.145587 0.610254
0.000000 0.140183 0.609833
0.271935 0.121694 0.608592
0.414009 0.073552 0.606599
0.531621 0.000000 0.603942
0.669351 0.000000 0.599608
0.821601 0.000000 0.569767
1.014442 0.000000 0.539436
0.000000 0.281283 0.606396
0.000000 0.279316 0.606004
0.233998 0.273325 0.604849
0.394830 0.263013 0.602990
0.517946 0.247681 0.600503
0.658926 0.217217 0.596431
0.814916 0.114725 0.567869
1.010275 0.000000 0.538264
0.000000 0.388757 0.600438
0.000000 0.387486 0.600088
0.133361 0.383663 0.599054
0.360545 0.377260 0.597384
0.494795 0.368169 0.595142
0.641714 0.351756 0.591448
0.803855 0.305109 0.564800
1.003360 0.207295 0.536334
0.000000 0.483612 0.592882
0.000000 0.482642 0.592579
0.000000 0.479737 0.591680
0.304476 0.474910 0.590224
0.461016 0.468147 0.588260
0.617675 0.456222 0.585000
0.788435 0.417916 0.560665
0.993695 0.355170 0.533670
0.000000 0.595869 0.581284
0.000000 0.595115 0.581039
0.000000 0.592860 0.580315
0.120496 0.589128 0.579136
0.394948 0.583929 0.577536
0.574854 0.574854 0.574854
0.761381 0.540867 0.553798
0.976734 0.489867 0.529088
0.000000 0.724890 0.546820
0.000000 0.724405 0.546704
0.000000 0.722955 0.546359
0.000000 0.720547 0.545792
0.151900 0.717181 0.545010
0.468103 0.711276 0.543671
0.705571 0.699299 0.541076
0.942175 0.654802 0.520109
0.000000 0.890719 0.507658
0.000000 0.890417 0.507611
0.000000 0.889512 0.507470
0.000000 0.888007 0.507236
0.000000 0.885897 0.506912
0.000000 0.882183 0.506349
0.566642 0.874606 0.505231
0.871104 0.859254 0.503093
0.000000 0.000000 0.741315
0.000000 0.000000 0.741039
0.219306 0.000000 0.740217
0.375853 0.000000 0.738876
0.495115 0.000000 0.737045
0.632318 0.000000 0.733954
0.815562 0.000000 0.728112
1.010706 0.000000 0.689220
0.000000 0.106898 0.740455
0.000000 0.099063 0.740182
0.204845 0.065868 0.739372
0.369743 0.000000 0.738048
0.491004 0.000000 0.736241
0.629327 0.000000 0.733187
0.813327 0.000000 0.727411
1.009315 0.000000 0.688822
0.000000 0.258201 0.737932
0.000000 0.256318 0.737670
0.147234 0.250554 0.736891
0.350584 0.240532 0.735617
0.478473 0.225389 0.733875
0.620322 0.194337 0.730930
0.806648 0.067521 0.725344
1.005152 0.000000 0.687635
0.000000 0.365567 0.733902
0.000000 0.364430 0.733656
0.000000 0.360998 0.732924
0.315106 0.355210 0.731725
0.456829 0.346914 0.730085
0.605190 0.331717 0.727304
0.795584 0.297663 0.722013
0.998241 0.195586 0.685689
0.000000 0.459692 0.728566
0.000000 0.458855 0.728339
0.000000 0.456338 0.727665
0.252690 0.452132 0.726560
0.424364 0.446187 0.725045
0.583564 0.435568 0.722470
0.780142 0.413164 0.717547
0.988578 0.350191 0.683013
0.000000 0.571755 0.719925
0.000000 0.571116 0.719727
0.000000 0.569203 0.719137
0.000000 0.566018 0.718168
0.357962 0.561549 0.716837
0.543853 0.553662 0.714565
0.752993 0.537454 0.710192
0.971611 0.486723 0.678443
0.000000 0.722254 0.704576
0.000000 0.721772 0.704419
0.000000 0.720330 0.703954
0.000000 0.717935 0.703187
0.000000 0.714586 0.702130
0.451683 0.708709 0.700315
0.696782 0.696782 0.696782
0.937005 0.652639 0.669607
0.000000 0.889074 0.660206
0.000000 0.888772 0.660136
0.000000 0.887870 0.659925
0.000000 0.886369 0.659575
0.000000 0.884266 0.659090
0.000000 0.880562 0.658245
0.556334 0.873004 0.656560
0.865699 0.857685 0.653307
0.000000 0.000000 0.909078
0.000000 0.000000 0.908907
0.000000 0.000000 0.908393
0.301295 0.000000 0.907546
0.436484 0.000000 0.906374
0.578882 0.000000 0.904350
0.763145 0.000000 0.900374
1.000128 0.000000 0.892887
0.000000 0.000000 0.908543
0.000000 0.000000 0.908372
0.000000 0.000000 0.907862
0.294011 0.000000 0.907021
0.432389 0.000000 0.905856
0.576159 0.000000 0.903846
0.761250 0.000000 0.899894
0.998739 0.000000 0.892451
0.000000 0.224734 0.906954
0.000000 0.222756 0.906787
0.000000 0.216659 0.906287
0.270341 0.205885 0.905463
0.419784 0.189119 0.904321
0.567915 0.152049 0.902348
0.755556 0.000000 0.898469
0.994580 0.000000 0.891153
0.000000 0.335920 0.904365
0.000000 0.334851 0.904202
0.000000 0.331619 0.903719
0.221795 0.326140 0.902921
0.397567 0.318229 0.901815
0.553895 0.303563 0.899904
0.746025 0.269857 0.896140
0.987673 0.167338 0.889028
0.000000 0.429821 0.900839
0.000000 0.429072 0.900684
0.000000 0.426818 0.900222
0.078811 0.423036 0.899458
0.363070 0.417660 0.898399
0.533512 0.407973 0.896569
0.732528 0.387207 0.892958
0.978009 0.339657 0.886115
0.000000 0.540952 0.894905
0.000000 0.540403 0.894762
0.000000 0.538755 0.894333
0.000000 0.536003 0.893624
0.286513 0.532121 0.892640
0.495085 0.525216 0.890937
0.708303 0.510824 0.887570
0.961021 0.480204 0.881161
0.000000 0.691064 0.883729
0.000000 0.690660 0.883604
0.000000 0.689450 0.883231
0.000000 0.687433 0.882615
0.000000 0.684601 0.881760
0.400840 0.679599 0.880274
0.656446 0.669325 0.877325
0.926299 0.648188 0.871668
0.000000 0.885704 0.864025
0.000000 0.885405 0.863928
0.000000 0.884508 0.863637
0.000000 0.883016 0.863156
0.000000 0.880924 0.862486
0.000000 0.877240 0.861320
0.534231 0.869720 0.858990
0.854468 0.854468 0.854468
