assets/configs/ColorAnd3dLutPreset/lutDefault/60_lut_Gravity/Data/Gravity.CUBE
#Created by: Adobe Photoshop Export Color Lookup Plugin
#Copyright: (C) Copyright 2016 Wondershare Inc.
TITLE "Space Film-Gravity"
#LUT size
LUT_3D_SIZE 32
#data domain
DOMAIN_MIN 0.0 0.0 0.0
DOMAIN_MAX 1.0 1.0 1.0
#LUT data points
0.001068 0.001221 0.006683
0.009430 0.001007 0.001007
0.018890 0.002045 0.002045
0.033447 0.003876 0.003876
0.060364 0.007721 0.007721
0.087799 0.011688 0.011688
0.116547 0.015869 0.015869
0.145569 0.020081 0.020081
0.175049 0.024323 0.024323
0.204620 0.028625 0.028625
0.230835 0.032379 0.032379
0.256989 0.036102 0.036102
0.285156 0.040192 0.040192
0.314606 0.044464 0.044464
0.347046 0.049225 0.049225
0.380737 0.054169 0.054169
0.412720 0.058838 0.058838
0.444824 0.063568 0.063568
0.478271 0.068481 0.068481
0.512939 0.073608 0.073608
0.547211 0.078674 0.078674
0.579346 0.083405 0.083405
0.610229 0.087891 0.087891
0.641510 0.092499 0.092499
0.673950 0.097229 0.097229
0.706116 0.101959 0.101959
0.737793 0.106567 0.106567
0.768829 0.111084 0.111084
0.802399 0.116058 0.116058
0.835144 0.120850 0.120850
0.853912 0.123383 0.123383
0.873566 0.126068 0.126068
0.003815 0.026733 0.009155
0.009735 0.011414 0.001312
0.018890 0.010468 0.002045
0.031464 0.011963 0.003571
0.059326 0.015991 0.007599
0.086365 0.019867 0.011444
0.114563 0.023987 0.015533
0.143402 0.028137 0.019714
0.171631 0.032196 0.023773
0.200775 0.036407 0.028015
0.228943 0.040497 0.032074
0.254547 0.044159 0.035736
0.282776 0.048218 0.039795
0.312225 0.052490 0.044067
0.343475 0.057068 0.048645
0.377319 0.062073 0.053650
0.410583 0.066925 0.058533
0.442719 0.071625 0.063232
0.476837 0.076691 0.068268
0.511963 0.081879 0.073456
0.547333 0.087128 0.078705
0.579498 0.091827 0.083405
0.611633 0.096527 0.088135
0.643921 0.101257 0.092865
0.676636 0.106110 0.097656
0.707794 0.110657 0.102203
0.739380 0.115234 0.106812
0.771118 0.119873 0.111481
0.801727 0.124329 0.115936
0.834137 0.129150 0.120697
0.853638 0.131775 0.123352
0.873444 0.134460 0.126068
0.007477 0.052368 0.012482
0.013550 0.037903 0.005157
0.019440 0.022278 0.002594
0.028320 0.019897 0.003052
0.057770 0.024200 0.007324
0.085510 0.028168 0.011322
0.113007 0.032135 0.015289
0.141327 0.036224 0.019379
0.169342 0.040253 0.023438
0.197388 0.044312 0.027435
0.224976 0.048279 0.031433
0.252747 0.052307 0.035431
0.280334 0.056244 0.039398
0.309662 0.060516 0.043640
0.340820 0.065063 0.048187
0.373505 0.069855 0.052979
0.407166 0.074768 0.057983
0.440308 0.079681 0.062836
0.474731 0.084778 0.067902
0.509979 0.089935 0.073120
0.545654 0.095276 0.078430
0.579498 0.100250 0.083405
0.611786 0.105011 0.088135
0.647186 0.110260 0.093384
0.680328 0.115112 0.098267
0.711182 0.119598 0.102783
0.742340 0.124176 0.107330
0.773529 0.128723 0.111877
0.803680 0.133118 0.116272
0.833282 0.137360 0.120575
0.852631 0.140076 0.123199
0.873291 0.142853 0.126038
0.011169 0.078278 0.016418
0.017517 0.065491 0.009125
0.023560 0.050751 0.006714
0.031006 0.044800 0.005737
0.052948 0.044922 0.006561
0.083679 0.049377 0.011047
0.111298 0.051331 0.015015
0.139343 0.053436 0.019043
0.167084 0.056641 0.023041
0.194397 0.059601 0.026978
0.221863 0.060699 0.030914
0.248596 0.060638 0.034760
0.276917 0.064117 0.038879
0.304535 0.068085 0.042816
0.335388 0.072601 0.047302
0.367249 0.077271 0.052002
0.401611 0.082306 0.057068
0.435638 0.087341 0.062073
0.470184 0.092438 0.067200
0.505676 0.097687 0.072449
0.542389 0.103149 0.077911
0.577240 0.108307 0.083038
0.609802 0.113098 0.087799
0.645355 0.118378 0.093079
0.681061 0.123688 0.098389
0.712616 0.128296 0.102997
0.743896 0.132843 0.107574
0.775055 0.137390 0.112152
0.805115 0.141785 0.116486
0.833435 0.145844 0.120575
0.852783 0.148529 0.123199
0.873444 0.151367 0.126068
0.014740 0.103180 0.021484
0.021240 0.091675 0.012848
0.027649 0.079071 0.010803
0.035004 0.072510 0.009735
0.050964 0.072235 0.009674
0.078003 0.072662 0.010101
0.109009 0.077667 0.014618
0.136932 0.079895 0.018677
0.164795 0.083557 0.022675
0.191956 0.086639 0.026581
0.218872 0.088837 0.030457
0.245361 0.090729 0.034241
0.272705 0.093597 0.038147
0.301697 0.096832 0.042358
0.330475 0.098022 0.046509
0.362457 0.098694 0.051208
0.396088 0.100189 0.056183
0.430237 0.102600 0.061188
0.465057 0.100037 0.066376
0.500488 0.105316 0.071594
0.537537 0.110809 0.077118
0.574097 0.116241 0.082550
0.607513 0.121094 0.087433
0.641357 0.126099 0.092438
0.676941 0.131409 0.097717
0.711365 0.136475 0.102783
0.743896 0.141266 0.107574
0.775208 0.145813 0.112152
0.806519 0.150391 0.116730
0.834015 0.154388 0.120667
0.854065 0.157166 0.123413
0.873871 0.159851 0.126129
0.018524 0.129822 0.026978
0.025269 0.119446 0.016846
0.031799 0.107941 0.014984
0.039185 0.101410 0.013885
0.047577 0.101410 0.013885
0.075806 0.100983 0.013855
0.102478 0.101654 0.013947
0.132935 0.106934 0.018005
0.160950 0.110474 0.022034
0.189423 0.113892 0.026154
0.217041 0.116699 0.030151
0.243378 0.118683 0.033905
0.269958 0.122253 0.037720
0.297882 0.126282 0.041718
0.326752 0.129608 0.045929
0.356354 0.131378 0.050201
0.389160 0.134094 0.055023
0.422272 0.137299 0.059906
0.458221 0.140381 0.065247
0.492950 0.136597 0.070374
0.529633 0.135864 0.075836
0.567719 0.134430 0.081512
0.603119 0.138550 0.086731
0.637085 0.138641 0.091766
0.671356 0.138916 0.096802
0.706390 0.144073 0.101990
0.740540 0.149078 0.107025
0.772827 0.153839 0.111755
0.807220 0.158936 0.116852
0.835693 0.163086 0.120941
0.857025 0.166046 0.123932
0.873871 0.168243 0.126129
0.022614 0.158112 0.031769
0.029877 0.151154 0.021484
0.036774 0.141510 0.019928
0.043945 0.133850 0.018677
0.052063 0.132141 0.018402
0.065948 0.131317 0.018250
0.099762 0.130280 0.018097
0.126343 0.131714 0.018311
0.155731 0.135040 0.021179
0.184326 0.138611 0.025330
0.215759 0.143433 0.029907
0.242676 0.145996 0.033813
0.268707 0.149231 0.037506
0.295593 0.153320 0.041382
0.323639 0.157257 0.045410
0.351959 0.161224 0.049500
0.382751 0.164764 0.053986
0.415344 0.168152 0.058777
0.449615 0.171783 0.063843
0.487640 0.176147 0.069489
0.523529 0.176056 0.074829
0.561066 0.177673 0.080414
0.597565 0.178467 0.085846
0.632141 0.179352 0.090942
0.666840 0.176636 0.096069
0.701416 0.178528 0.101166
0.735962 0.175507 0.106293
0.769684 0.173309 0.111267
0.805115 0.176514 0.116486
0.835419 0.179260 0.120880
0.858734 0.176849 0.124207
0.873871 0.176666 0.126129
0.026794 0.186859 0.039154
0.034119 0.180176 0.025696
0.041412 0.173370 0.024567
0.049133 0.168945 0.023865
0.057190 0.166840 0.023499
0.064972 0.162872 0.022888
0.091797 0.161316 0.022614
0.124939 0.160614 0.022522
0.151489 0.161438 0.022644
0.180206 0.163940 0.024658
0.211792 0.168793 0.029297
0.242676 0.173920 0.033813
0.269409 0.177246 0.037628
0.296021 0.180481 0.041443
0.322784 0.184418 0.045288
0.350800 0.188477 0.049286
0.381317 0.192200 0.053772
0.412079 0.195312 0.058258
0.444946 0.199036 0.063049
0.480865 0.203644 0.068390
0.517975 0.209045 0.073944
0.554230 0.210846 0.079315
0.592346 0.214142 0.084961
0.627319 0.215546 0.090149
0.662994 0.217102 0.095459
0.699432 0.217346 0.100861
0.734436 0.220947 0.106018
0.768280 0.221527 0.111023
0.805664 0.223053 0.116608
0.835693 0.220367 0.120941
0.859589 0.218384 0.124298
0.873871 0.218079 0.126129
0.030701 0.214172 0.044952
0.038361 0.209503 0.029938
0.045685 0.202667 0.028809
0.053345 0.197998 0.028076
0.061615 0.197144 0.027924
0.069397 0.193329 0.027344
0.087006 0.190643 0.026855
0.122070 0.190033 0.026794
0.153503 0.190216 0.026794
0.180328 0.190887 0.026917
0.209076 0.194244 0.028839
0.240234 0.199432 0.033417
0.270416 0.203796 0.037781
0.297333 0.206818 0.041656
0.324890 0.210571 0.045624
0.353638 0.215302 0.049774
0.384186 0.218781 0.054230
0.413330 0.221710 0.058441
0.444672 0.225708 0.063019
0.478363 0.230804 0.067993
0.513855 0.236389 0.073242
0.549286 0.239746 0.078491
0.586945 0.243561 0.084106
0.625336 0.248108 0.089844
0.660614 0.249939 0.095062
0.699707 0.252197 0.100922
0.735413 0.254608 0.106201
0.768951 0.257904 0.111145
0.806091 0.258575 0.116638
0.836823 0.259430 0.121124
0.860596 0.259979 0.124512
0.873871 0.262665 0.126129
0.034332 0.239685 0.048584
0.042450 0.236298 0.035736
0.049774 0.230896 0.032898
0.057556 0.227020 0.032288
0.065796 0.226166 0.032135
0.073914 0.224213 0.031830
0.081940 0.221497 0.031372
0.118164 0.218933 0.030975
0.151550 0.219482 0.031036
0.182953 0.219666 0.031067
0.210175 0.221405 0.031342
0.239685 0.224854 0.033295
0.269958 0.229004 0.037720
0.299866 0.233246 0.042053
0.327759 0.237061 0.046082
0.357483 0.241821 0.050385
0.388000 0.245117 0.054840
0.416199 0.247742 0.058899
0.448761 0.252136 0.063690
0.481689 0.257324 0.068542
0.516144 0.262665 0.073608
0.550842 0.266266 0.078735
0.586517 0.270233 0.084045
0.625031 0.275238 0.089783
0.663177 0.279053 0.095459
0.702148 0.281464 0.101288
0.738831 0.286041 0.106750
0.772247 0.289642 0.111664
0.807220 0.293854 0.116852
0.836365 0.295502 0.121094
0.860870 0.300232 0.124512
0.873871 0.303680 0.126129
0.038208 0.266571 0.053192
0.047302 0.265717 0.044006
0.053925 0.259583 0.037048
0.061829 0.256622 0.036591
0.070343 0.257019 0.036652
0.078400 0.254913 0.036316
0.086823 0.254913 0.036316
0.098663 0.251801 0.035797
0.146149 0.250946 0.035645
0.179840 0.251251 0.035706
0.211578 0.250824 0.035614
0.238922 0.252106 0.035828
0.268524 0.254456 0.037476
0.299133 0.258789 0.041962
0.329041 0.263184 0.046295
0.358887 0.267487 0.050629
0.389984 0.271667 0.055176
0.419037 0.274567 0.059357
0.452576 0.278839 0.064331
0.485443 0.283966 0.069153
0.518280 0.289246 0.073975
0.551666 0.293152 0.078888
0.586090 0.297363 0.083984
0.624207 0.302216 0.089661
0.662598 0.307434 0.095367
0.701416 0.311310 0.101166
0.738251 0.315735 0.106659
0.773102 0.320892 0.111816
0.808075 0.324677 0.116974
0.838928 0.330811 0.121460
0.864136 0.335968 0.125061
0.873871 0.338257 0.126129
0.042114 0.293732 0.058990
0.051422 0.294067 0.052032
0.058167 0.288757 0.041290
0.066193 0.286652 0.040924
0.074738 0.287231 0.041046
0.082947 0.286224 0.040863
0.091461 0.286499 0.040924
0.099701 0.285522 0.040741
0.131592 0.285095 0.040680
0.174042 0.284668 0.040619
0.208801 0.281525 0.040100
0.239044 0.281677 0.040131
0.268463 0.282959 0.040344
0.298706 0.284485 0.041870
0.328186 0.288788 0.046173
0.358887 0.292633 0.050629
0.390106 0.297211 0.055176
0.421875 0.301514 0.059845
0.455109 0.305878 0.064728
0.488708 0.310547 0.069672
0.520660 0.315643 0.074341
0.552917 0.320892 0.079071
0.587402 0.324982 0.084167
0.625214 0.329926 0.089813
0.663177 0.335205 0.095459
0.701416 0.339966 0.101166
0.738251 0.344604 0.106659
0.773102 0.350464 0.111816
0.808655 0.355164 0.117065
0.839233 0.362000 0.121521
0.864441 0.371185 0.125092
0.873871 0.372833 0.126129
0.046265 0.322449 0.064697
0.055756 0.323914 0.060181
0.062500 0.318787 0.045654
0.070587 0.316772 0.045349
0.079224 0.318085 0.045563
0.087585 0.317657 0.045471
0.096039 0.317932 0.045532
0.104340 0.317078 0.045380
0.115387 0.317078 0.045380
0.165527 0.318085 0.045563
0.205292 0.314789 0.045013
0.237701 0.312134 0.044556
0.268768 0.313110 0.044739
0.299469 0.314789 0.045013
0.327881 0.315430 0.046112
0.360168 0.320160 0.050842
0.392242 0.324738 0.055511
0.423676 0.328735 0.060150
0.455994 0.332886 0.064850
0.490356 0.337494 0.069946
0.522827 0.342377 0.074707
0.555206 0.347595 0.079468
0.589508 0.353271 0.084534
0.627045 0.358124 0.090118
0.664581 0.363647 0.095703
0.702148 0.368500 0.101288
0.737976 0.373260 0.106598
0.772369 0.379120 0.111664
0.809906 0.385010 0.117279
0.840088 0.391449 0.121674
0.864441 0.399200 0.125092
0.873871 0.403137 0.126129
0.050354 0.350800 0.069977
0.060089 0.353668 0.067108
0.067017 0.349670 0.050140
0.075195 0.347961 0.049866
0.083740 0.349091 0.050079
0.092194 0.349091 0.050079
0.100677 0.349365 0.050110
0.108856 0.347961 0.049866
0.117035 0.346558 0.049652
0.153717 0.347656 0.049835
0.200317 0.348816 0.050018
0.234894 0.345367 0.049469
0.268646 0.346222 0.049591
0.299835 0.347961 0.049866
0.328674 0.346405 0.049622
0.360168 0.347015 0.050842
0.393097 0.351715 0.055664
0.425079 0.355469 0.060364
0.456848 0.360229 0.065002
0.490936 0.364685 0.070038
0.526184 0.368958 0.075256
0.559174 0.374603 0.080109
0.592651 0.381317 0.085022
0.628754 0.386932 0.090393
0.665833 0.392487 0.095917
0.700409 0.396576 0.101013
0.735413 0.401184 0.106201
0.772919 0.407196 0.111786
0.810211 0.413849 0.117310
0.840790 0.420319 0.121765
0.864441 0.427094 0.125092
0.873871 0.430847 0.126129
0.054413 0.378998 0.075348
0.064178 0.382111 0.074432
0.071320 0.379150 0.054596
0.079773 0.379669 0.054535
0.088440 0.381104 0.054749
0.096863 0.380951 0.054749
0.105194 0.380493 0.054657
0.113403 0.379364 0.054474
0.121490 0.377106 0.054108
0.143829 0.376526 0.054047
0.190125 0.378510 0.054321
0.232452 0.378693 0.054352
0.267700 0.379242 0.054443
0.300110 0.380096 0.054596
0.329346 0.378510 0.054321
0.359528 0.377106 0.054108
0.391968 0.377533 0.055481
0.425964 0.381622 0.060486
0.458405 0.386444 0.065277
0.492523 0.391632 0.070312
0.527618 0.396027 0.075500
0.562866 0.402283 0.080719
0.595886 0.408936 0.085541
0.630707 0.415405 0.090729
0.666718 0.420837 0.096039
0.700562 0.424622 0.101044
0.736664 0.429382 0.106415
0.775055 0.435150 0.112152
0.811493 0.441467 0.117523
0.842773 0.447968 0.122101
0.864441 0.453979 0.125092
0.873871 0.458160 0.126129
0.058868 0.409576 0.080719
0.068390 0.411163 0.082367
0.077179 0.410400 0.068268
0.084839 0.410736 0.062683
0.092926 0.411865 0.059235
0.101593 0.413391 0.059479
0.109955 0.412811 0.059387
0.117981 0.410553 0.059052
0.125977 0.407867 0.058563
0.134033 0.405579 0.058228
0.181885 0.407135 0.058472
0.228027 0.407990 0.058624
0.266663 0.408264 0.058655
0.300293 0.409851 0.058899
0.331604 0.409576 0.058868
0.361755 0.408722 0.058746
0.393433 0.407288 0.058533
0.427704 0.407898 0.060760
0.461517 0.412781 0.065765
0.495789 0.418060 0.070831
0.530304 0.423920 0.075928
0.565277 0.429901 0.081085
0.599731 0.435913 0.086182
0.633820 0.441925 0.091217
0.671234 0.447662 0.096771
0.705688 0.452057 0.101868
0.742920 0.457855 0.107391
0.781586 0.464081 0.113190
0.815552 0.469727 0.118195
0.846466 0.474243 0.122681
0.864441 0.479004 0.125092
0.873871 0.483826 0.126129
0.063324 0.440247 0.086273
0.072845 0.441650 0.089142
0.082245 0.442413 0.081818
0.091064 0.443542 0.077667
0.098816 0.444183 0.072296
0.106110 0.444183 0.063995
0.114685 0.445160 0.064148
0.122803 0.443451 0.063873
0.130585 0.439514 0.063232
0.138519 0.436371 0.062744
0.170166 0.436279 0.062714
0.223511 0.436371 0.062744
0.266785 0.436371 0.062744
0.301514 0.438080 0.062988
0.334747 0.439240 0.063171
0.365509 0.438660 0.063080
0.397797 0.438660 0.063080
0.429901 0.436676 0.062744
0.463776 0.438660 0.066132
0.498016 0.443817 0.071198
0.532471 0.450348 0.076263
0.566864 0.456543 0.081360
0.601837 0.462433 0.086517
0.637390 0.468231 0.091797
0.675110 0.473907 0.097412
0.712036 0.480286 0.102905
0.749023 0.486328 0.108398
0.786713 0.493286 0.114014
0.818451 0.498138 0.118652
0.849030 0.502441 0.123108
0.864441 0.505035 0.125092
0.873871 0.509796 0.126129
0.068085 0.472656 0.093628
0.077698 0.474670 0.093719
0.087128 0.475555 0.093689
0.096527 0.476288 0.091797
0.105164 0.477203 0.087769
0.112305 0.477020 0.079010
0.119598 0.477203 0.070770
0.127899 0.477753 0.068909
0.135803 0.474640 0.068420
0.143219 0.468536 0.067413
0.153168 0.466827 0.067139
0.221649 0.465546 0.066956
0.264435 0.465393 0.066925
0.304108 0.466248 0.067047
0.337769 0.467133 0.067200
0.368683 0.468262 0.067383
0.401154 0.468384 0.067383
0.432953 0.468109 0.067352
0.463257 0.466248 0.067047
0.498016 0.469696 0.071198
0.532471 0.476440 0.076263
0.567566 0.483398 0.081482
0.603119 0.489471 0.086731
0.639374 0.495422 0.092133
0.676788 0.501617 0.097687
0.713745 0.508209 0.103149
0.750977 0.514587 0.108734
0.788849 0.521118 0.114380
0.820831 0.527496 0.119080
0.851013 0.531921 0.123444
0.864288 0.533600 0.125092
0.873871 0.535797 0.126129
0.072662 0.503906 0.107758
0.082336 0.506195 0.106262
0.091827 0.507507 0.104645
0.101318 0.508850 0.102448
0.110748 0.509979 0.100098
0.118164 0.509918 0.090759
0.125366 0.510101 0.081818
0.132812 0.510925 0.074249
0.140930 0.509460 0.073547
0.148407 0.503326 0.072571
0.156158 0.499542 0.071960
0.207062 0.497528 0.071625
0.260376 0.496368 0.071442
0.303223 0.496552 0.071472
0.339539 0.496552 0.071472
0.370422 0.497955 0.071716
0.402100 0.499237 0.071899
0.433746 0.498962 0.071869
0.464417 0.499237 0.071899
0.495117 0.498535 0.071777
0.531433 0.504730 0.076111
0.567261 0.511810 0.081421
0.603821 0.517120 0.086853
0.640228 0.523010 0.092255
0.678192 0.529694 0.097931
0.715057 0.535950 0.103394
0.751831 0.542450 0.108856
0.789246 0.548859 0.114410
0.820007 0.554321 0.118896
0.851593 0.560455 0.123535
0.863434 0.561340 0.124969
0.873566 0.562775 0.126068
0.077057 0.533905 0.119568
0.086578 0.535645 0.118011
0.096161 0.537537 0.116150
0.105896 0.540405 0.112518
0.115479 0.542267 0.109772
0.123688 0.542969 0.100494
0.131012 0.544220 0.091095
0.138672 0.545593 0.084351
0.145782 0.542297 0.078400
0.153381 0.537018 0.077545
0.161285 0.534088 0.077057
0.196625 0.530975 0.076538
0.254761 0.529388 0.076294
0.302155 0.527832 0.076050
0.340271 0.527435 0.075958
0.372009 0.528259 0.076111
0.403809 0.529083 0.076233
0.434174 0.530121 0.076416
0.465271 0.530792 0.076508
0.496429 0.531921 0.076721
0.529266 0.534332 0.077087
0.565704 0.539703 0.081177
0.602386 0.544556 0.086609
0.639526 0.550751 0.092163
0.677765 0.557220 0.097839
0.715881 0.563599 0.103516
0.752411 0.569672 0.108948
0.789246 0.576019 0.114410
0.820557 0.581085 0.118988
0.850739 0.586182 0.123383
0.862152 0.587036 0.124756
0.872864 0.587799 0.125946
0.081451 0.564392 0.131042
0.091034 0.566132 0.129822
0.100586 0.567841 0.128204
0.110382 0.570862 0.124908
0.119965 0.572968 0.120056
0.129883 0.577118 0.113922
0.136719 0.577271 0.102051
0.143829 0.577148 0.092926
0.150970 0.574707 0.086456
0.158722 0.572327 0.083740
0.166382 0.568634 0.082153
0.176666 0.565369 0.081635
0.241089 0.561829 0.081055
0.294037 0.561096 0.080963
0.335419 0.559418 0.080688
0.371399 0.558563 0.080505
0.404083 0.558838 0.080566
0.435394 0.560425 0.080811
0.465942 0.561951 0.081055
0.498138 0.562408 0.081146
0.531677 0.564392 0.081451
0.564545 0.566223 0.081787
0.602692 0.571838 0.086670
0.639984 0.578094 0.092224
0.678467 0.585358 0.097961
0.716736 0.591522 0.103668
0.752136 0.596771 0.108917
0.788025 0.602844 0.114227
0.818604 0.606415 0.118652
0.848724 0.611450 0.123108
0.860046 0.612061 0.124390
0.871277 0.612854 0.125702
0.085876 0.594696 0.143036
0.095490 0.596832 0.141632
0.105103 0.598877 0.140717
0.114777 0.601166 0.138000
0.124298 0.602600 0.133484
0.134491 0.608429 0.125916
0.142822 0.610107 0.116302
0.149536 0.608398 0.105682
0.156921 0.608093 0.098846
0.164703 0.607178 0.094971
0.172211 0.604340 0.091064
0.179352 0.599945 0.086731
0.218018 0.595428 0.086273
0.278412 0.592804 0.085571
0.328491 0.593262 0.085663
0.368164 0.590820 0.085236
0.403198 0.589417 0.085022
0.435669 0.590424 0.085205
0.467377 0.591675 0.085419
0.499420 0.592804 0.085571
0.534119 0.594116 0.085785
0.567169 0.596527 0.086182
0.600922 0.598511 0.086517
0.642517 0.605438 0.092621
0.680603 0.612457 0.098328
0.719421 0.619324 0.104095
0.753998 0.624542 0.109222
0.787170 0.629608 0.114105
0.816315 0.632568 0.118317
0.845215 0.635956 0.122498
0.860046 0.636993 0.124390
0.871277 0.638092 0.125702
0.090149 0.623962 0.153381
0.099701 0.625854 0.152313
0.109314 0.627869 0.151550
0.118927 0.629883 0.150696
0.128418 0.631195 0.146912
0.138611 0.636871 0.141785
0.148621 0.641327 0.135040
0.156647 0.641266 0.126801
0.163879 0.641907 0.118042
0.171631 0.642609 0.112122
0.178314 0.639099 0.103088
0.184906 0.634125 0.095520
0.192413 0.630005 0.093048
0.254791 0.626160 0.090485
0.318848 0.624969 0.090271
0.366486 0.623535 0.090057
0.405334 0.621002 0.089661
0.440460 0.621704 0.089752
0.473480 0.622131 0.089813
0.505127 0.622711 0.089935
0.538666 0.624420 0.090210
0.572205 0.626984 0.090607
0.605469 0.630219 0.091125
0.642639 0.632111 0.092651
0.680878 0.638275 0.098358
0.719849 0.645264 0.104187
0.753265 0.650208 0.109070
0.785889 0.655212 0.113861
0.814453 0.657471 0.118042
0.841217 0.659729 0.121857
0.856354 0.662140 0.123779
0.871460 0.663666 0.125732
0.094177 0.652008 0.161560
0.103577 0.652740 0.161652
0.113190 0.654755 0.161163
0.122833 0.657043 0.160706
0.132538 0.659637 0.159546
0.142578 0.664337 0.156036
0.152557 0.668793 0.152435
0.162445 0.672363 0.148621
0.171448 0.674896 0.142242
0.179016 0.677368 0.133514
0.185333 0.674744 0.120941
0.191254 0.669098 0.109100
0.198303 0.664856 0.103302
0.207733 0.660950 0.097290
0.304047 0.658112 0.095154
0.360504 0.655396 0.094757
0.406586 0.653687 0.094452
0.444702 0.653687 0.094452
0.478821 0.654541 0.094574
0.511810 0.653839 0.094452
0.544342 0.654694 0.094635
0.577667 0.657684 0.095093
0.611603 0.660675 0.095581
0.645142 0.662231 0.095856
0.680603 0.664612 0.098328
0.719574 0.670837 0.104126
0.752869 0.675629 0.109039
0.782349 0.679779 0.113281
0.810913 0.681976 0.117462
0.838104 0.683777 0.121338
0.855194 0.686310 0.123596
0.870483 0.688751 0.125702
0.098358 0.680878 0.169861
0.107727 0.681641 0.170258
0.117157 0.682373 0.170532
0.126923 0.685242 0.170868
0.136597 0.687958 0.170654
0.146423 0.691254 0.170380
0.156433 0.695831 0.168671
0.166351 0.699677 0.167511
0.176361 0.704224 0.161987
0.186218 0.709930 0.155304
0.192841 0.709961 0.142853
0.198730 0.705780 0.128967
0.205200 0.702026 0.118805
0.212006 0.697235 0.111359
0.286377 0.692902 0.105011
0.353394 0.689697 0.099792
0.403259 0.687012 0.099365
0.444366 0.685608 0.099121
0.481232 0.685730 0.099152
0.515533 0.685883 0.099152
0.548492 0.686005 0.099182
0.582825 0.686859 0.099335
0.614258 0.690399 0.099884
0.647705 0.693542 0.100403
0.677582 0.694092 0.100525
0.714478 0.696777 0.103302
0.750702 0.699890 0.108704
0.779602 0.703583 0.112854
0.808472 0.707397 0.117065
0.835144 0.709381 0.120850
0.854065 0.711884 0.123413
0.873199 0.716522 0.138184
0.102722 0.710907 0.179565
0.112122 0.711792 0.180054
0.121613 0.712830 0.180176
0.131073 0.714142 0.180542
0.140747 0.716705 0.181122
0.150513 0.719696 0.182526
0.160400 0.723145 0.183289
0.170288 0.727020 0.184509
0.180237 0.731293 0.181183
0.190765 0.738678 0.173340
0.200104 0.742950 0.164703
0.206543 0.740936 0.152344
0.212891 0.739502 0.139160
0.218964 0.734070 0.127777
0.280334 0.728455 0.119537
0.344421 0.724854 0.112732
0.400085 0.721619 0.106384
0.443787 0.717896 0.103851
0.482574 0.716888 0.103699
0.519165 0.716888 0.103699
0.553009 0.717163 0.103729
0.586395 0.717590 0.103790
0.618835 0.719727 0.104156
0.650024 0.723816 0.104828
0.680298 0.725708 0.105133
0.710236 0.725708 0.105133
0.744324 0.725616 0.107666
0.776886 0.727722 0.112427
0.805939 0.731628 0.116638
0.834778 0.736511 0.129791
0.855621 0.740265 0.138184
0.876099 0.744873 0.150116
0.107086 0.740814 0.188629
0.116547 0.742126 0.190002
0.126038 0.743256 0.190430
0.135406 0.744019 0.192139
0.144897 0.745148 0.192719
0.154510 0.747314 0.194855
0.164307 0.750458 0.196381
0.174225 0.754456 0.197418
0.184143 0.758453 0.195709
0.194489 0.764893 0.188232
0.204742 0.770874 0.180542
0.213531 0.773285 0.173553
0.220673 0.774323 0.163086
0.227112 0.770477 0.152924
0.257050 0.765442 0.143127
0.343384 0.762787 0.135101
0.399109 0.759583 0.129028
0.443298 0.754547 0.118561
0.482574 0.750702 0.108704
0.519470 0.750305 0.108612
0.554413 0.750427 0.108612
0.588623 0.751160 0.108765
0.619843 0.750885 0.108704
0.652283 0.753143 0.109070
0.682281 0.754974 0.113525
0.710724 0.754700 0.109344
0.741058 0.753143 0.109070
0.772858 0.754272 0.118805
0.805481 0.758453 0.127472
0.834991 0.763947 0.144592
0.857849 0.768433 0.151154
0.879364 0.773346 0.161560
0.111298 0.770081 0.197510
0.120819 0.771423 0.199066
0.130219 0.772156 0.199890
0.139679 0.773315 0.202515
0.149078 0.774048 0.204498
0.158569 0.775482 0.206757
0.168243 0.777924 0.208862
0.178192 0.781921 0.209564
0.188202 0.786530 0.208893
0.198395 0.792084 0.202942
0.208435 0.796783 0.194427
0.218628 0.802490 0.190247
0.227905 0.806335 0.186279
0.235016 0.804749 0.178162
0.241638 0.801910 0.168457
0.333496 0.800110 0.159851
