assets/configs/ColorAnd3dLutPreset/lutDefault/60_lut_Gravity/Data/Gravity.CUBE
#Created by: Adobe Photoshop Export Color Lookup Plugin
#Copyright: (C) Copyright 2016 Wondershare Inc.
TITLE "Space Film-Gravity"
#LUT size
LUT_3D_SIZE 8
#data domain
#LUT data points
DOMAIN_MIN 0.000000 0.000000 0.000000
DOMAIN_MAX 0.903226 0.903226 0.903226
0.001068 0.001221 0.006683
0.060364 0.007721 0.007721
0.175049 0.024323 0.024323
0.285156 0.040192 0.040192
0.412720 0.058838 0.058838
0.547211 0.078674 0.078674
0.673950 0.097229 0.097229
0.802399 0.116058 0.116058
0.014740 0.103180 0.021484
0.050964 0.072235 0.009674
0.164795 0.083557 0.022675
0.272705 0.093597 0.038147
0.396088 0.100189 0.056183
0.537537 0.110809 0.077118
0.676941 0.131409 0.097717
0.806519 0.150391 0.116730
0.030701 0.214172 0.044952
0.061615 0.197144 0.027924
0.153503 0.190216 0.026794
0.270416 0.203796 0.037781
0.384186 0.218781 0.054230
0.513855 0.236389 0.073242
0.660614 0.249939 0.095062
0.806091 0.258575 0.116638
0.046265 0.322449 0.064697
0.079224 0.318085 0.045563
0.115387 0.317078 0.045380
0.268768 0.313110 0.044739
0.392242 0.324738 0.055511
0.522827 0.342377 0.074707
0.664581 0.363647 0.095703
0.809906 0.385010 0.117279
0.063324 0.440247 0.086273
0.098816 0.444183 0.072296
0.130585 0.439514 0.063232
0.266785 0.436371 0.062744
0.397797 0.438660 0.063080
0.532471 0.450348 0.076263
0.675110 0.473907 0.097412
0.818451 0.498138 0.118652
0.081451 0.564392 0.131042
0.119965 0.572968 0.120056
0.150970 0.574707 0.086456
0.241089 0.561829 0.081055
0.404083 0.558838 0.080566
0.531677 0.564392 0.081451
0.678467 0.585358 0.097961
0.818604 0.606415 0.118652
0.098358 0.680878 0.169861
0.136597 0.687958 0.170654
0.176361 0.704224 0.161987
0.205200 0.702026 0.118805
0.403259 0.687012 0.099365
0.548492 0.686005 0.099182
0.677582 0.694092 0.100525
0.808472 0.707397 0.117065
0.115509 0.799164 0.210236
0.153320 0.803223 0.216888
0.191956 0.812683 0.222321
0.232239 0.832214 0.205414
0.397614 0.828857 0.183472
0.559875 0.819427 0.160431
0.688721 0.817230 0.156342
0.804657 0.817352 0.164642
0.010590 0.010590 0.077789
0.071716 0.010712 0.078491
0.183807 0.025757 0.091187
0.292664 0.041412 0.102631
0.422913 0.060516 0.118469
0.555267 0.079987 0.124359
0.678467 0.097961 0.131683
0.800415 0.115753 0.149445
0.011688 0.077240 0.084747
0.058044 0.083221 0.100708
0.188629 0.091156 0.098846
0.295898 0.087341 0.108368
0.419342 0.097076 0.113098
0.556946 0.117371 0.131897
0.687958 0.136597 0.136597
0.815857 0.155334 0.155334
0.027649 0.195435 0.112885
0.065826 0.202057 0.114685
0.170441 0.206818 0.119507
0.295349 0.209717 0.114563
0.416046 0.222717 0.129395
0.550690 0.238617 0.141632
0.684967 0.247040 0.136139
0.824768 0.257233 0.156799
0.044952 0.314514 0.145782
0.083832 0.325439 0.142426
0.123047 0.338318 0.139557
0.287659 0.331421 0.136871
0.422272 0.342865 0.143799
0.557526 0.357269 0.153259
0.693787 0.374542 0.140900
0.832184 0.394135 0.160767
0.063263 0.439789 0.181335
0.102142 0.450653 0.183655
0.142029 0.467834 0.167328
0.262451 0.472809 0.168610
0.423492 0.465668 0.165497
0.564270 0.476501 0.163177
0.703613 0.495300 0.156403
0.833740 0.514038 0.198334
0.081726 0.565948 0.223358
0.119690 0.571320 0.224060
0.158478 0.581482 0.222107
0.197235 0.591675 0.195007
0.424988 0.591553 0.185699
0.564270 0.592590 0.179382
0.703217 0.603363 0.183716
0.834473 0.623749 0.244293
0.098877 0.684021 0.260223
0.136688 0.688416 0.263458
0.175018 0.696014 0.269775
0.215118 0.714264 0.255524
0.422638 0.719635 0.229492
0.575073 0.714264 0.217712
0.698578 0.718994 0.239899
0.834229 0.728668 0.280334
0.116089 0.802582 0.300140
0.153748 0.806061 0.308380
0.191681 0.811279 0.320129
0.231018 0.824860 0.324188
0.409027 0.846527 0.319366
0.589508 0.839996 0.303101
0.712250 0.834503 0.300537
0.827637 0.836182 0.311859
0.030975 0.030975 0.215881
0.102936 0.031067 0.216614
0.186005 0.030457 0.212646
0.291962 0.041290 0.217621
0.412445 0.058807 0.234192
0.562958 0.081238 0.244659
0.684296 0.098907 0.240417
0.803223 0.116180 0.259369
0.030823 0.101379 0.215027
0.082214 0.104675 0.232361
0.186920 0.089294 0.239197
0.302032 0.090424 0.231750
0.426147 0.098175 0.234894
0.570618 0.119598 0.251190
0.696899 0.138062 0.263855
0.822510 0.156433 0.283173
0.032715 0.203674 0.226379
0.071533 0.209534 0.237000
0.162506 0.226471 0.262695
0.322113 0.234802 0.262604
0.455902 0.245331 0.279572
0.584961 0.248535 0.295776
0.716980 0.268219 0.322266
0.843872 0.273254 0.340393
0.045288 0.316528 0.253693
0.083832 0.325256 0.257751
0.122467 0.334747 0.270386
0.308624 0.353668 0.290619
0.458954 0.371094 0.292145
0.598724 0.395355 0.326355
0.731659 0.413818 0.348541
0.860535 0.432129 0.382599
0.063629 0.442200 0.289062
0.102783 0.454651 0.293457
0.142273 0.469208 0.296906
0.253754 0.484467 0.316864
0.451019 0.492828 0.289917
0.600555 0.509674 0.318909
0.736816 0.529480 0.360596
0.864899 0.546722 0.396759
0.082184 0.568909 0.325012
0.120514 0.576263 0.326630
0.159088 0.585175 0.333710
0.198090 0.597046 0.338867
0.437744 0.633728 0.339630
0.596191 0.629578 0.335388
0.730865 0.635406 0.378387
0.862549 0.650970 0.414307
0.099274 0.686737 0.356476
0.137268 0.691956 0.357849
0.175537 0.699158 0.366211
0.213989 0.707336 0.385773
0.407104 0.743988 0.392365
0.598663 0.749603 0.386414
0.727753 0.745483 0.401093
0.854462 0.751343 0.423248
0.116272 0.803802 0.393127
0.154144 0.808472 0.403503
0.192322 0.815125 0.414856
0.230804 0.823425 0.427063
0.385254 0.850250 0.440308
0.603973 0.861115 0.438812
0.734802 0.859589 0.433594
0.848358 0.856293 0.440674
0.088165 0.053345 0.366058
0.130920 0.050781 0.350433
0.212585 0.049835 0.344299
0.296814 0.049347 0.341461
0.393250 0.055725 0.342377
0.527466 0.075470 0.359802
0.668732 0.096375 0.387512
0.801544 0.115906 0.411469
0.055725 0.146210 0.358673
0.124878 0.093140 0.364777
0.209869 0.091431 0.372131
0.292633 0.090820 0.368408
0.402161 0.094269 0.351624
0.539520 0.114563 0.369904
0.694489 0.137665 0.402893
0.823639 0.156616 0.433472
0.052673 0.241638 0.362061
0.089874 0.233459 0.362457
0.205566 0.238953 0.399658
0.325470 0.239716 0.408569
0.447388 0.253387 0.405548
0.581940 0.249725 0.411163
0.716248 0.263824 0.443939
0.844879 0.276031 0.472870
0.055084 0.336212 0.376831
0.091980 0.335449 0.375488
0.131866 0.341522 0.392548
0.296814 0.370605 0.426819
0.461060 0.383209 0.437744
0.611511 0.408325 0.471558
0.742401 0.419586 0.488861
0.870178 0.438324 0.517029
0.064819 0.449432 0.397369
0.103180 0.457092 0.404144
0.142242 0.469086 0.412018
0.252930 0.485168 0.438934
0.453033 0.507080 0.470001
0.617584 0.533875 0.486603
0.758911 0.554413 0.520081
0.889465 0.567657 0.537567
0.083221 0.575012 0.431305
0.121460 0.582092 0.431854
0.159790 0.589569 0.439941
0.199066 0.602875 0.454376
0.427338 0.633362 0.494049
0.618805 0.647675 0.495850
0.756195 0.661865 0.520294
0.889557 0.677643 0.547211
0.099762 0.689423 0.461395
0.138031 0.696625 0.459381
0.176514 0.705261 0.468536
0.215057 0.713867 0.489899
0.429901 0.750336 0.520996
0.622894 0.772095 0.537384
0.753265 0.771210 0.533630
0.884918 0.782196 0.555450
0.116394 0.804535 0.491272
0.154907 0.813141 0.503387
0.193268 0.820801 0.508698
0.231598 0.828430 0.520538
0.389282 0.855591 0.549561
0.615204 0.885895 0.570679
0.760315 0.888702 0.563232
0.870087 0.887573 0.569977
0.123474 0.072357 0.495697
0.176331 0.071167 0.488342
0.249451 0.070587 0.484802
0.329163 0.070282 0.482910
0.421265 0.069427 0.477661
0.547333 0.078705 0.485870
0.680756 0.098328 0.509552
0.814453 0.118042 0.545410
0.091400 0.133728 0.481750
0.177704 0.111237 0.506744
0.250122 0.110779 0.503723
0.332611 0.110626 0.502777
0.423859 0.109894 0.498352
0.548615 0.115997 0.494293
0.684143 0.135986 0.521057
0.820831 0.156158 0.552734
0.069916 0.252228 0.480621
0.126282 0.253235 0.494537
0.250458 0.239502 0.534607
0.352417 0.215546 0.537750
0.452942 0.229767 0.533447
0.583588 0.247070 0.527710
0.709198 0.252594 0.550171
0.847412 0.267731 0.575806
0.072479 0.361389 0.496368
0.110229 0.367645 0.500488
0.187775 0.374268 0.524689
0.338898 0.387482 0.556305
0.485382 0.397156 0.569092
0.616974 0.412415 0.576752
0.752136 0.417999 0.589539
0.876831 0.431641 0.611786
0.074524 0.469543 0.508911
0.112671 0.476440 0.515503
0.151245 0.482971 0.524414
0.298279 0.506012 0.559235
0.469238 0.530518 0.593140
0.634583 0.544342 0.601349
0.779205 0.562469 0.627106
0.898041 0.568146 0.642120
0.084045 0.580139 0.530518
0.122101 0.585907 0.533600
0.160461 0.593689 0.544647
0.232819 0.612488 0.561462
0.446533 0.641998 0.601318
0.641937 0.663300 0.628448
0.788361 0.683502 0.645050
0.914459 0.702698 0.672333
0.100525 0.694275 0.561859
0.139221 0.703857 0.565094
0.177643 0.711914 0.569336
0.216370 0.721954 0.584473
0.442841 0.762787 0.628143
0.636871 0.785095 0.653076
0.777954 0.790436 0.650208
0.903320 0.808899 0.676880
0.117065 0.808472 0.594543
0.155243 0.815155 0.598358
0.193939 0.825043 0.603271
0.232574 0.834503 0.616302
0.423615 0.870270 0.649902
0.643982 0.901001 0.682770
0.784180 0.907928 0.687439
0.891876 0.906250 0.685638
0.166351 0.089935 0.616425
0.215332 0.089386 0.613037
0.284790 0.087738 0.602844
0.364990 0.088318 0.606506
0.467804 0.088409 0.607086
0.578125 0.087372 0.600555
0.708160 0.102783 0.622986
0.834198 0.121216 0.649567
0.143097 0.125916 0.609589
0.210724 0.128967 0.628326
0.282745 0.128754 0.627075
0.366852 0.127136 0.617126
0.462189 0.126831 0.615143
0.579193 0.126495 0.613159
0.708099 0.139893 0.629761
0.834015 0.158325 0.656250
0.087921 0.275330 0.603821
0.179443 0.269348 0.624390
0.285919 0.249481 0.651245
0.384644 0.228027 0.650085
0.490356 0.230255 0.651855
0.598907 0.235291 0.639404
0.723969 0.252594 0.653900
0.845917 0.251038 0.672028
0.089630 0.387238 0.614441
0.127533 0.392303 0.619385
0.234650 0.405334 0.645630
0.378754 0.407471 0.673950
0.511688 0.404633 0.688660
0.633850 0.408997 0.678986
0.757141 0.419067 0.687653
0.872314 0.427704 0.703125
0.090851 0.494293 0.622131
0.129272 0.500122 0.630188
0.167450 0.508453 0.636810
0.331604 0.535065 0.673065
0.506439 0.552277 0.707336
0.656250 0.557220 0.709595
0.782501 0.569214 0.723175
0.904846 0.572540 0.732422
0.093048 0.594299 0.635773
0.130371 0.599579 0.637024
0.169464 0.609924 0.649017
0.285431 0.629303 0.669006
0.479248 0.662842 0.709778
0.656982 0.686432 0.739807
0.796509 0.696045 0.746338
0.923737 0.714813 0.771484
0.101990 0.703186 0.659363
0.140076 0.709229 0.661163
0.178528 0.717438 0.666321
0.217285 0.727631 0.677155
0.454834 0.770264 0.722198
0.641449 0.793030 0.748779
0.798828 0.810730 0.769775
0.922577 0.829010 0.785919
0.118500 0.817474 0.684875
0.156403 0.822388 0.693054
0.195129 0.832275 0.700226
0.233795 0.841888 0.706512
0.436310 0.873169 0.742188
0.640381 0.904297 0.776703
0.796661 0.924469 0.792328
0.907501 0.924377 0.791046
0.202881 0.107330 0.736115
0.254700 0.106537 0.731384
0.325043 0.105072 0.722046
0.413239 0.104828 0.720642
0.521118 0.105530 0.725037
0.630585 0.105255 0.723328
0.732239 0.106689 0.725403
0.843109 0.122681 0.739899
0.183502 0.142822 0.726288
0.251373 0.144623 0.737335
0.330444 0.145203 0.740875
0.415955 0.144226 0.734772
0.521393 0.144012 0.733368
0.630066 0.143372 0.729553
0.737610 0.144684 0.730377
0.846771 0.160370 0.747070
0.145447 0.298615 0.725861
0.230408 0.294403 0.742340
0.327118 0.267212 0.755066
0.422638 0.235992 0.758301
0.532410 0.234711 0.753113
0.638336 0.239288 0.744720
0.741852 0.231812 0.742950
0.846954 0.216431 0.752991
0.105194 0.412781 0.723053
0.148132 0.418945 0.728943
0.296265 0.435364 0.758545
0.436707 0.431671 0.791382
0.552704 0.411530 0.793060
0.670166 0.406555 0.780365
0.770782 0.413208 0.775665
0.878662 0.426971 0.789825
0.106232 0.518463 0.729309
0.143921 0.522156 0.732971
0.229980 0.537720 0.749847
0.391663 0.560059 0.779724
0.550018 0.573456 0.815735
0.683624 0.561310 0.813690
0.795563 0.563568 0.807281
0.905029 0.578522 0.822205
0.108093 0.618683 0.740936
0.145691 0.623688 0.743866
0.183746 0.632935 0.749634
0.340210 0.658783 0.778015
0.512695 0.688324 0.813538
0.682312 0.707245 0.837677
0.812836 0.705383 0.838531
0.928162 0.722748 0.851837
0.109711 0.717804 0.750732
0.147247 0.721924 0.753357
0.185425 0.732117 0.759888
0.271667 0.748352 0.776276
0.481750 0.785553 0.815125
0.655548 0.813782 0.845612
0.809845 0.832428 0.867950
0.933319 0.842560 0.874695
0.119843 0.825806 0.771820
0.157837 0.831177 0.776550
0.196045 0.837799 0.782379
0.234100 0.843750 0.790833
0.461182 0.880676 0.827606
0.639801 0.906830 0.856171
0.799957 0.930389 0.878021
0.928955 0.939301 0.890564
0.235687 0.120758 0.831360
0.298737 0.120758 0.831207
0.380859 0.120972 0.832642
0.469208 0.120789 0.831482
0.567688 0.120239 0.828094
0.665680 0.119263 0.822235
0.763550 0.118896 0.819855
0.845520 0.123077 0.826782
0.222260 0.157623 0.829895
0.292816 0.158386 0.834717
0.373138 0.158447 0.834869
0.465820 0.159027 0.838562
0.569183 0.158051 0.832428
0.670868 0.157562 0.829590
0.770172 0.156952 0.825623
0.849609 0.160858 0.832123
0.195312 0.324371 0.834320
0.287231 0.315460 0.852905
0.376038 0.283905 0.855835
0.466492 0.257111 0.853577
0.570038 0.237854 0.847107
0.670776 0.197357 0.837463
0.774963 0.195709 0.835968
0.856720 0.218842 0.839966
0.119110 0.438019 0.821106
0.225830 0.450623 0.836395
0.360352 0.462463 0.863556
0.473694 0.449677 0.886658
0.583344 0.430237 0.885437
0.695953 0.411652 0.877319
0.802979 0.409058 0.870514
0.886719 0.424561 0.873444
0.119843 0.541534 0.825806
0.158234 0.546814 0.833588
0.305389 0.571075 0.854889
0.441559 0.586945 0.878571
0.585785 0.595306 0.908936
0.708801 0.574707 0.907135
0.826965 0.571014 0.899475
0.912170 0.583649 0.899628
0.121368 0.642914 0.835052
0.159180 0.647308 0.839264
0.222351 0.657379 0.847229
0.393036 0.688873 0.874023
0.544800 0.712494 0.899780
0.703125 0.729767 0.925690
0.833649 0.719757 0.926880
0.929932 0.720673 0.924835
0.122223 0.742645 0.840271
0.159912 0.747986 0.843933
0.197968 0.755432 0.849854
0.308136 0.775421 0.866119
0.502563 0.808807 0.896790
0.663788 0.835052 0.922455
0.825256 0.850922 0.944855
0.934082 0.847748 0.944641
0.122803 0.835632 0.844116
0.160767 0.840057 0.849182
0.198608 0.846344 0.853668
0.252441 0.853882 0.860413
0.488342 0.890503 0.896667
0.656372 0.914856 0.921936
0.812622 0.936401 0.942657
0.933411 0.951019 0.958588
