assets/configs/ColorAnd3dLutPreset/lutDefault/60_lut_Gravity/Data/Gravity.CUBE
#Created by: Adobe Photoshop Export Color Lookup Plugin
#Copyright: (C) Copyright 2016 Wondershare Inc.
TITLE "Space Film-Gravity"
#LUT size
LUT_3D_SIZE 5
#data domain
#LUT data points
DOMAIN_MIN 0.000000 0.000000 0.000000
DOMAIN_MAX 0.903226 0.903226 0.903226
0.001068 0.001221 0.006683
0.145569 0.020081 0.020081
0.347046 0.049225 0.049225
0.579346 0.083405 0.083405
0.802399 0.116058 0.116058
0.026794 0.186859 0.039154
0.124939 0.160614 0.022522
0.322784 0.184418 0.045288
0.554230 0.210846 0.079315
0.805664 0.223053 0.116608
0.054413 0.378998 0.075348
0.113403 0.379364 0.054474
0.329346 0.378510 0.054321
0.562866 0.402283 0.080719
0.811493 0.441467 0.117523
0.085876 0.594696 0.143036
0.149536 0.608398 0.105682
0.328491 0.593262 0.085663
0.567169 0.596527 0.086182
0.816315 0.632568 0.118317
0.115509 0.799164 0.210236
0.182037 0.808838 0.222046
0.249298 0.833160 0.194672
0.593445 0.818970 0.156769
0.804657 0.817352 0.164642
0.025879 0.025879 0.181305
0.157349 0.025909 0.181458
0.350006 0.049683 0.195038
0.597534 0.086334 0.216339
0.802856 0.116119 0.219757
0.027344 0.170410 0.190277
0.135559 0.192749 0.223755
0.378235 0.204773 0.232422
0.607391 0.210083 0.259125
0.835876 0.218475 0.283722
0.053925 0.375977 0.243500
0.123016 0.401581 0.250641
0.367767 0.416107 0.248077
0.627045 0.449585 0.286774
0.860046 0.486328 0.349915
0.086761 0.600067 0.308350
0.153076 0.608490 0.312958
0.322845 0.649902 0.312622
0.629944 0.652527 0.310974
0.855530 0.670624 0.382629
0.116180 0.803223 0.368591
0.182861 0.813812 0.387634
0.250153 0.828339 0.398651
0.633789 0.856262 0.401520
0.841858 0.851440 0.409332
0.099945 0.062408 0.428070
0.211426 0.060608 0.417145
0.356934 0.059113 0.407928
0.571136 0.082062 0.427612
0.805664 0.116608 0.482361
0.060486 0.215546 0.416290
0.209686 0.200195 0.462433
0.375946 0.184113 0.461243
0.601929 0.202820 0.460815
0.840363 0.209412 0.516266
0.064972 0.401794 0.444092
0.132080 0.410522 0.457336
0.377502 0.450012 0.513672
0.660187 0.484772 0.548645
0.882843 0.501282 0.581726
0.087738 0.606171 0.489319
0.154846 0.619446 0.497559
0.309753 0.650909 0.538452
0.660431 0.685669 0.569092
0.900726 0.717255 0.612244
0.117004 0.808350 0.544739
0.184082 0.821350 0.554718
0.251678 0.837677 0.575287
0.671906 0.898651 0.629974
0.883545 0.898773 0.630005
0.180908 0.093903 0.644073
0.273956 0.092133 0.633118
0.418579 0.092560 0.635834
0.614532 0.092041 0.632599
0.836182 0.121521 0.672333
0.123413 0.252289 0.635864
0.270294 0.199585 0.667877
0.434265 0.177917 0.665283
0.625244 0.167419 0.652557
0.840485 0.187195 0.684326
0.094116 0.447205 0.645325
0.166260 0.458893 0.658020
0.450989 0.486023 0.718414
0.684479 0.482880 0.720001
0.888763 0.497742 0.740540
0.097748 0.627655 0.667633
0.164001 0.637512 0.675781
0.391113 0.676849 0.721649
0.699707 0.724182 0.773590
0.927124 0.748291 0.796875
0.118805 0.819305 0.706299
0.185699 0.831238 0.717072
0.274200 0.847992 0.735626
0.679504 0.910126 0.802582
0.912415 0.927155 0.814728
0.235687 0.120758 0.831360
0.359650 0.120789 0.831482
0.517731 0.120575 0.830078
0.689728 0.119263 0.822235
0.845520 0.123077 0.826782
0.211426 0.284760 0.839172
0.350922 0.230164 0.847504
0.513367 0.198669 0.843170
0.697021 0.186218 0.834534
0.852661 0.189178 0.836029
0.119568 0.490387 0.823944
0.298523 0.515472 0.851379
0.528748 0.523621 0.899567
0.730896 0.491669 0.892456
0.900391 0.504822 0.886963
0.121521 0.667175 0.836029
0.187683 0.675873 0.843475
0.458649 0.725525 0.886536
0.733429 0.760529 0.929535
0.932312 0.752258 0.929474
0.122803 0.835632 0.844116
0.189178 0.844635 0.852661
0.385193 0.874207 0.880951
0.699005 0.920898 0.928375
0.933411 0.951019 0.958588
