assets/configs/ColorAnd3dLutPreset/lutDefault/60_DLog_709_Style/Data/DLog 709 Style.CUBE
#Created by: Adobe Photoshop Export Color Lookup Plugin
#Copyright: (C) Copyright 2024 Wondershare Andy Zhang
TITLE "DLog 709 Style"
#LUT size
LUT_3D_SIZE 4
#data domain
#LUT data points
DOMAIN_MIN 0.000000 0.000000 0.000000
DOMAIN_MAX 0.818182 0.818182 0.818182
0.007385 0.007874 0.007355
0.263855 0.020477 0.021027
0.829895 0.135284 0.140533
0.998993 0.171631 0.178772
0.021667 0.207703 0.020935
0.194641 0.206879 0.020508
0.825134 0.146240 0.139648
0.998993 0.171631 0.178772
0.119598 0.748505 0.118927
0.119568 0.748291 0.118866
0.773163 0.749420 0.123047
0.998810 0.717224 0.175690
0.209564 0.993744 0.171234
0.209564 0.993744 0.171234
0.209534 0.993713 0.171234
0.998108 0.994080 0.171417
0.050110 0.020874 0.207367
0.250641 0.019348 0.201813
0.828644 0.135010 0.188232
0.998993 0.171631 0.178772
0.026398 0.188416 0.203369
0.199249 0.200104 0.200165
0.824280 0.138763 0.182892
0.998993 0.171631 0.178772
0.119354 0.746643 0.127686
0.119293 0.746521 0.125793
0.772339 0.748169 0.122864
0.998810 0.715698 0.175629
0.209564 0.993744 0.171234
0.209564 0.993744 0.171234
0.209534 0.993713 0.171234
0.998108 0.994049 0.171417
0.192474 0.111206 0.717834
0.268036 0.110382 0.714081
0.809845 0.131500 0.697235
0.997437 0.171295 0.620636
0.192383 0.111176 0.717773
0.224915 0.110779 0.715851
0.804871 0.130493 0.696808
0.997437 0.171295 0.620300
0.115204 0.705414 0.733612
0.115234 0.705231 0.732880
0.714539 0.713562 0.716949
0.997589 0.703186 0.635101
0.235199 0.990112 0.722931
0.235443 0.990143 0.722168
0.237793 0.990204 0.714111
0.997559 0.992859 0.555389
0.274048 0.166199 0.973846
0.274048 0.166199 0.973846
0.726288 0.166138 0.973480
0.989044 0.169830 0.970184
0.274048 0.166199 0.973846
0.274048 0.166199 0.973846
0.717804 0.166138 0.973480
0.989044 0.169830 0.970184
0.229401 0.370300 0.977539
0.229523 0.369202 0.977509
0.601257 0.369110 0.975952
0.989960 0.221649 0.971619
0.169586 0.982819 0.989502
0.169586 0.982819 0.989502
0.169586 0.982788 0.989471
0.985352 0.986328 0.985870
