assets/configs/ColorAnd3dLutPreset/lutDefault/60_DLog_709_Style/Data/DLog 709 Style.CUBE
#Created by: Adobe Photoshop Export Color Lookup Plugin
#Copyright: (C) Copyright 2024 Wondershare Andy Zhang
TITLE "DLog 709 Style"
#LUT size
LUT_3D_SIZE 12
#data domain
DOMAIN_MIN 0.0 0.0 0.0
DOMAIN_MAX 1.0 1.0 1.0
#LUT data points
0.007385 0.007874 0.007355
0.038910 0.009125 0.009003
0.135437 0.019684 0.019470
0.263855 0.020477 0.021027
0.433594 0.062866 0.051361
0.634888 0.097107 0.096008
0.829895 0.135284 0.140533
0.955627 0.162323 0.169128
0.995239 0.170807 0.177948
0.998993 0.171631 0.178772
0.999786 0.171783 0.178925
1.000000 0.171844 0.178986
0.009613 0.033112 0.009491
0.029602 0.031616 0.010040
0.112457 0.032074 0.016479
0.253418 0.028351 0.020660
0.427490 0.063171 0.050079
0.631470 0.096649 0.095245
0.828796 0.135040 0.140289
0.955353 0.162262 0.169037
0.995209 0.170807 0.177948
0.998993 0.171631 0.178772
0.999786 0.171783 0.178925
1.000000 0.171844 0.178986
0.015320 0.091248 0.013885
0.019501 0.090637 0.013641
0.085175 0.088898 0.013031
0.243835 0.079620 0.020050
0.421600 0.093628 0.048706
0.627228 0.096802 0.094177
0.827515 0.134766 0.139954
0.955078 0.162201 0.168976
0.995209 0.170807 0.177948
0.998993 0.171631 0.178772
0.999786 0.171783 0.178925
1.000000 0.171844 0.178986
0.021667 0.207703 0.020935
0.021851 0.207245 0.020844
0.030823 0.206787 0.020844
0.194641 0.206879 0.020508
0.403503 0.220398 0.044189
0.624146 0.190521 0.091766
0.825134 0.146240 0.139648
0.954376 0.162048 0.168671
0.995178 0.170807 0.177917
0.998993 0.171631 0.178772
0.999786 0.171783 0.178925
1.000000 0.171844 0.178986
0.043274 0.390259 0.042267
0.043243 0.390015 0.042206
0.043182 0.389740 0.042145
0.068604 0.389801 0.042236
0.357239 0.389862 0.042694
0.617462 0.376709 0.090363
0.821259 0.363007 0.134430
0.954559 0.329102 0.164215
0.995361 0.259460 0.175568
0.998993 0.173523 0.178680
0.999786 0.171783 0.178925
1.000000 0.171844 0.178986
0.081451 0.572876 0.080902
0.081421 0.572754 0.080872
0.081390 0.572662 0.080841
0.081329 0.572388 0.080780
0.238495 0.571320 0.080811
0.581207 0.571136 0.083771
0.801727 0.564484 0.129547
0.949097 0.549744 0.162231
0.994934 0.528137 0.171997
0.998993 0.480042 0.172791
0.999786 0.278381 0.175995
1.000000 0.171844 0.178986
0.119598 0.748505 0.118927
0.119598 0.748444 0.118896
0.119598 0.748413 0.118896
0.119568 0.748291 0.118866
0.119507 0.748077 0.118835
0.458801 0.751282 0.119415
0.773163 0.749420 0.123047
0.939331 0.746155 0.161224
0.993835 0.735687 0.175293
0.998810 0.717224 0.175690
0.999756 0.671387 0.174072
1.000000 0.504761 0.173065
0.159271 0.894684 0.150513
0.159271 0.894684 0.150513
0.159271 0.894653 0.150513
0.159271 0.894623 0.150482
0.159210 0.894531 0.150482
0.159149 0.894348 0.150421
0.651031 0.898376 0.150726
0.918365 0.896149 0.154266
0.992859 0.894440 0.170319
0.998718 0.889191 0.171570
0.999725 0.877380 0.172058
1.000000 0.843750 0.174713
0.196442 0.971313 0.166809
0.196442 0.971313 0.166809
0.196442 0.971313 0.166809
0.196442 0.971313 0.166809
0.196442 0.971313 0.166809
0.196411 0.971252 0.166809
0.196381 0.971191 0.166779
0.823517 0.973816 0.166229
0.987793 0.972534 0.169220
0.998596 0.971649 0.171539
0.999695 0.969788 0.171783
1.000000 0.965240 0.171844
0.209564 0.993744 0.171234
0.209564 0.993744 0.171234
0.209564 0.993744 0.171234
0.209564 0.993744 0.171234
0.209564 0.993744 0.171234
0.209564 0.993744 0.171234
0.209534 0.993713 0.171234
0.209534 0.993713 0.171234
0.947205 0.994263 0.170624
0.998108 0.994080 0.171417
0.999634 0.993958 0.171753
1.000000 0.993683 0.171844
0.212677 0.997925 0.172028
0.212677 0.997925 0.172028
0.212677 0.997925 0.172028
0.212677 0.997925 0.172028
0.212677 0.997925 0.172028
0.212677 0.997925 0.172028
0.212677 0.997925 0.172028
0.212677 0.997925 0.172028
0.212677 0.997925 0.172028
0.993652 0.997833 0.171356
0.999512 0.997803 0.171722
1.000000 0.997803 0.171844
0.213806 0.999420 0.172302
0.213806 0.999420 0.172302
0.213806 0.999420 0.172302
0.213806 0.999420 0.172302
0.213806 0.999420 0.172302
0.213806 0.999420 0.172302
0.213806 0.999420 0.172302
0.213806 0.999420 0.172302
0.213806 0.999420 0.172302
0.213806 0.999420 0.172302
0.998688 0.999146 0.171661
1.000000 0.999146 0.171844
0.010590 0.008545 0.031464
0.039520 0.009613 0.028168
0.132690 0.018799 0.033234
0.261261 0.020203 0.029480
0.432770 0.062653 0.055023
0.634094 0.097382 0.096924
0.829712 0.135223 0.140503
0.955597 0.162323 0.169098
0.995239 0.170807 0.177948
0.998993 0.171631 0.178772
0.999786 0.171783 0.178925
1.000000 0.171844 0.178986
0.010956 0.028961 0.030212
0.034760 0.035156 0.035248
0.109344 0.030273 0.029999
0.250183 0.028290 0.029205
0.426636 0.062347 0.053650
0.630676 0.096893 0.096100
0.828613 0.135010 0.140228
0.955322 0.162262 0.169037
0.995209 0.170807 0.177948
0.998993 0.171631 0.178772
0.999786 0.171783 0.178925
1.000000 0.171844 0.178986
0.014923 0.086853 0.026947
0.019287 0.086731 0.026459
0.082855 0.086456 0.026215
0.241364 0.076019 0.025848
0.420349 0.089111 0.051453
0.626465 0.096924 0.095032
0.827332 0.134735 0.139893
0.955048 0.162201 0.168976
0.995209 0.170807 0.177948
0.998993 0.171631 0.178772
0.999786 0.171783 0.178925
1.000000 0.171844 0.178986
0.021820 0.204132 0.026581
0.021942 0.203705 0.026184
0.030670 0.203156 0.025940
0.192566 0.203430 0.022980
0.402222 0.217377 0.044861
0.623199 0.187469 0.092163
0.824921 0.144989 0.139618
0.954346 0.162048 0.168701
0.995178 0.170807 0.177917
0.998993 0.171631 0.178772
0.999786 0.171783 0.178925
1.000000 0.171844 0.178986
0.042999 0.388550 0.042267
0.042938 0.388306 0.042175
0.042908 0.388000 0.042084
0.067017 0.388092 0.041992
0.355865 0.388184 0.042358
0.617004 0.375000 0.090271
0.821106 0.361084 0.134399
0.954529 0.326843 0.164276
0.995361 0.256226 0.175659
0.998993 0.172302 0.178558
0.999786 0.171783 0.178925
1.000000 0.171844 0.178986
0.081268 0.572174 0.080750
0.081268 0.572083 0.080719
0.081238 0.571930 0.080688
0.081177 0.571686 0.080627
0.236206 0.570618 0.080658
0.580597 0.570465 0.083679
0.801575 0.563751 0.129547
0.949097 0.548981 0.162231
0.994934 0.527374 0.171997
0.998993 0.479004 0.172791
0.999786 0.275269 0.176025
1.000000 0.171844 0.178986
0.119537 0.748230 0.118866
0.119537 0.748169 0.118866
0.119537 0.748138 0.118835
0.119507 0.748016 0.118835
0.119446 0.747772 0.118774
0.457733 0.750977 0.119354
0.772919 0.749146 0.122986
0.939301 0.745850 0.161194
0.993835 0.735413 0.175262
0.998810 0.716919 0.175659
0.999756 0.670959 0.174072
1.000000 0.503784 0.173065
0.159241 0.894592 0.150482
0.159241 0.894562 0.150482
0.159241 0.894562 0.150482
0.159210 0.894501 0.150452
0.159180 0.894470 0.150452
0.159119 0.894287 0.150421
0.650604 0.898315 0.150696
0.918304 0.896027 0.154266
0.992859 0.894379 0.170319
0.998718 0.889099 0.171570
0.999725 0.877258 0.172058
1.000000 0.843567 0.174744
0.196442 0.971313 0.166809
0.196442 0.971313 0.166809
0.196442 0.971313 0.166809
0.196442 0.971283 0.166809
0.196442 0.971283 0.166809
0.196411 0.971222 0.166779
0.196381 0.971191 0.166779
0.823364 0.973816 0.166229
0.987793 0.972534 0.169220
0.998596 0.971619 0.171539
0.999695 0.969757 0.171783
1.000000 0.965240 0.171844
0.209564 0.993744 0.171234
0.209564 0.993744 0.171234
0.209564 0.993744 0.171234
0.209564 0.993744 0.171234
0.209564 0.993744 0.171234
0.209564 0.993744 0.171234
0.209534 0.993713 0.171234
0.209534 0.993713 0.171234
0.947144 0.994263 0.170624
0.998108 0.994080 0.171417
0.999634 0.993958 0.171753
1.000000 0.993683 0.171844
0.212677 0.997925 0.172028
0.212677 0.997925 0.172028
0.212677 0.997925 0.172028
0.212677 0.997925 0.172028
0.212677 0.997925 0.172028
0.212677 0.997925 0.172028
0.212677 0.997925 0.172028
0.212677 0.997925 0.172028
0.212677 0.997925 0.172028
0.993652 0.997833 0.171356
0.999512 0.997803 0.171722
1.000000 0.997803 0.171844
0.213806 0.999420 0.172302
0.213806 0.999420 0.172302
0.213806 0.999420 0.172302
0.213806 0.999420 0.172302
0.213806 0.999420 0.172302
0.213806 0.999420 0.172302
0.213806 0.999420 0.172302
0.213806 0.999420 0.172302
0.213806 0.999420 0.172302
0.213806 0.999420 0.172302
0.998688 0.999146 0.171661
1.000000 0.999146 0.171844
0.017456 0.013458 0.091187
0.042450 0.013275 0.088867
0.130859 0.018372 0.090210
0.253113 0.020142 0.084656
0.433716 0.058716 0.084290
0.630249 0.099457 0.106323
0.829620 0.135223 0.141785
0.955536 0.162292 0.169098
0.995239 0.170807 0.177948
0.998993 0.171631 0.178772
0.999786 0.171783 0.178925
1.000000 0.171844 0.178986
0.016602 0.024902 0.089508
0.028320 0.025391 0.087708
0.108643 0.027161 0.086884
0.240845 0.027710 0.082916
0.427399 0.057495 0.082703
0.626862 0.099060 0.105286
0.828491 0.134979 0.141479
0.955261 0.162231 0.169037
0.995209 0.170807 0.177948
0.998993 0.171631 0.178772
0.999786 0.171783 0.178925
1.000000 0.171844 0.178986
0.014618 0.080872 0.085571
0.018219 0.080566 0.083618
0.097168 0.097229 0.097260
0.231842 0.077667 0.078125
0.418793 0.080231 0.080719
0.622925 0.098969 0.103729
0.827240 0.134705 0.141144
0.954987 0.162170 0.168976
0.995209 0.170807 0.177948
0.998993 0.171631 0.178772
0.999786 0.171783 0.178925
1.000000 0.171844 0.178986
0.021667 0.198425 0.075348
0.021759 0.198029 0.073273
0.029022 0.197479 0.070618
0.189026 0.196960 0.058289
0.399292 0.212830 0.058533
0.620880 0.184387 0.097565
0.824707 0.144012 0.140472
0.954285 0.162048 0.168701
0.995178 0.170807 0.177917
0.998993 0.171631 0.178772
0.999786 0.171783 0.178925
1.000000 0.171844 0.178986
0.042511 0.385529 0.047455
0.042480 0.385315 0.046967
0.042419 0.385071 0.046509
0.066010 0.385345 0.044220
0.353760 0.386017 0.042877
0.616425 0.373108 0.090302
0.820923 0.358948 0.134399
0.954498 0.324371 0.164368
0.995361 0.252716 0.175781
0.998993 0.171844 0.178497
0.999786 0.171783 0.178925
1.000000 0.171844 0.178986
0.081116 0.571350 0.080566
0.081085 0.571228 0.080566
0.081055 0.571075 0.080505
0.081024 0.570862 0.080475
0.233673 0.569794 0.080475
0.579895 0.569641 0.083527
0.801422 0.562866 0.129486
0.949066 0.548157 0.162231
0.994934 0.526459 0.171997
0.998993 0.477875 0.172791
0.999786 0.271790 0.176025
1.000000 0.171844 0.178986
0.119476 0.747864 0.118774
0.119476 0.747833 0.118774
0.119446 0.747772 0.118774
0.119446 0.747681 0.118744
0.119385 0.747437 0.118683
0.456604 0.750641 0.119293
0.772675 0.748840 0.122925
0.939209 0.745514 0.161194
0.993835 0.735016 0.175262
0.998810 0.716492 0.175659
0.999756 0.670471 0.174042
1.000000 0.502655 0.173065
0.159271 0.894501 0.150452
0.159271 0.894501 0.150452
0.159241 0.894470 0.150452
0.159241 0.894440 0.150452
0.159180 0.894348 0.150421
0.159088 0.894165 0.150391
0.650116 0.898193 0.150696
0.918243 0.895935 0.154266
0.992859 0.894257 0.170319
0.998718 0.888977 0.171570
0.999725 0.877136 0.172058
1.000000 0.843384 0.174744
0.196442 0.971283 0.166809
0.196442 0.971283 0.166809
0.196442 0.971283 0.166809
0.196442 0.971283 0.166809
0.196411 0.971252 0.166809
0.196411 0.971222 0.166779
0.196350 0.971161 0.166779
0.823181 0.973785 0.166199
0.987793 0.972534 0.169220
0.998596 0.971588 0.171539
0.999695 0.969757 0.171783
1.000000 0.965240 0.171844
0.209564 0.993744 0.171234
0.209564 0.993744 0.171234
0.209564 0.993744 0.171234
0.209564 0.993744 0.171234
0.209564 0.993744 0.171234
0.209564 0.993744 0.171234
0.209534 0.993713 0.171234
0.209534 0.993713 0.171234
0.947113 0.994263 0.170624
0.998108 0.994049 0.171417
0.999634 0.993958 0.171753
1.000000 0.993683 0.171844
0.212677 0.997925 0.172028
0.212677 0.997925 0.172028
0.212677 0.997925 0.172028
0.212677 0.997925 0.172028
0.212677 0.997925 0.172028
0.212677 0.997925 0.172028
0.212677 0.997925 0.172028
0.212677 0.997925 0.172028
0.212677 0.997925 0.172028
0.993652 0.997833 0.171356
0.999512 0.997803 0.171722
1.000000 0.997803 0.171844
0.213806 0.999420 0.172302
0.213806 0.999420 0.172302
0.213806 0.999420 0.172302
0.213806 0.999420 0.172302
0.213806 0.999420 0.172302
0.213806 0.999420 0.172302
0.213806 0.999420 0.172302
0.213806 0.999420 0.172302
0.213806 0.999420 0.172302
0.213806 0.999420 0.172302
0.998688 0.999146 0.171661
1.000000 0.999146 0.171844
0.050110 0.020874 0.207367
0.077118 0.020844 0.205688
0.143188 0.020721 0.203430
0.250641 0.019348 0.201813
0.438751 0.051178 0.198181
0.626740 0.103088 0.197235
0.828644 0.135010 0.188232
0.955536 0.162292 0.170837
0.995239 0.170807 0.177948
0.998993 0.171631 0.178772
0.999786 0.171783 0.178925
1.000000 0.171844 0.178986
0.048401 0.024536 0.206177
0.064728 0.024261 0.204590
0.126343 0.023376 0.202454
0.239136 0.021698 0.200531
0.431519 0.049896 0.197388
0.623871 0.102478 0.196564
0.827484 0.134766 0.187622
0.955261 0.162231 0.170746
0.995209 0.170807 0.177948
0.998993 0.171631 0.178772
0.999786 0.171783 0.178925
1.000000 0.171844 0.178986
0.036591 0.067383 0.203064
0.043976 0.066956 0.201294
0.096863 0.064789 0.198273
0.222534 0.052185 0.196350
0.421783 0.052917 0.195496
0.620300 0.102020 0.195312
0.826233 0.134491 0.186768
0.954987 0.162170 0.170624
0.995209 0.170807 0.177948
0.998993 0.171631 0.178772
0.999786 0.171783 0.178925
1.000000 0.171844 0.178986
0.026398 0.188416 0.203369
0.026428 0.187958 0.201752
0.042236 0.187378 0.198822
0.199249 0.200104 0.200165
0.397491 0.188538 0.187744
0.606262 0.192261 0.190765
0.824280 0.138763 0.182892
0.954285 0.162018 0.169922
0.995178 0.170807 0.177917
0.998993 0.171631 0.178772
0.999786 0.171783 0.178925
1.000000 0.171844 0.178986
0.037720 0.371613 0.184082
0.037720 0.371521 0.182251
0.037720 0.371460 0.180267
0.073212 0.371338 0.173950
0.346283 0.372620 0.163788
0.606659 0.370026 0.145660
0.820312 0.352234 0.148254
0.954468 0.319000 0.164642
0.995361 0.245544 0.175995
0.998993 0.171783 0.178528
0.999786 0.171783 0.178925
1.000000 0.171844 0.178986
0.080200 0.566925 0.144623
0.080170 0.566895 0.142151
0.080139 0.566864 0.139557
0.080048 0.566833 0.134216
0.227966 0.565125 0.139496
0.575531 0.567047 0.101074
0.801208 0.560852 0.129944
0.949036 0.546417 0.162201
0.994934 0.524567 0.171997
0.998993 0.475555 0.172760
0.999786 0.264923 0.176117
1.000000 0.171844 0.178986
0.119354 0.746643 0.127686
0.119324 0.746643 0.127197
0.119324 0.746613 0.126770
0.119293 0.746521 0.125793
0.119263 0.746399 0.123596
0.454224 0.749725 0.120026
0.772339 0.748169 0.122864
0.939117 0.744843 0.161163
0.993835 0.734283 0.175232
0.998810 0.715698 0.175629
0.999756 0.669434 0.174011
1.000000 0.500397 0.173065
0.159821 0.894196 0.150391
0.159821 0.894196 0.150391
0.159821 0.894196 0.150391
0.159790 0.894165 0.150391
0.159668 0.894073 0.150391
0.159454 0.893921 0.150330
0.649292 0.897980 0.150635
0.918060 0.895721 0.154205
0.992859 0.894043 0.170319
0.998718 0.888763 0.171570
0.999725 0.876892 0.172058
1.000000 0.843079 0.174805
0.196777 0.971222 0.166779
0.196777 0.971222 0.166779
0.196747 0.971222 0.166779
0.196686 0.971222 0.166779
0.196625 0.971222 0.166779
0.196503 0.971191 0.166779
0.196381 0.971130 0.166779
0.822815 0.973724 0.166199
0.987762 0.972473 0.169220
0.998596 0.971588 0.171539
0.999695 0.969727 0.171783
1.000000 0.965179 0.171844
0.209564 0.993744 0.171234
0.209564 0.993744 0.171234
0.209564 0.993744 0.171234
0.209564 0.993744 0.171234
0.209534 0.993713 0.171234
0.209534 0.993713 0.171234
0.209534 0.993713 0.171234
0.209534 0.993713 0.171234
0.947021 0.994263 0.170624
0.998108 0.994049 0.171417
0.999634 0.993958 0.171753
1.000000 0.993683 0.171844
0.212677 0.997925 0.172028
0.212677 0.997925 0.172028
0.212677 0.997925 0.172028
0.212677 0.997925 0.172028
0.212677 0.997925 0.172028
0.212677 0.997925 0.172028
0.212677 0.997925 0.172028
0.212677 0.997925 0.172028
0.212677 0.997925 0.172028
0.993652 0.997833 0.171356
0.999512 0.997803 0.171722
1.000000 0.997803 0.171844
0.213806 0.999420 0.172302
0.213806 0.999420 0.172302
0.213806 0.999420 0.172302
0.213806 0.999420 0.172302
0.213806 0.999420 0.172302
0.213806 0.999420 0.172302
0.213806 0.999420 0.172302
0.213806 0.999420 0.172302
0.213806 0.999420 0.172302
0.213806 0.999420 0.172302
0.998688 0.999146 0.171661
1.000000 0.999146 0.171844
0.071564 0.036774 0.370544
0.090118 0.036499 0.369598
0.148651 0.036316 0.368683
0.269135 0.034851 0.362000
0.444519 0.052368 0.354675
0.649872 0.096527 0.365479
0.826019 0.134460 0.356598
0.953857 0.161926 0.306396
0.995270 0.170837 0.187134
0.998993 0.171631 0.178772
0.999786 0.171783 0.178925
1.000000 0.171844 0.178986
0.070984 0.036926 0.370209
0.080719 0.036743 0.369354
0.132416 0.036438 0.368347
0.257446 0.035034 0.362579
0.437653 0.050934 0.354156
0.646729 0.095886 0.364807
0.824951 0.134216 0.356201
0.953613 0.161896 0.306061
0.995270 0.170837 0.187012
0.998993 0.171631 0.178772
0.999786 0.171783 0.178925
1.000000 0.171844 0.178986
0.066376 0.040985 0.369568
0.069885 0.040680 0.368744
0.111603 0.039734 0.367737
0.242706 0.036499 0.363129
0.429413 0.049408 0.353424
0.643188 0.095154 0.364044
0.823761 0.133972 0.355774
0.953308 0.161804 0.305634
0.995239 0.170807 0.186890
0.998993 0.171631 0.178772
0.999786 0.171783 0.178925
1.000000 0.171844 0.178986
0.049622 0.162079 0.367981
0.049530 0.161591 0.367126
0.062256 0.160797 0.365906
0.205414 0.153534 0.361511
0.399231 0.142059 0.353638
0.632019 0.125793 0.362030
0.820923 0.134491 0.353882
0.952728 0.161682 0.304199
0.995209 0.170807 0.186615
0.998993 0.171631 0.178772
0.999786 0.171783 0.178925
1.000000 0.171844 0.178986
0.056305 0.345276 0.376770
0.056152 0.344971 0.375916
0.056000 0.344635 0.375000
0.099121 0.344238 0.370575
0.355225 0.359070 0.358856
0.585327 0.366089 0.359589
0.802399 0.353516 0.353943
0.956268 0.298004 0.313782
0.995361 0.228577 0.182678
0.998993 0.171692 0.178619
0.999786 0.171783 0.178925
1.000000 0.171844 0.178986
0.079468 0.552063 0.368469
0.079407 0.552002 0.367615
0.079315 0.551971 0.366669
0.079102 0.551849 0.364685
0.236267 0.549377 0.361816
0.535065 0.549591 0.344696
0.785187 0.557343 0.339264
0.948547 0.541412 0.228394
0.994965 0.520203 0.171997
0.998993 0.470093 0.172760
0.999786 0.250366 0.176208
1.000000 0.171844 0.178986
0.167908 0.738190 0.373138
0.167908 0.738190 0.371979
0.167938 0.738190 0.370697
0.168060 0.738159 0.368103
0.168396 0.738098 0.362152
0.452393 0.735107 0.356873
0.763977 0.741547 0.275970
0.939209 0.742493 0.186462
0.993835 0.732635 0.175171
0.998810 0.713898 0.175537
0.999756 0.667145 0.173889
1.000000 0.495209 0.173035
0.180573 0.890717 0.317261
0.180298 0.890717 0.315887
0.179962 0.890778 0.314362
0.179321 0.890778 0.311218
0.177856 0.890839 0.304077
0.174469 0.890991 0.287628
0.647858 0.896210 0.206360
0.918274 0.895111 0.154999
0.992828 0.893616 0.170319
0.998688 0.888306 0.171570
0.999725 0.876343 0.172058
1.000000 0.842255 0.174866
0.207367 0.970062 0.238373
0.207245 0.970062 0.236664
0.207153 0.970093 0.234833
0.206879 0.970123 0.230988
0.206299 0.970184 0.222382
0.205292 0.970337 0.209900
0.201050 0.970612 0.183929
0.822266 0.973633 0.166168
0.987732 0.972382 0.169220
0.998596 0.971497 0.171539
0.999695 0.969635 0.171783
1.000000 0.965088 0.171844
0.210785 0.993713 0.171265
0.210785 0.993713 0.171265
0.210754 0.993713 0.171265
0.210754 0.993713 0.171265
0.210693 0.993713 0.171265
0.210480 0.993713 0.171234
0.210022 0.993713 0.171234
0.209564 0.993713 0.171234
0.946838 0.994263 0.170624
0.998108 0.994049 0.171417
0.999634 0.993958 0.171753
1.000000 0.993683 0.171844
0.212677 0.997925 0.172028
0.212677 0.997925 0.172028
0.212677 0.997925 0.172028
0.212677 0.997925 0.172028
0.212677 0.997925 0.172028
0.212677 0.997925 0.172028
0.212677 0.997925 0.172028
0.212677 0.997925 0.172028
0.212677 0.997925 0.172028
0.993652 0.997833 0.171356
0.999512 0.997803 0.171722
1.000000 0.997803 0.171844
0.213806 0.999420 0.172302
0.213806 0.999420 0.172302
0.213806 0.999420 0.172302
0.213806 0.999420 0.172302
0.213806 0.999420 0.172302
0.213806 0.999420 0.172302
0.213806 0.999420 0.172302
0.213806 0.999420 0.172302
0.213806 0.999420 0.172302
0.213806 0.999420 0.172302
0.998688 0.999146 0.171661
1.000000 0.999146 0.171844
0.139343 0.074463 0.547119
0.143372 0.074341 0.546600
0.173309 0.073975 0.544830
0.275848 0.072449 0.537628
0.452942 0.071655 0.531372
0.637177 0.093872 0.523987
0.821533 0.133484 0.531708
0.951111 0.161346 0.524963
0.994202 0.170593 0.462677
0.998993 0.171631 0.210052
0.999786 0.171783 0.178925
1.000000 0.171844 0.178986
0.139313 0.074432 0.546997
0.140106 0.074341 0.546600
0.163391 0.074066 0.545227
0.264587 0.072540 0.537994
0.446869 0.071655 0.531860
0.634247 0.093231 0.523804
0.820404 0.133240 0.531433
0.950867 0.161285 0.524780
0.994171 0.170593 0.462463
0.998993 0.171631 0.209961
0.999786 0.171783 0.178925
1.000000 0.171844 0.178986
0.139252 0.074432 0.546967
0.139130 0.074341 0.546600
0.154877 0.074127 0.545563
0.251862 0.072693 0.538727
0.439911 0.071716 0.532471
0.630951 0.092560 0.523590
0.819122 0.132965 0.531097
0.950562 0.161224 0.524628
0.994171 0.170593 0.462250
0.998993 0.171631 0.209869
0.999786 0.171783 0.178925
1.000000 0.171844 0.178986
0.136597 0.081177 0.552582
0.136475 0.080963 0.552155
0.140472 0.080627 0.551514
0.223877 0.077820 0.544739
0.422668 0.078674 0.534851
0.623169 0.092133 0.522980
0.816345 0.132355 0.530334
0.950012 0.161102 0.524200
0.994141 0.170593 0.461823
0.998962 0.171600 0.209656
0.999786 0.171783 0.178925
1.000000 0.171844 0.178986
0.077026 0.321259 0.552826
0.076935 0.320984 0.552399
0.076874 0.320648 0.551971
0.086792 0.319763 0.550903
0.354950 0.326752 0.538849
0.589294 0.328125 0.530518
0.806793 0.308899 0.536591
0.947998 0.264099 0.526031
0.994110 0.196198 0.460632
0.998962 0.171600 0.208893
0.999786 0.171783 0.178925
1.000000 0.171844 0.178986
0.136444 0.525848 0.551544
0.136383 0.525726 0.551147
0.136322 0.525574 0.550720
0.136261 0.525330 0.549774
0.234985 0.525085 0.544464
0.536499 0.537354 0.537964
0.764984 0.550659 0.543884
0.931946 0.544830 0.531860
0.993439 0.512085 0.472504
0.998993 0.456451 0.191467
0.999786 0.236786 0.176483
1.000000 0.171844 0.178986
0.121094 0.725708 0.552704
0.121124 0.725677 0.552368
0.121155 0.725647 0.551941
0.121216 0.725586 0.551117
0.121338 0.725403 0.549225
0.444580 0.715759 0.551453
0.726929 0.720459 0.535004
0.921936 0.734741 0.524445
0.991638 0.728699 0.433838
0.998810 0.709442 0.178986
0.999756 0.661957 0.173645
1.000000 0.483185 0.173004
0.207336 0.883667 0.564087
0.207428 0.883667 0.563690
0.207581 0.883636 0.563232
0.207855 0.883636 0.562317
0.208374 0.883636 0.560089
0.209412 0.883606 0.555023
0.639374 0.883026 0.549530
0.906616 0.886993 0.507263
0.991699 0.891083 0.395905
0.998718 0.887115 0.171631
0.999725 0.875092 0.172089
1.000000 0.840454 0.175049
0.243774 0.965637 0.532288
0.243744 0.965637 0.531769
0.243683 0.965637 0.531189
0.243622 0.965637 0.530029
0.243500 0.965698 0.527313
0.243164 0.965759 0.521271
0.241852 0.965973 0.506470
0.821991 0.969818 0.444763
0.987274 0.971161 0.295135
0.998596 0.971313 0.171539
0.999695 0.969452 0.171783
1.000000 0.964905 0.171844
0.248016 0.992249 0.466583
0.247925 0.992249 0.465912
0.247803 0.992249 0.465149
0.247589 0.992249 0.463562
0.247101 0.992279 0.460052
0.246033 0.992340 0.451996
0.243134 0.992432 0.432373
0.236145 0.992706 0.380768
0.946899 0.994141 0.195648
0.998108 0.994019 0.171417
0.999634 0.993927 0.171753
1.000000 0.993652 0.171844
0.227325 0.997772 0.239441
0.227234 0.997772 0.238922
0.227173 0.997772 0.238342
0.227020 0.997772 0.237122
0.226624 0.997803 0.234161
0.225708 0.997803 0.227936
0.222900 0.997833 0.216431
0.216217 0.997894 0.186127
0.212830 0.997925 0.172028
0.993622 0.997833 0.171356
0.999512 0.997803 0.171722
1.000000 0.997803 0.171844
0.213806 0.999420 0.172302
0.213806 0.999420 0.172302
0.213806 0.999420 0.172302
0.213806 0.999420 0.172302
0.213806 0.999420 0.172302
0.213806 0.999420 0.172302
0.213806 0.999420 0.172302
0.213806 0.999420 0.172302
0.213806 0.999420 0.172302
0.213806 0.999420 0.172302
0.998688 0.999146 0.171661
1.000000 0.999146 0.171844
0.192474 0.111206 0.717834
0.192413 0.111176 0.717682
0.197571 0.111084 0.717346
0.268036 0.110382 0.714081
0.445801 0.109741 0.711182
0.633118 0.108612 0.700897
0.809845 0.131500 0.697235
0.942413 0.159454 0.698242
0.991119 0.169952 0.682922
0.997437 0.171295 0.620636
0.999756 0.171783 0.251068
1.000000 0.171844 0.178986
0.192474 0.111176 0.717804
0.192413 0.111145 0.717651
0.194397 0.111084 0.717377
0.258057 0.110474 0.714478
