assets/configs/ColorAnd3dLutPreset/lutDefault/60_DLog_709_Style/Data/DLog 709 Style.CUBE
#Created by: Adobe Photoshop Export Color Lookup Plugin
#Copyright: (C) Copyright 2024 Wondershare Andy Zhang
TITLE "DLog 709 Style"
#LUT size
LUT_3D_SIZE 6
#data domain
#LUT data points
DOMAIN_MIN 0.000000 0.000000 0.000000
DOMAIN_MAX 0.909091 0.909091 0.909091
0.007385 0.007874 0.007355
0.135437 0.019684 0.019470
0.433594 0.062866 0.051361
0.829895 0.135284 0.140533
0.995239 0.170807 0.177948
0.999786 0.171783 0.178925
0.015320 0.091248 0.013885
0.085175 0.088898 0.013031
0.421600 0.093628 0.048706
0.827515 0.134766 0.139954
0.995209 0.170807 0.177948
0.999786 0.171783 0.178925
0.043274 0.390259 0.042267
0.043182 0.389740 0.042145
0.357239 0.389862 0.042694
0.821259 0.363007 0.134430
0.995361 0.259460 0.175568
0.999786 0.171783 0.178925
0.119598 0.748505 0.118927
0.119598 0.748413 0.118896
0.119507 0.748077 0.118835
0.773163 0.749420 0.123047
0.993835 0.735687 0.175293
0.999756 0.671387 0.174072
0.196442 0.971313 0.166809
0.196442 0.971313 0.166809
0.196442 0.971313 0.166809
0.196381 0.971191 0.166779
0.987793 0.972534 0.169220
0.999695 0.969788 0.171783
0.212677 0.997925 0.172028
0.212677 0.997925 0.172028
0.212677 0.997925 0.172028
0.212677 0.997925 0.172028
0.212677 0.997925 0.172028
0.999512 0.997803 0.171722
0.017456 0.013458 0.091187
0.130859 0.018372 0.090210
0.433716 0.058716 0.084290
0.829620 0.135223 0.141785
0.995239 0.170807 0.177948
0.999786 0.171783 0.178925
0.014618 0.080872 0.085571
0.097168 0.097229 0.097260
0.418793 0.080231 0.080719
0.827240 0.134705 0.141144
0.995209 0.170807 0.177948
0.999786 0.171783 0.178925
0.042511 0.385529 0.047455
0.042419 0.385071 0.046509
0.353760 0.386017 0.042877
0.820923 0.358948 0.134399
0.995361 0.252716 0.175781
0.999786 0.171783 0.178925
0.119476 0.747864 0.118774
0.119446 0.747772 0.118774
0.119385 0.747437 0.118683
0.772675 0.748840 0.122925
0.993835 0.735016 0.175262
0.999756 0.670471 0.174042
0.196442 0.971283 0.166809
0.196442 0.971283 0.166809
0.196411 0.971252 0.166809
0.196350 0.971161 0.166779
0.987793 0.972534 0.169220
0.999695 0.969757 0.171783
0.212677 0.997925 0.172028
0.212677 0.997925 0.172028
0.212677 0.997925 0.172028
0.212677 0.997925 0.172028
0.212677 0.997925 0.172028
0.999512 0.997803 0.171722
0.071564 0.036774 0.370544
0.148651 0.036316 0.368683
0.444519 0.052368 0.354675
0.826019 0.134460 0.356598
0.995270 0.170837 0.187134
0.999786 0.171783 0.178925
0.066376 0.040985 0.369568
0.111603 0.039734 0.367737
0.429413 0.049408 0.353424
0.823761 0.133972 0.355774
0.995239 0.170807 0.186890
0.999786 0.171783 0.178925
0.056305 0.345276 0.376770
0.056000 0.344635 0.375000
0.355225 0.359070 0.358856
0.802399 0.353516 0.353943
0.995361 0.228577 0.182678
0.999786 0.171783 0.178925
0.167908 0.738190 0.373138
0.167938 0.738190 0.370697
0.168396 0.738098 0.362152
0.763977 0.741547 0.275970
0.993835 0.732635 0.175171
0.999756 0.667145 0.173889
0.207367 0.970062 0.238373
0.207153 0.970093 0.234833
0.206299 0.970184 0.222382
0.201050 0.970612 0.183929
0.987732 0.972382 0.169220
0.999695 0.969635 0.171783
0.212677 0.997925 0.172028
0.212677 0.997925 0.172028
0.212677 0.997925 0.172028
0.212677 0.997925 0.172028
0.212677 0.997925 0.172028
0.999512 0.997803 0.171722
0.192474 0.111206 0.717834
0.197571 0.111084 0.717346
0.445801 0.109741 0.711182
0.809845 0.131500 0.697235
0.991119 0.169952 0.682922
0.999756 0.171783 0.251068
0.192444 0.111176 0.717743
0.193085 0.111084 0.717377
0.430328 0.109650 0.710663
0.807465 0.131012 0.697021
0.991089 0.169922 0.682800
0.999756 0.171783 0.250946
0.177185 0.216675 0.731018
0.177551 0.215790 0.730652
0.363464 0.209656 0.717682
0.797272 0.209747 0.697632
0.990906 0.172577 0.682190
0.999756 0.171783 0.250458
0.115204 0.705414 0.733612
0.115234 0.705322 0.733246
0.115234 0.704926 0.731995
0.714539 0.713562 0.716949
0.986237 0.722687 0.705536
0.999695 0.648743 0.237396
0.201263 0.960724 0.735809
0.201416 0.960724 0.735504
0.201904 0.960724 0.734436
0.204712 0.960815 0.728760
0.977356 0.964294 0.694153
0.999695 0.968719 0.203796
0.252777 0.996765 0.674072
0.252869 0.996765 0.673523
0.253174 0.996735 0.671631
0.254852 0.996765 0.661713
0.259491 0.996979 0.598480
0.999512 0.997803 0.171722
0.259705 0.160767 0.948425
0.259705 0.160736 0.948395
0.277649 0.160675 0.948059
0.789429 0.159790 0.943878
0.984100 0.168854 0.938538
0.990509 0.170227 0.926422
0.259705 0.160767 0.948425
0.259674 0.160736 0.948395
0.271515 0.160706 0.948151
0.786835 0.159790 0.943939
0.984070 0.168823 0.938538
0.990509 0.170227 0.926422
0.259674 0.160736 0.948395
0.259674 0.160736 0.948364
0.259674 0.160736 0.948303
0.777100 0.159851 0.944214
0.983948 0.168823 0.938507
0.990479 0.170197 0.926361
0.166473 0.627563 0.966339
0.166473 0.627411 0.966309
0.166443 0.626862 0.966278
0.706696 0.642700 0.957336
0.986877 0.632477 0.952332
0.996674 0.519836 0.936523
0.163971 0.948669 0.963257
0.163940 0.948669 0.963226
0.163940 0.948639 0.963165
0.163879 0.948547 0.962830
0.952667 0.953888 0.953400
0.991882 0.955963 0.946472
0.170563 0.994080 0.959564
0.170563 0.994080 0.959534
0.170563 0.994080 0.959442
0.170563 0.994080 0.959076
0.170593 0.994141 0.957153
0.992249 0.995300 0.940613
0.277802 0.167206 0.978394
0.277802 0.167206 0.978394
0.277802 0.167206 0.978394
0.373077 0.167023 0.977600
0.981018 0.168091 0.977112
0.989960 0.170044 0.977234
0.277802 0.167206 0.978394
0.277802 0.167206 0.978394
0.277802 0.167206 0.978394
0.369812 0.167023 0.977509
0.980896 0.168060 0.977112
0.989929 0.170013 0.977234
0.277802 0.167206 0.978394
0.277802 0.167206 0.978394
0.277802 0.167206 0.978394
0.355957 0.166962 0.977264
0.980499 0.167969 0.977112
0.989929 0.170013 0.977234
0.277802 0.167206 0.978394
0.277802 0.167206 0.978394
0.277802 0.167206 0.978394
0.277802 0.167206 0.978394
0.978363 0.167511 0.977051
0.989929 0.170013 0.977234
0.170624 0.920074 0.993927
0.170624 0.920044 0.993927
0.170624 0.920013 0.993927
0.170624 0.919800 0.993927
0.947174 0.932739 0.994904
0.996613 0.925476 0.995056
0.170715 0.992798 0.994720
0.170715 0.992798 0.994720
0.170715 0.992798 0.994720
0.170715 0.992798 0.994720
0.170715 0.992798 0.994720
0.995483 0.996246 0.995911
