assets/resources/wfx_effect/nle_default/BaseFilter/HLGCube/Data/HDR_HLG_709.cube
#Copyright: (C)Copyright 2024 Wondershare Inc.
#Created by: BIAOZHOU.
LUT_3D_SIZE 32
DOMAIN_MIN 0.0 0.0 0.0
DOMAIN_MAX 1.0 1.0 1.0
0.000000 0.000000 0.000000
0.028610 0.000000 0.000000
0.074653 0.000000 0.000000
0.113749 0.000000 0.000000
0.148447 0.000000 0.000000
0.180203 0.000000 0.000000
0.209795 0.000000 0.000000
0.237702 0.000000 0.000000
0.264242 0.000000 0.000000
0.289643 0.000000 0.000000
0.314072 0.000000 0.000000
0.337660 0.000000 0.000000
0.360508 0.000000 0.000000
0.382698 0.000000 0.000000
0.404298 0.000000 0.000000
0.425364 0.000000 0.000000
0.446243 0.000000 0.000000
0.468788 0.000000 0.000000
0.493382 0.000000 0.000000
0.520110 0.000000 0.000000
0.549063 0.000000 0.000000
0.580330 0.000000 0.000000
0.614008 0.000000 0.000000
0.650201 0.000000 0.000000
0.689017 0.000000 0.000000
0.730576 0.000000 0.000000
0.775005 0.000000 0.000000
0.822442 0.000000 0.000000
0.873036 0.000000 0.000000
0.926947 0.000000 0.000000
0.984349 0.000000 0.000000
1.000000 0.000000 0.000000
0.000000 0.026875 0.000000
0.026029 0.026029 0.000000
0.073164 0.020513 0.000000
0.112855 0.017420 0.000000
0.147832 0.015433 0.000000
0.179745 0.014026 0.000000
0.209436 0.012964 0.000000
0.237409 0.012124 0.000000
0.263998 0.011438 0.000000
0.289434 0.010865 0.000000
0.313891 0.010376 0.000000
0.337501 0.009951 0.000000
0.360366 0.009579 0.000000
0.382571 0.009249 0.000000
0.404183 0.008953 0.000000
0.425259 0.008686 0.000000
0.446147 0.008440 0.000000
0.468700 0.008193 0.000000
0.493302 0.007943 0.000000
0.520038 0.007691 0.000000
0.548997 0.007440 0.000000
0.580271 0.007190 0.000000
0.613955 0.006944 0.000000
0.650153 0.006700 0.000000
0.688975 0.006462 0.000000
0.730538 0.006229 0.000000
0.774971 0.006001 0.000000
0.822412 0.005780 0.000000
0.873009 0.005564 0.000000
0.926923 0.005356 0.000000
0.984328 0.005154 0.000000
1.000000 0.004958 0.000000
0.000000 0.071317 0.000000
0.019644 0.070873 0.000000
0.069644 0.069644 0.000000
0.110470 0.063026 0.000000
0.146111 0.057870 0.000000
0.178432 0.053779 0.000000
0.208392 0.050439 0.000000
0.236553 0.047643 0.000000
0.263278 0.045251 0.000000
0.288817 0.043171 0.000000
0.313354 0.041336 0.000000
0.337027 0.039691 0.000000
0.359944 0.038223 0.000000
0.382192 0.036918 0.000000
0.403840 0.035748 0.000000
0.424946 0.034689 0.000000
0.445860 0.033713 0.000000
0.468438 0.032731 0.000000
0.493064 0.031737 0.000000
0.519822 0.030737 0.000000
0.548802 0.029737 0.000000
0.580095 0.028742 0.000000
0.613797 0.027758 0.000000
0.650012 0.026789 0.000000
0.688848 0.025837 0.000000
0.730425 0.024906 0.000000
0.774870 0.023997 0.000000
0.822322 0.023112 0.000000
0.872929 0.022253 0.000000
0.926852 0.021419 0.000000
0.984264 0.020612 0.000000
1.000000 0.019831 0.000000
0.000000 0.109407 0.000000
0.016511 0.109147 0.000000
0.061547 0.108396 0.000000
0.107230 0.107230 0.000000
0.143584 0.101253 0.000000
0.176423 0.096193 0.000000
0.206755 0.091905 0.000000
0.235189 0.088230 0.000000
0.262119 0.085039 0.000000
0.287817 0.082234 0.000000
0.312479 0.079741 0.000000
0.336253 0.077505 0.000000
0.359253 0.075481 0.000000
0.381568 0.073637 0.000000
0.403274 0.071946 0.000000
0.424430 0.070386 0.000000
0.445386 0.068920 0.000000
0.468005 0.067418 0.000000
0.492669 0.065868 0.000000
0.519464 0.064277 0.000000
0.548478 0.062654 0.000000
0.579803 0.061008 0.000000
0.613535 0.059344 0.000000
0.649776 0.057669 0.000000
0.688637 0.055989 0.000000
0.730236 0.054309 0.000000
0.774702 0.052633 0.000000
0.822172 0.050965 0.000000
0.872795 0.049308 0.000000
0.926733 0.047664 0.000000
0.984159 0.046036 0.000000
1.000000 0.044425 0.000000
0.000000 0.143212 0.000000
0.014572 0.143035 0.000000
0.055852 0.142516 0.000000
0.099759 0.141685 0.000000
0.140587 0.140587 0.000000
0.173919 0.135075 0.000000
0.204651 0.130203 0.000000
0.233399 0.125910 0.000000
0.260577 0.122112 0.000000
0.286473 0.118728 0.000000
0.311294 0.115692 0.000000
0.335199 0.112948 0.000000
0.358307 0.110452 0.000000
0.380713 0.108167 0.000000
0.402496 0.106063 0.000000
0.423717 0.104118 0.000000
0.444732 0.102285 0.000000
0.467405 0.100404 0.000000
0.492122 0.098459 0.000000
0.518967 0.096459 0.000000
0.548029 0.094417 0.000000
0.579397 0.092341 0.000000
0.613169 0.090241 0.000000
0.649448 0.088126 0.000000
0.688343 0.086002 0.000000
0.729973 0.083876 0.000000
0.774467 0.081754 0.000000
0.821962 0.079641 0.000000
0.872609 0.077540 0.000000
0.926567 0.075455 0.000000
0.984011 0.073389 0.000000
1.000000 0.071345 0.000000
0.000000 0.174151 0.000000
0.013219 0.174020 0.000000
0.051542 0.173632 0.000000
0.093958 0.173002 0.000000
0.133609 0.172154 0.000000
0.171116 0.171116 0.000000
0.202213 0.165958 0.000000
0.231277 0.161278 0.000000
0.258718 0.157051 0.000000
0.284832 0.153227 0.000000
0.309835 0.149757 0.000000
0.333892 0.146593 0.000000
0.357127 0.143696 0.000000
0.379642 0.141029 0.000000
0.401518 0.138565 0.000000
0.422819 0.136277 0.000000
0.443905 0.134116 0.000000
0.466646 0.131891 0.000000
0.491428 0.129586 0.000000
0.518336 0.127212 0.000000
0.547456 0.124782 0.000000
0.578880 0.122308 0.000000
0.612703 0.119802 0.000000
0.649029 0.117273 0.000000
0.687967 0.114732 0.000000
0.729637 0.112186 0.000000
0.774166 0.109642 0.000000
0.821694 0.107107 0.000000
0.872369 0.104585 0.000000
0.926354 0.102082 0.000000
0.983822 0.099600 0.000000
1.000000 0.097142 0.000000
0.000000 0.202982 0.000000
0.012205 0.202880 0.000000
0.048110 0.202575 0.000000
0.089279 0.202076 0.000000
0.127881 0.201396 0.000000
0.164531 0.200553 0.000000
0.199565 0.199565 0.000000
0.228914 0.194688 0.000000
0.256611 0.190187 0.000000
0.282947 0.186050 0.000000
0.308142 0.182248 0.000000
0.332362 0.178748 0.000000
0.355738 0.175519 0.000000
0.378374 0.172529 0.000000
0.400355 0.169752 0.000000
0.421749 0.167164 0.000000
0.442916 0.164710 0.000000
0.465736 0.162178 0.000000
0.490595 0.159546 0.000000
0.517575 0.156829 0.000000
0.546765 0.154041 0.000000
0.578254 0.151198 0.000000
0.612138 0.148312 0.000000
0.648520 0.145396 0.000000
0.687511 0.142461 0.000000
0.729228 0.139517 0.000000
0.773800 0.136573 0.000000
0.821367 0.133636 0.000000
0.872078 0.130712 0.000000
0.926095 0.127808 0.000000
0.983591 0.124927 0.000000
1.000000 0.122073 0.000000
0.000000 0.230171 0.000000
0.011408 0.230087 0.000000
0.045279 0.229839 0.000000
0.085388 0.229431 0.000000
0.123069 0.228871 0.000000
0.158930 0.228169 0.000000
0.193303 0.227339 0.000000
0.226394 0.226394 0.000000
0.254322 0.221748 0.000000
0.280870 0.217407 0.000000
0.306254 0.213366 0.000000
0.330642 0.209609 0.000000
0.354165 0.206114 0.000000
0.376931 0.202856 0.000000
0.399025 0.199813 0.000000
0.420519 0.196965 0.000000
0.441776 0.194255 0.000000
0.464684 0.191449 0.000000
0.489628 0.188522 0.000000
0.516692 0.185493 0.000000
0.545960 0.182378 0.000000
0.577524 0.179192 0.000000
0.611478 0.175952 0.000000
0.647925 0.172672 0.000000
0.686975 0.169366 0.000000
0.728748 0.166045 0.000000
0.773370 0.162719 0.000000
0.820983 0.159399 0.000000
0.871735 0.156091 0.000000
0.925789 0.152802 0.000000
0.983318 0.149537 0.000000
1.000000 0.146301 0.000000
0.000000 0.256028 0.000000
0.010759 0.255959 0.000000
0.042880 0.255751 0.000000
0.082075 0.255408 0.000000
0.118945 0.254936 0.000000
0.154092 0.254341 0.000000
0.187842 0.253631 0.000000
0.220402 0.252817 0.000000
0.251909 0.251909 0.000000
0.278649 0.247457 0.000000
0.304213 0.243259 0.000000
0.328765 0.239315 0.000000
0.352436 0.235614 0.000000
0.375334 0.232141 0.000000
0.397547 0.228878 0.000000
0.419146 0.225809 0.000000
0.440499 0.222877 0.000000
0.463501 0.219829 0.000000
0.488538 0.216641 0.000000
0.515692 0.213330 0.000000
0.545048 0.209915 0.000000
0.576694 0.206414 0.000000
0.610726 0.202844 0.000000
0.647246 0.199224 0.000000
0.686364 0.195568 0.000000
0.728198 0.191889 0.000000
0.772878 0.188201 0.000000
0.820542 0.184514 0.000000
0.871341 0.180837 0.000000
0.925438 0.177177 0.000000
0.983005 0.173543 0.000000
1.000000 0.169938 0.000000
0.000000 0.280776 0.000000
0.010217 0.280716 0.000000
0.040807 0.280539 0.000000
0.079203 0.280245 0.000000
0.115354 0.279839 0.000000
0.149853 0.279326 0.000000
0.183028 0.278711 0.000000
0.215080 0.278002 0.000000
0.246147 0.277205 0.000000
0.276329 0.276329 0.000000
0.302055 0.272043 0.000000
0.326761 0.267973 0.000000
0.350576 0.264122 0.000000
0.373606 0.260481 0.000000
0.395938 0.257041 0.000000
0.417645 0.253789 0.000000
0.439097 0.250667 0.000000
0.462198 0.247411 0.000000
0.487334 0.243992 0.000000
0.514584 0.240428 0.000000
0.544033 0.236741 0.000000
0.575769 0.232951 0.000000
0.609886 0.229077 0.000000
0.646485 0.225139 0.000000
0.685677 0.221153 0.000000
0.727581 0.217136 0.000000
0.772323 0.213103 0.000000
0.820046 0.209065 0.000000
0.870897 0.205034 0.000000
0.925041 0.201019 0.000000
0.982652 0.197027 0.000000
1.000000 0.193065 0.000000
0.000000 0.304577 0.000000
0.009755 0.304525 0.000000
0.038978 0.304371 0.000000
0.076675 0.304116 0.000000
0.112182 0.303762 0.000000
0.146097 0.303313 0.000000
0.178741 0.302774 0.000000
0.210316 0.302149 0.000000
0.240959 0.301443 0.000000
0.270767 0.300663 0.000000
0.299814 0.299814 0.000000
0.324661 0.295673 0.000000
0.348611 0.291720 0.000000
0.371767 0.287956 0.000000
0.394217 0.284377 0.000000
0.416032 0.280976 0.000000
0.437585 0.277697 0.000000
0.460787 0.274262 0.000000
0.486024 0.270642 0.000000
0.513375 0.266855 0.000000
0.542922 0.262924 0.000000
0.574753 0.258870 0.000000
0.608961 0.254716 0.000000
0.645647 0.250481 0.000000
0.684919 0.246187 0.000000
0.726897 0.241851 0.000000
0.771709 0.237490 0.000000
0.819495 0.233117 0.000000
0.870404 0.228746 0.000000
0.924601 0.224388 0.000000
0.982259 0.220051 0.000000
1.000000 0.215743 0.000000
0.000000 0.327557 0.000000
0.009354 0.327512 0.000000
0.037386 0.327376 0.000000
0.074422 0.327152 0.000000
0.109350 0.326840 0.000000
0.142732 0.326443 0.000000
0.174888 0.325964 0.000000
0.206018 0.325408 0.000000
0.236258 0.324778 0.000000
0.265704 0.324078 0.000000
0.294429 0.323314 0.000000
0.322491 0.322491 0.000000
0.346564 0.318477 0.000000
0.369839 0.314629 0.000000
0.392401 0.310947 0.000000
0.414323 0.307429 0.000000
0.435975 0.304022 0.000000
0.459279 0.300438 0.000000
0.484619 0.296645 0.000000
0.512073 0.292663 0.000000
0.541723 0.288515 0.000000
0.573653 0.284223 0.000000
0.607957 0.279811 0.000000
0.644734 0.275303 0.000000
0.684092 0.270720 0.000000
0.726150 0.266083 0.000000
0.771037 0.261410 0.000000
0.818891 0.256719 0.000000
0.869863 0.252022 0.000000
0.924116 0.247334 0.000000
0.981826 0.242664 0.000000
1.000000 0.238021 0.000000
0.000000 0.349817 0.000000
0.009004 0.349777 0.000000
0.035988 0.349656 0.000000
0.072396 0.349456 0.000000
0.106797 0.349178 0.000000
0.139692 0.348824 0.000000
0.171398 0.348395 0.000000
0.202113 0.347896 0.000000
0.231971 0.347329 0.000000
0.261070 0.346698 0.000000
0.289482 0.346006 0.000000
0.317262 0.345257 0.000000
0.344456 0.344456 0.000000
0.367841 0.340556 0.000000
0.390509 0.336803 0.000000
0.412532 0.333198 0.000000
0.434281 0.329690 0.000000
0.457685 0.325984 0.000000
0.483128 0.322046 0.000000
0.510687 0.317895 0.000000
0.540441 0.313555 0.000000
0.572474 0.309049 0.000000
0.606877 0.304404 0.000000
0.643749 0.299643 0.000000
0.683199 0.294792 0.000000
0.725342 0.289872 0.000000
0.770307 0.284905 0.000000
0.818235 0.279909 0.000000
0.869274 0.274901 0.000000
0.923589 0.269895 0.000000
0.981355 0.264903 0.000000
1.000000 0.259937 0.000000
0.000000 0.371437 0.000000
0.008692 0.371401 0.000000
0.034748 0.371292 0.000000
0.070556 0.371112 0.000000
0.104478 0.370862 0.000000
0.136925 0.370543 0.000000
0.168214 0.370156 0.000000
0.198542 0.369705 0.000000
0.228042 0.369191 0.000000
0.256810 0.368618 0.000000
0.284919 0.367988 0.000000
0.312423 0.367304 0.000000
0.339368 0.366570 0.000000
0.365789 0.365789 0.000000
0.388555 0.361992 0.000000
0.410674 0.358325 0.000000
0.432516 0.354741 0.000000
0.456017 0.350938 0.000000
0.481562 0.346880 0.000000
0.509225 0.342586 0.000000
0.539084 0.338079 0.000000
0.571222 0.333383 0.000000
0.605727 0.328527 0.000000
0.642698 0.323535 0.000000
0.682242 0.318435 0.000000
0.724474 0.313251 0.000000
0.769523 0.308006 0.000000
0.817528 0.302721 0.000000
0.868639 0.297414 0.000000
0.923020 0.292103 0.000000
0.980845 0.286801 0.000000
1.000000 0.281520 0.000000
0.000000 0.392481 0.000000
0.008414 0.392448 0.000000
0.033637 0.392350 0.000000
0.068875 0.392187 0.000000
0.102354 0.391960 0.000000
0.134389 0.391671 0.000000
0.165292 0.391320 0.000000
0.195258 0.390909 0.000000
0.224420 0.390441 0.000000
0.252875 0.389917 0.000000
0.280693 0.389340 0.000000
0.307930 0.388713 0.000000
0.334629 0.388037 0.000000
0.360827 0.387317 0.000000
0.386555 0.386555 0.000000
0.408761 0.382850 0.000000
0.430692 0.379212 0.000000
0.454286 0.375335 0.000000
0.479930 0.371181 0.000000
0.507695 0.366767 0.000000
0.537659 0.362116 0.000000
0.569902 0.357254 0.000000
0.604511 0.352208 0.000000
0.641584 0.347006 0.000000
0.681224 0.341676 0.000000
0.723550 0.336245 0.000000
0.768686 0.330738 0.000000
0.816773 0.325179 0.000000
0.867959 0.319589 0.000000
0.922409 0.313984 0.000000
0.980298 0.308383 0.000000
1.000000 0.302798 0.000000
0.000000 0.413005 0.000000
0.008162 0.412975 0.000000
0.032634 0.412886 0.000000
0.067328 0.412738 0.000000
0.100400 0.412531 0.000000
0.132052 0.412266 0.000000
0.162595 0.411945 0.000000
0.192223 0.411569 0.000000
0.221067 0.411140 0.000000
0.249224 0.410659 0.000000
0.276765 0.410128 0.000000
0.303743 0.409550 0.000000
0.330204 0.408927 0.000000
0.356183 0.408260 0.000000
0.381709 0.407553 0.000000
0.406807 0.406807 0.000000
0.428819 0.403135 0.000000
0.452501 0.399205 0.000000
0.478240 0.394976 0.000000
0.506105 0.390465 0.000000
0.536172 0.385693 0.000000
0.568520 0.380685 0.000000
0.603234 0.375471 0.000000
0.640410 0.370078 0.000000
0.680150 0.364538 0.000000
0.722571 0.358878 0.000000
0.767798 0.353126 0.000000
0.815970 0.347307 0.000000
0.867236 0.341445 0.000000
0.921759 0.335560 0.000000
0.979715 0.329671 0.000000
1.000000 0.323792 0.000000
0.000000 0.433347 0.000000
0.007931 0.433320 0.000000
0.031710 0.433238 0.000000
0.065878 0.433102 0.000000
0.098565 0.432912 0.000000
0.129857 0.432670 0.000000
0.160059 0.432375 0.000000
0.189364 0.432030 0.000000
0.217906 0.431635 0.000000
0.245776 0.431191 0.000000
0.273048 0.430702 0.000000
0.299775 0.430167 0.000000
0.326001 0.429590 0.000000
0.351762 0.428972 0.000000
0.377087 0.428314 0.000000
0.401999 0.427620 0.000000
0.426879 0.426879 0.000000
0.450646 0.422914 0.000000
0.476475 0.418630 0.000000
0.504439 0.414041 0.000000
0.534608 0.409167 0.000000
0.567061 0.404034 0.000000
0.601881 0.398670 0.000000
0.639162 0.393104 0.000000
0.679006 0.387368 0.000000
0.721526 0.381493 0.000000
0.766848 0.375508 0.000000
0.815109 0.369441 0.000000
0.866458 0.363318 0.000000
0.921058 0.357160 0.000000
0.979086 0.350989 0.000000
1.000000 0.344822 0.000000
0.000000 0.455312 0.000000
0.007698 0.455287 0.000000
0.030782 0.455212 0.000000
0.064395 0.455088 0.000000
0.096688 0.454915 0.000000
0.127609 0.454693 0.000000
0.157460 0.454423 0.000000
0.186432 0.454107 0.000000
0.214658 0.453745 0.000000
0.242230 0.453338 0.000000
0.269220 0.452888 0.000000
0.295681 0.452396 0.000000
0.321658 0.451863 0.000000
0.347185 0.451292 0.000000
0.372291 0.450684 0.000000
0.397001 0.450040 0.000000
0.421691 0.449352 0.000000
0.448553 0.448553 0.000000
0.474477 0.444229 0.000000
0.502543 0.439576 0.000000
0.532822 0.434613 0.000000
0.565388 0.429364 0.000000
0.600324 0.423856 0.000000
0.637721 0.418121 0.000000
0.677680 0.412191 0.000000
0.720312 0.406099 0.000000
0.765741 0.399875 0.000000
0.814104 0.393551 0.000000
0.865549 0.387154 0.000000
0.920239 0.380710 0.000000
0.978349 0.374241 0.000000
1.000000 0.367767 0.000000
0.000000 0.479273 0.000000
0.007463 0.479250 0.000000
0.029842 0.479182 0.000000
0.062866 0.479069 0.000000
0.094753 0.478911 0.000000
0.125289 0.478709 0.000000
0.154775 0.478464 0.000000
0.183401 0.478175 0.000000
0.211297 0.477845 0.000000
0.238555 0.477473 0.000000
0.265247 0.477061 0.000000
0.291426 0.476610 0.000000
0.317136 0.476121 0.000000
0.342412 0.475596 0.000000
0.367282 0.475036 0.000000
0.391771 0.474442 0.000000
0.416251 0.473806 0.000000
0.442898 0.473066 0.000000
0.472197 0.472197 0.000000
0.500369 0.467497 0.000000
0.530764 0.462461 0.000000
0.563452 0.457109 0.000000
0.598516 0.451469 0.000000
0.636042 0.445571 0.000000
0.676129 0.439450 0.000000
0.718887 0.433138 0.000000
0.764439 0.426671 0.000000
0.812919 0.420080 0.000000
0.864475 0.413397 0.000000
0.919268 0.406650 0.000000
0.977474 0.399864 0.000000
1.000000 0.393061 0.000000
0.000000 0.505314 0.000000
0.007226 0.505293 0.000000
0.028898 0.505232 0.000000
0.061301 0.505129 0.000000
0.092770 0.504986 0.000000
0.122911 0.504803 0.000000
0.152021 0.504580 0.000000
0.180288 0.504318 0.000000
0.207841 0.504017 0.000000
0.234772 0.503679 0.000000
0.261152 0.503303 0.000000
0.287035 0.502892 0.000000
0.312462 0.502446 0.000000
0.337470 0.501965 0.000000
0.362087 0.501451 0.000000
0.386337 0.500906 0.000000
0.410589 0.500321 0.000000
0.437000 0.499640 0.000000
0.466056 0.498837 0.000000
0.497893 0.497893 0.000000
0.528407 0.492803 0.000000
0.561226 0.487368 0.000000
0.596425 0.481611 0.000000
0.634092 0.475563 0.000000
0.674321 0.469258 0.000000
0.717221 0.462732 0.000000
0.762911 0.456020 0.000000
0.811524 0.449158 0.000000
0.863207 0.442179 0.000000
0.918120 0.435116 0.000000
0.976438 0.427996 0.000000
1.000000 0.420844 0.000000
0.000000 0.533521 0.000000
0.006990 0.533502 0.000000
0.027954 0.533447 0.000000
0.059706 0.533354 0.000000
0.090749 0.533225 0.000000
0.120486 0.533059 0.000000
0.149210 0.532858 0.000000
0.177108 0.532620 0.000000
0.204308 0.532348 0.000000
0.230901 0.532041 0.000000
0.256957 0.531700 0.000000
0.282530 0.531326 0.000000
0.307662 0.530920 0.000000
0.332387 0.530482 0.000000
0.356735 0.530013 0.000000
0.380730 0.529515 0.000000
0.404737 0.528980 0.000000
0.430893 0.528355 0.000000
0.459681 0.527617 0.000000
0.491245 0.526748 0.000000
0.525726 0.525726 0.000000
0.558679 0.520231 0.000000
0.594023 0.514379 0.000000
0.631840 0.508200 0.000000
0.672225 0.501726 0.000000
0.715280 0.494995 0.000000
0.761125 0.488044 0.000000
0.809888 0.480911 0.000000
0.861716 0.473633 0.000000
0.916766 0.466244 0.000000
0.975213 0.458776 0.000000
1.000000 0.451259 0.000000
0.000000 0.563984 0.000000
0.006755 0.563967 0.000000
0.027016 0.563917 0.000000
0.058089 0.563833 0.000000
0.088700 0.563717 0.000000
0.118025 0.563568 0.000000
0.146356 0.563386 0.000000
0.173878 0.563172 0.000000
0.200716 0.562925 0.000000
0.226961 0.562648 0.000000
0.252683 0.562340 0.000000
0.277935 0.562001 0.000000
0.302759 0.561633 0.000000
0.327190 0.561235 0.000000
0.351256 0.560809 0.000000
0.374981 0.560356 0.000000
0.398726 0.559868 0.000000
0.424609 0.559298 0.000000
0.453110 0.558623 0.000000
0.484375 0.557826 0.000000
0.518552 0.556887 0.000000
0.555786 0.555786 0.000000
0.591278 0.549867 0.000000
0.629254 0.543581 0.000000
0.669805 0.536961 0.000000
0.713030 0.530042 0.000000
0.759045 0.522864 0.000000
0.807976 0.515467 0.000000
0.859967 0.507890 0.000000
0.915173 0.500172 0.000000
0.973769 0.492348 0.000000
1.000000 0.484451 0.000000
0.000000 0.596795 0.000000
0.006523 0.596780 0.000000
0.026089 0.596735 0.000000
0.056458 0.596661 0.000000
0.086630 0.596556 0.000000
0.115539 0.596422 0.000000
0.143472 0.596258 0.000000
0.170611 0.596065 0.000000
0.197080 0.595844 0.000000
0.222971 0.595594 0.000000
0.248350 0.595315 0.000000
0.273272 0.595010 0.000000
0.297779 0.594677 0.000000
0.321904 0.594317 0.000000
0.345675 0.593931 0.000000
0.369118 0.593520 0.000000
0.392589 0.593077 0.000000
0.418182 0.592559 0.000000
0.446376 0.591944 0.000000
0.477320 0.591217 0.000000
0.511165 0.590359 0.000000
0.548061 0.589349 0.000000
0.588163 0.588163 0.000000
0.626303 0.581803 0.000000
0.667027 0.575065 0.000000
0.710435 0.567983 0.000000
0.756634 0.560598 0.000000
0.805751 0.552951 0.000000
0.857923 0.545084 0.000000
0.913306 0.537039 0.000000
0.972070 0.528855 0.000000
1.000000 0.520570 0.000000
0.000000 0.632057 0.000000
0.006295 0.632043 0.000000
0.025176 0.632003 0.000000
0.054817 0.631936 0.000000
0.084549 0.631842 0.000000
0.113038 0.631722 0.000000
0.140569 0.631575 0.000000
0.167320 0.631402 0.000000
0.193416 0.631202 0.000000
0.218946 0.630978 0.000000
0.243977 0.630727 0.000000
0.268561 0.630452 0.000000
0.292742 0.630152 0.000000
0.316552 0.629828 0.000000
0.340020 0.629480 0.000000
0.363170 0.629108 0.000000
0.386355 0.628707 0.000000
0.411644 0.628237 0.000000
0.439514 0.627680 0.000000
0.470117 0.627019 0.000000
0.503606 0.626238 0.000000
0.540136 0.625316 0.000000
0.579866 0.624230 0.000000
0.622957 0.622957 0.000000
0.663861 0.616137 0.000000
0.707458 0.608925 0.000000
0.753855 0.601361 0.000000
0.803172 0.593486 0.000000
0.855545 0.585346 0.000000
0.911125 0.576984 0.000000
0.970078 0.568444 0.000000
1.000000 0.559767 0.000000
0.000000 0.669874 0.000000
0.006071 0.669862 0.000000
0.024280 0.669826 0.000000
0.053173 0.669766 0.000000
0.082462 0.669682 0.000000
0.110530 0.669574 0.000000
0.137656 0.669443 0.000000
0.164017 0.669288 0.000000
0.189736 0.669109 0.000000
0.214901 0.668908 0.000000
0.239578 0.668683 0.000000
0.263820 0.668436 0.000000
0.287669 0.668166 0.000000
0.311157 0.667874 0.000000
0.334314 0.667561 0.000000
0.357162 0.667226 0.000000
0.380051 0.666865 0.000000
0.405024 0.666440 0.000000
0.432557 0.665936 0.000000
0.462800 0.665338 0.000000
0.495912 0.664629 0.000000
0.532049 0.663791 0.000000
0.571377 0.662802 0.000000
0.614062 0.661638 0.000000
0.660274 0.660274 0.000000
0.704066 0.652972 0.000000
0.750670 0.645265 0.000000
0.800201 0.637194 0.000000
0.852791 0.628805 0.000000
0.908587 0.620145 0.000000
0.967752 0.611261 0.000000
1.000000 0.602198 0.000000
0.000000 0.710364 0.000000
0.005851 0.710353 0.000000
0.023403 0.710321 0.000000
0.051529 0.710267 0.000000
0.080376 0.710192 0.000000
0.108022 0.710096 0.000000
0.134742 0.709978 0.000000
0.160712 0.709840 0.000000
0.186052 0.709680 0.000000
0.210849 0.709499 0.000000
0.235170 0.709298 0.000000
0.259065 0.709077 0.000000
0.282577 0.708835 0.000000
0.305738 0.708573 0.000000
0.328577 0.708291 0.000000
0.351117 0.707990 0.000000
0.373702 0.707665 0.000000
0.398350 0.707283 0.000000
0.425532 0.706829 0.000000
0.455402 0.706289 0.000000
0.488117 0.705648 0.000000
0.523841 0.704889 0.000000
0.562739 0.703991 0.000000
0.604985 0.702932 0.000000
0.650754 0.701687 0.000000
0.700227 0.700227 0.000000
0.747042 0.692422 0.000000
0.796797 0.684195 0.000000
0.849619 0.675593 0.000000
0.905649 0.666662 0.000000
0.965047 0.657454 0.000000
1.000000 0.648018 0.000000
0.000000 0.753650 0.000000
0.005638 0.753640 0.000000
0.022548 0.753612 0.000000
0.049891 0.753564 0.000000
0.078297 0.753497 0.000000
0.105521 0.753411 0.000000
0.131835 0.753306 0.000000
0.157413 0.753182 0.000000
0.182373 0.753039 0.000000
0.206801 0.752878 0.000000
0.230763 0.752698 0.000000
0.254310 0.752500 0.000000
0.277482 0.752283 0.000000
0.300312 0.752049 0.000000
0.322829 0.751796 0.000000
0.345054 0.751526 0.000000
0.367329 0.751235 0.000000
0.391645 0.750892 0.000000
0.418468 0.750483 0.000000
0.447951 0.749997 0.000000
0.480255 0.749419 0.000000
0.515545 0.748734 0.000000
0.553990 0.747922 0.000000
0.595767 0.746962 0.000000
0.641059 0.745831 0.000000
0.690053 0.744500 0.000000
0.742940 0.742940 0.000000
0.792923 0.734606 0.000000
0.845986 0.725834 0.000000
0.902265 0.716672 0.000000
0.961915 0.707172 0.000000
1.000000 0.697386 0.000000
0.000000 0.799866 0.000000
0.005429 0.799858 0.000000
0.021716 0.799832 0.000000
0.048262 0.799789 0.000000
0.076227 0.799730 0.000000
0.103031 0.799653 0.000000
0.128942 0.799559 0.000000
0.154128 0.799449 0.000000
0.178709 0.799322 0.000000
0.202768 0.799178 0.000000
0.226370 0.799017 0.000000
0.249567 0.798840 0.000000
0.272397 0.798647 0.000000
0.294894 0.798437 0.000000
0.317085 0.798211 0.000000
0.338993 0.797970 0.000000
0.360953 0.797709 0.000000
0.384931 0.797401 0.000000
0.411386 0.797035 0.000000
0.440474 0.796598 0.000000
