assets/resources/wfx_effect/nle_default/BaseFilter/HLGCube/Data/HDR_HLG.cube
#Copyright: (C)Copyright 2022 Wondershare Inc.
#Created by: BIAOZHOU.
LUT_3D_SIZE 32
DOMAIN_MIN 0.0 0.0 0.0
DOMAIN_MAX 1.0 1.0 1.0
0.000000 0.000000 0.000000
0.047065 0.000000 0.000000
0.105157 0.000000 0.000000
0.153452 0.000000 0.000000
0.196314 0.000000 0.000000
0.235541 0.000000 0.000000
0.272096 0.000000 0.000000
0.306569 0.000000 0.000000
0.339354 0.000000 0.000000
0.370731 0.000000 0.000000
0.400908 0.000000 0.000000
0.430046 0.000000 0.000000
0.458269 0.000000 0.000000
0.485680 0.000000 0.000000
0.512362 0.000000 0.000000
0.538385 0.000000 0.000000
0.564177 0.000000 0.000000
0.592026 0.000000 0.000000
0.622406 0.000000 0.000000
0.655423 0.000000 0.000000
0.691187 0.000000 0.000000
0.729811 0.000000 0.000000
0.771413 0.000000 0.000000
0.816121 0.000000 0.000000
0.864070 0.000000 0.000000
0.915407 0.000000 0.000000
0.970289 0.000000 0.000000
1.028887 0.000000 0.000000
1.091385 0.000000 0.000000
1.157981 0.000000 0.000000
1.228888 0.000000 0.000000
1.248222 0.000000 0.000000
0.000000 0.030447 0.000000
0.027925 0.026246 0.000000
0.097324 0.013020 0.000000
0.148911 0.000209 0.000000
0.193230 0.000000 0.000000
0.233258 0.000000 0.000000
0.270311 0.000000 0.000000
0.305119 0.000000 0.000000
0.338142 0.000000 0.000000
0.369697 0.000000 0.000000
0.400012 0.000000 0.000000
0.429257 0.000000 0.000000
0.457568 0.000000 0.000000
0.485051 0.000000 0.000000
0.511793 0.000000 0.000000
0.537867 0.000000 0.000000
0.563702 0.000000 0.000000
0.591592 0.000000 0.000000
0.622012 0.000000 0.000000
0.655066 0.000000 0.000000
0.690865 0.000000 0.000000
0.729521 0.000000 0.000000
0.771153 0.000000 0.000000
0.815888 0.000000 0.000000
0.863861 0.000000 0.000000
0.915220 0.000000 0.000000
0.970123 0.000000 0.000000
1.028739 0.000000 0.000000
1.091253 0.000000 0.000000
1.157863 0.000000 0.000000
1.228784 0.000000 0.000000
1.248148 0.000000 0.000000
0.000000 0.078058 0.000000
0.000000 0.076060 0.000000
0.073349 0.070076 0.000000
0.135335 0.055442 0.000000
0.184022 0.038390 0.000000
0.226435 0.019622 0.000000
0.264970 0.000615 0.000000
0.300777 0.000000 0.000000
0.334515 0.000000 0.000000
0.366602 0.000000 0.000000
0.397326 0.000000 0.000000
0.426895 0.000000 0.000000
0.455467 0.000000 0.000000
0.483165 0.000000 0.000000
0.510087 0.000000 0.000000
0.536312 0.000000 0.000000
0.562278 0.000000 0.000000
0.590293 0.000000 0.000000
0.620830 0.000000 0.000000
0.653996 0.000000 0.000000
0.689899 0.000000 0.000000
0.728650 0.000000 0.000000
0.770371 0.000000 0.000000
0.815187 0.000000 0.000000
0.863234 0.000000 0.000000
0.914660 0.000000 0.000000
0.969623 0.000000 0.000000
1.028294 0.000000 0.000000
1.090857 0.000000 0.000000
1.157511 0.000000 0.000000
1.228471 0.000000 0.000000
1.247927 0.000000 0.000000
0.000000 0.118181 0.000000
0.000000 0.117024 0.000000
0.022096 0.113561 0.000000
0.112052 0.107793 0.000000
0.168635 0.095333 0.000000
0.215092 0.081827 0.000000
0.256099 0.066556 0.000000
0.293565 0.048148 0.000000
0.328487 0.025093 0.000000
0.361456 0.001157 0.000000
0.392859 0.000000 0.000000
0.422965 0.000000 0.000000
0.451972 0.000000 0.000000
0.480026 0.000000 0.000000
0.507246 0.000000 0.000000
0.533723 0.000000 0.000000
0.559908 0.000000 0.000000
0.588129 0.000000 0.000000
0.618863 0.000000 0.000000
0.652214 0.000000 0.000000
0.688289 0.000000 0.000000
0.727200 0.000000 0.000000
0.769068 0.000000 0.000000
0.814019 0.000000 0.000000
0.862189 0.000000 0.000000
0.913727 0.000000 0.000000
0.968790 0.000000 0.000000
1.027552 0.000000 0.000000
1.090196 0.000000 0.000000
1.156924 0.000000 0.000000
1.227949 0.000000 0.000000
1.247558 0.000000 0.000000
0.000000 0.153790 0.000000
0.000000 0.153005 0.000000
0.000000 0.150654 0.000000
0.071449 0.146743 0.000000
0.146402 0.141266 0.000000
0.199082 0.130096 0.000000
0.243668 0.118302 0.000000
0.283484 0.105605 0.000000
0.320066 0.091550 0.000000
0.354268 0.075406 0.000000
0.386619 0.055800 0.000000
0.417475 0.029987 0.000000
0.447087 0.001813 0.000000
0.475640 0.000000 0.000000
0.503275 0.000000 0.000000
0.530103 0.000000 0.000000
0.556593 0.000000 0.000000
0.585103 0.000000 0.000000
0.616111 0.000000 0.000000
0.649720 0.000000 0.000000
0.686036 0.000000 0.000000
0.725172 0.000000 0.000000
0.767246 0.000000 0.000000
0.812385 0.000000 0.000000
0.860727 0.000000 0.000000
0.912421 0.000000 0.000000
0.967625 0.000000 0.000000
1.026514 0.000000 0.000000
1.089272 0.000000 0.000000
1.156102 0.000000 0.000000
1.227218 0.000000 0.000000
1.247042 0.000000 0.000000
0.000000 0.186380 0.000000
0.000000 0.185799 0.000000
0.000000 0.184059 0.000000
0.003310 0.181162 0.000000
0.111584 0.177112 0.000000
0.177838 0.171901 0.000000
0.227501 0.161622 0.000000
0.270474 0.150910 0.000000
0.309236 0.139631 0.000000
0.345036 0.127571 0.000000
0.378610 0.114425 0.000000
0.410430 0.099747 0.000000
0.440818 0.082804 0.000000
0.470010 0.062197 0.000000
0.498178 0.034531 0.000000
0.525457 0.002568 0.000000
0.552338 0.000000 0.000000
0.581218 0.000000 0.000000
0.612578 0.000000 0.000000
0.646518 0.000000 0.000000
0.683143 0.000000 0.000000
0.722566 0.000000 0.000000
0.764904 0.000000 0.000000
0.810286 0.000000 0.000000
0.858849 0.000000 0.000000
0.910742 0.000000 0.000000
0.966128 0.000000 0.000000
1.025179 0.000000 0.000000
1.088084 0.000000 0.000000
1.155045 0.000000 0.000000
1.226279 0.000000 0.000000
1.246378 0.000000 0.000000
0.000000 0.216750 0.000000
0.000000 0.216295 0.000000
0.000000 0.214934 0.000000
0.000000 0.212669 0.000000
0.061420 0.209500 0.000000
0.146520 0.205429 0.000000
0.207133 0.200449 0.000000
0.254360 0.190836 0.000000
0.295921 0.180898 0.000000
0.333729 0.170561 0.000000
0.368819 0.159705 0.000000
0.401824 0.148170 0.000000
0.433166 0.135742 0.000000
0.463138 0.122120 0.000000
0.491958 0.106857 0.000000
0.519788 0.089212 0.000000
0.547146 0.067399 0.000000
0.576476 0.034034 0.000000
0.608265 0.000000 0.000000
0.642609 0.000000 0.000000
0.679612 0.000000 0.000000
0.719384 0.000000 0.000000
0.762045 0.000000 0.000000
0.807722 0.000000 0.000000
0.856554 0.000000 0.000000
0.908692 0.000000 0.000000
0.964298 0.000000 0.000000
1.023548 0.000000 0.000000
1.086632 0.000000 0.000000
1.153754 0.000000 0.000000
1.225131 0.000000 0.000000
1.245567 0.000000 0.000000
0.000000 0.245389 0.000000
0.000000 0.245020 0.000000
0.000000 0.243915 0.000000
0.000000 0.242074 0.000000
0.000000 0.239499 0.000000
0.106421 0.236192 0.000000
0.178250 0.232151 0.000000
0.234760 0.227371 0.000000
0.279958 0.218284 0.000000
0.320269 0.208939 0.000000
0.357207 0.199291 0.000000
0.391641 0.189269 0.000000
0.424121 0.178776 0.000000
0.455022 0.167687 0.000000
0.484613 0.155844 0.000000
0.513095 0.143034 0.000000
0.541016 0.128741 0.000000
0.570879 0.110847 0.000000
0.603174 0.086848 0.000000
0.637994 0.050299 0.000000
0.675443 0.000000 0.000000
0.715628 0.000000 0.000000
0.758669 0.000000 0.000000
0.804694 0.000000 0.000000
0.853844 0.000000 0.000000
0.906270 0.000000 0.000000
0.962137 0.000000 0.000000
1.021623 0.000000 0.000000
1.084918 0.000000 0.000000
1.152228 0.000000 0.000000
1.223775 0.000000 0.000000
1.244608 0.000000 0.000000
0.000000 0.272626 0.000000
0.000000 0.272319 0.000000
0.000000 0.271395 0.000000
0.000000 0.269857 0.000000
0.000000 0.267706 0.000000
0.041438 0.264943 0.000000
0.143419 0.261569 0.000000
0.207710 0.257580 0.000000
0.261033 0.252974 0.000000
0.304505 0.244317 0.000000
0.343697 0.235447 0.000000
0.379837 0.226338 0.000000
0.413660 0.216941 0.000000
0.445648 0.207193 0.000000
0.476138 0.197016 0.000000
0.505375 0.186313 0.000000
0.533949 0.174789 0.000000
0.564427 0.161076 0.000000
0.597306 0.144161 0.000000
0.632676 0.122519 0.000000
0.670637 0.092860 0.000000
0.711298 0.044247 0.000000
0.754777 0.000000 0.000000
0.801204 0.000000 0.000000
0.850719 0.000000 0.000000
0.903478 0.000000 0.000000
0.959645 0.000000 0.000000
1.019402 0.000000 0.000000
1.082940 0.000000 0.000000
1.150469 0.000000 0.000000
1.222211 0.000000 0.000000
1.243502 0.000000 0.000000
0.000000 0.298694 0.000000
0.000000 0.298432 0.000000
0.000000 0.297644 0.000000
0.000000 0.296332 0.000000
0.000000 0.294496 0.000000
0.000000 0.292139 0.000000
0.096526 0.289259 0.000000
0.176260 0.285857 0.000000
0.235435 0.281932 0.000000
0.286179 0.277478 0.000000
0.328155 0.269182 0.000000
0.366338 0.260706 0.000000
0.401740 0.252032 0.000000
0.434991 0.243129 0.000000
0.466517 0.233952 0.000000
0.496620 0.224448 0.000000
0.525939 0.214405 0.000000
0.557118 0.202736 0.000000
0.590660 0.188823 0.000000
0.626653 0.171922 0.000000
0.665196 0.150783 0.000000
0.706396 0.122961 0.000000
0.750370 0.082155 0.000000
0.797252 0.002939 0.000000
0.847181 0.000000 0.000000
0.900316 0.000000 0.000000
0.956823 0.000000 0.000000
1.016886 0.000000 0.000000
1.080700 0.000000 0.000000
1.148476 0.000000 0.000000
1.220440 0.000000 0.000000
1.242248 0.000000 0.000000
0.000000 0.323766 0.000000
0.000000 0.323538 0.000000
0.000000 0.322854 0.000000
0.000000 0.321716 0.000000
0.000000 0.320123 0.000000
0.000000 0.318077 0.000000
0.009759 0.315579 0.000000
0.137184 0.312627 0.000000
0.206398 0.309223 0.000000
0.261770 0.305363 0.000000
0.310363 0.301046 0.000000
0.351025 0.293058 0.000000
0.388292 0.284916 0.000000
0.423009 0.276607 0.000000
0.455724 0.268108 0.000000
0.486813 0.259388 0.000000
0.516975 0.250275 0.000000
0.548945 0.239835 0.000000
0.583233 0.227617 0.000000
0.619925 0.213158 0.000000
0.659119 0.195753 0.000000
0.700921 0.174246 0.000000
0.745450 0.146487 0.000000
0.792838 0.107458 0.000000
0.843230 0.035723 0.000000
0.896784 0.000000 0.000000
0.953671 0.000000 0.000000
1.014076 0.000000 0.000000
1.078198 0.000000 0.000000
1.146250 0.000000 0.000000
1.218460 0.000000 0.000000
1.240847 0.000000 0.000000
0.000000 0.347973 0.000000
0.000000 0.347772 0.000000
0.000000 0.347172 0.000000
0.000000 0.346171 0.000000
0.000000 0.344770 0.000000
0.000000 0.342970 0.000000
0.000000 0.340772 0.000000
0.081049 0.338177 0.000000
0.171943 0.335183 0.000000
0.234571 0.331790 0.000000
0.286955 0.327997 0.000000
0.333713 0.323801 0.000000
0.373208 0.316082 0.000000
0.409637 0.308228 0.000000
0.443717 0.300230 0.000000
0.475927 0.292071 0.000000
0.507041 0.283605 0.000000
0.539897 0.273992 0.000000
0.575018 0.262874 0.000000
0.612488 0.249922 0.000000
0.652404 0.234664 0.000000
0.694873 0.216394 0.000000
0.740015 0.193960 0.000000
0.787964 0.165269 0.000000
0.838867 0.125626 0.000000
0.892884 0.057614 0.000000
0.950190 0.000000 0.000000
1.010972 0.000000 0.000000
1.075434 0.000000 0.000000
1.143790 0.000000 0.000000
1.216274 0.000000 0.000000
1.239298 0.000000 0.000000
0.000000 0.371421 0.000000
0.000000 0.371243 0.000000
0.000000 0.370708 0.000000
0.000000 0.369818 0.000000
0.000000 0.368572 0.000000
0.000000 0.366972 0.000000
0.000000 0.365017 0.000000
0.000000 0.362708 0.000000
0.127683 0.360045 0.000000
0.203251 0.357028 0.000000
0.261218 0.353657 0.000000
0.311164 0.349929 0.000000
0.356331 0.345842 0.000000
0.394778 0.338360 0.000000
0.430437 0.330758 0.000000
0.463923 0.323031 0.000000
0.496109 0.315048 0.000000
0.529957 0.306037 0.000000
0.566004 0.295696 0.000000
0.604336 0.283773 0.000000
0.645048 0.269922 0.000000
0.688250 0.253649 0.000000
0.734065 0.234211 0.000000
0.782629 0.210400 0.000000
0.834091 0.180024 0.000000
0.888615 0.138206 0.000000
0.946379 0.067221 0.000000
1.007575 0.000000 0.000000
1.072408 0.000000 0.000000
1.141098 0.000000 0.000000
1.213880 0.000000 0.000000
1.237602 0.000000 0.000000
0.000000 0.394194 0.000000
0.000000 0.394034 0.000000
0.000000 0.393554 0.000000
0.000000 0.392755 0.000000
0.000000 0.391637 0.000000
0.000000 0.390200 0.000000
0.000000 0.388445 0.000000
0.000000 0.386372 0.000000
0.057281 0.383981 0.000000
0.165298 0.381273 0.000000
0.232204 0.378246 0.000000
0.286630 0.374901 0.000000
0.334531 0.371236 0.000000
0.378299 0.367249 0.000000
0.415798 0.359978 0.000000
0.450745 0.352600 0.000000
0.484144 0.344999 0.000000
0.519101 0.336453 0.000000
0.556176 0.326696 0.000000
0.595458 0.315527 0.000000
0.637045 0.302675 0.000000
0.681050 0.287767 0.000000
0.727599 0.270270 0.000000
0.776832 0.249372 0.000000
0.828903 0.223752 0.000000
0.883978 0.190983 0.000000
0.942240 0.145560 0.000000
1.003885 0.066146 0.000000
1.069121 0.000000 0.000000
1.138173 0.000000 0.000000
1.211279 0.000000 0.000000
1.235759 0.000000 0.000000
0.000000 0.416361 0.000000
0.000000 0.416216 0.000000
0.000000 0.415782 0.000000
0.000000 0.415059 0.000000
0.000000 0.414047 0.000000
0.000000 0.412747 0.000000
0.000000 0.411159 0.000000
0.000000 0.409282 0.000000
0.000000 0.407119 0.000000
0.114435 0.404668 0.000000
0.198297 0.401929 0.000000
0.259403 0.398903 0.000000
0.311009 0.395588 0.000000
0.357158 0.391983 0.000000
0.399682 0.388087 0.000000
0.436318 0.381006 0.000000
0.471094 0.373722 0.000000
0.507296 0.365551 0.000000
0.545513 0.356256 0.000000
0.585841 0.345668 0.000000
0.628386 0.333567 0.000000
0.673267 0.319656 0.000000
0.720614 0.303526 0.000000
0.770573 0.284582 0.000000
0.823301 0.261914 0.000000
0.878973 0.234020 0.000000
0.937773 0.198075 0.000000
0.999902 0.147375 0.000000
1.065574 0.051035 0.000000
1.135016 0.000000 0.000000
1.208472 0.000000 0.000000
1.233767 0.000000 0.000000
0.000000 0.437981 0.000000
0.000000 0.437849 0.000000
0.000000 0.437453 0.000000
0.000000 0.436795 0.000000
0.000000 0.435873 0.000000
0.000000 0.434688 0.000000
0.000000 0.433240 0.000000
0.000000 0.431530 0.000000
0.000000 0.429559 0.000000
0.018369 0.427325 0.000000
0.156198 0.424829 0.000000
0.228366 0.422072 0.000000
0.285221 0.419052 0.000000
0.334506 0.415769 0.000000
0.379131 0.412222 0.000000
0.420536 0.408409 0.000000
0.456890 0.401398 0.000000
0.494496 0.393544 0.000000
0.533985 0.384629 0.000000
0.575467 0.374509 0.000000
0.619061 0.362997 0.000000
0.664894 0.349851 0.000000
0.713105 0.334741 0.000000
0.763848 0.317205 0.000000
0.817286 0.296565 0.000000
0.873598 0.271774 0.000000
0.932977 0.241058 0.000000
0.995626 0.200966 0.000000
1.061765 0.142648 0.000000
1.131627 0.010569 0.000000
1.205458 0.000000 0.000000
1.231629 0.000000 0.000000
0.000000 0.459408 0.000000
0.000000 0.459287 0.000000
0.000000 0.458925 0.000000
0.000000 0.458322 0.000000
0.000000 0.457478 0.000000
0.000000 0.456393 0.000000
0.000000 0.455068 0.000000
0.000000 0.453502 0.000000
0.000000 0.451697 0.000000
0.000000 0.449652 0.000000
0.095182 0.447367 0.000000
0.190904 0.444842 0.000000
0.255900 0.442078 0.000000
0.309532 0.439073 0.000000
0.356903 0.435827 0.000000
0.400213 0.432339 0.000000
0.441205 0.428551 0.000000
0.480430 0.420976 0.000000
0.521364 0.412390 0.000000
0.564142 0.402664 0.000000
0.608902 0.391640 0.000000
0.655786 0.379111 0.000000
0.704946 0.364805 0.000000
0.756546 0.348349 0.000000
0.810758 0.329214 0.000000
0.867768 0.306616 0.000000
0.927774 0.279315 0.000000
0.990988 0.245158 0.000000
1.057635 0.199731 0.000000
1.127951 0.130300 0.000000
1.202189 0.000000 0.000000
1.229307 0.000000 0.000000
0.000000 0.482545 0.000000
0.000000 0.482435 0.000000
0.000000 0.482104 0.000000
0.000000 0.481554 0.000000
0.000000 0.480783 0.000000
0.000000 0.479793 0.000000
0.000000 0.478583 0.000000
0.000000 0.477154 0.000000
0.000000 0.475506 0.000000
0.000000 0.473639 0.000000
0.000000 0.471553 0.000000
0.136580 0.469248 0.000000
0.218065 0.466725 0.000000
0.278810 0.463983 0.000000
0.330282 0.461021 0.000000
0.376292 0.457839 0.000000
0.419230 0.454385 0.000000
0.463523 0.450300 0.000000
0.506270 0.442030 0.000000
0.550649 0.432676 0.000000
0.596831 0.422099 0.000000
0.644986 0.410125 0.000000
0.695286 0.396525 0.000000
0.747909 0.380996 0.000000
0.803041 0.363116 0.000000
0.860879 0.342282 0.000000
0.921629 0.317589 0.000000
0.985511 0.287581 0.000000
1.052757 0.249647 0.000000
1.123610 0.198145 0.000000
1.198328 0.114245 0.000000
1.226565 0.021232 0.000000
0.000000 0.507784 0.000000
0.000000 0.507684 0.000000
0.000000 0.507384 0.000000
0.000000 0.506883 0.000000
0.000000 0.506183 0.000000
0.000000 0.505283 0.000000
0.000000 0.504183 0.000000
0.000000 0.502883 0.000000
0.000000 0.501384 0.000000
0.000000 0.499686 0.000000
0.000000 0.497790 0.000000
0.016140 0.495694 0.000000
0.164089 0.493400 0.000000
0.238859 0.490906 0.000000
0.297119 0.488214 0.000000
0.347239 0.485321 0.000000
0.392995 0.482183 0.000000
0.439507 0.478473 0.000000
0.487870 0.474026 0.000000
0.534287 0.465031 0.000000
0.582251 0.454877 0.000000
0.631979 0.443413 0.000000
0.683675 0.430449 0.000000
0.737543 0.415732 0.000000
0.793789 0.398925 0.000000
0.852625 0.379554 0.000000
0.914270 0.356938 0.000000
0.978954 0.330040 0.000000
1.046918 0.297163 0.000000
1.118415 0.255179 0.000000
1.193708 0.196935 0.000000
1.223279 0.153960 0.000000
0.000000 0.535215 0.000000
0.000000 0.535124 0.000000
0.000000 0.534852 0.000000
0.000000 0.534399 0.000000
0.000000 0.533764 0.000000
0.000000 0.532949 0.000000
0.000000 0.531952 0.000000
0.000000 0.530775 0.000000
0.000000 0.529417 0.000000
0.000000 0.527878 0.000000
0.000000 0.526159 0.000000
0.000000 0.524260 0.000000
0.060961 0.522181 0.000000
0.182364 0.519922 0.000000
0.253963 0.517483 0.000000
0.310960 0.514863 0.000000
0.361061 0.512020 0.000000
0.410819 0.508661 0.000000
0.461725 0.504636 0.000000
0.514330 0.499811 0.000000
0.564568 0.490062 0.000000
0.616267 0.479074 0.000000
0.669691 0.466687 0.000000
0.725085 0.452690 0.000000
0.782686 0.436809 0.000000
0.842729 0.418667 0.000000
0.905453 0.397737 0.000000
0.971101 0.373255 0.000000
1.039927 0.344042 0.000000
1.112195 0.308139 0.000000
1.188177 0.261836 0.000000
1.219344 0.229530 0.000000
0.000000 0.564928 0.000000
0.000000 0.564846 0.000000
0.000000 0.564600 0.000000
0.000000 0.564191 0.000000
0.000000 0.563618 0.000000
0.000000 0.562881 0.000000
0.000000 0.561981 0.000000
0.000000 0.560917 0.000000
0.000000 0.559691 0.000000
0.000000 0.558301 0.000000
0.000000 0.556749 0.000000
0.000000 0.555033 0.000000
0.000000 0.553155 0.000000
0.078126 0.551115 0.000000
0.192635 0.548911 0.000000
0.263442 0.546545 0.000000
0.320969 0.543978 0.000000
0.375810 0.540945 0.000000
0.430475 0.537312 0.000000
0.485968 0.532959 0.000000
0.542991 0.527742 0.000000
0.597208 0.517206 0.000000
0.652800 0.505351 0.000000
0.710082 0.492001 0.000000
0.769343 0.476929 0.000000
0.830855 0.459831 0.000000
0.894883 0.440295 0.000000
0.961693 0.417737 0.000000
1.031556 0.391302 0.000000
1.104748 0.359663 0.000000
1.181556 0.320579 0.000000
1.214628 0.293236 0.000000
0.000000 0.597016 0.000000
0.000000 0.596942 0.000000
0.000000 0.596721 0.000000
0.000000 0.596352 0.000000
0.000000 0.595836 0.000000
0.000000 0.595173 0.000000
0.000000 0.594362 0.000000
0.000000 0.593404 0.000000
0.000000 0.592300 0.000000
0.000000 0.591048 0.000000
0.000000 0.589650 0.000000
0.000000 0.588105 0.000000
0.000000 0.586413 0.000000
0.000000 0.584575 0.000000
0.075742 0.582590 0.000000
0.194699 0.580459 0.000000
0.267829 0.578147 0.000000
0.331607 0.575416 0.000000
0.392251 0.572145 0.000000
0.452049 0.568227 0.000000
0.512320 0.563532 0.000000
0.573944 0.557905 0.000000
0.632307 0.546551 0.000000
0.691959 0.533792 0.000000
0.753275 0.519439 0.000000
0.816585 0.503244 0.000000
0.882200 0.484877 0.000000
0.950415 0.463885 0.000000
1.021527 0.439624 0.000000
1.095831 0.411148 0.000000
1.173630 0.376970 0.000000
1.208977 0.352462 0.000000
0.000000 0.631579 0.000000
0.000000 0.631513 0.000000
0.000000 0.631314 0.000000
0.000000 0.630983 0.000000
0.000000 0.630519 0.000000
0.000000 0.629923 0.000000
0.000000 0.629195 0.000000
0.000000 0.628334 0.000000
0.000000 0.627342 0.000000
0.000000 0.626217 0.000000
0.000000 0.624961 0.000000
0.000000 0.623573 0.000000
0.000000 0.622053 0.000000
0.000000 0.620401 0.000000
0.000000 0.618618 0.000000
0.046148 0.616703 0.000000
0.188446 0.614625 0.000000
0.272264 0.612171 0.000000
0.343718 0.609233 0.000000
0.410465 0.605714 0.000000
0.475620 0.601499 0.000000
0.540869 0.596449 0.000000
0.607284 0.590395 0.000000
0.669970 0.578188 0.000000
0.733865 0.564486 0.000000
0.799402 0.549085 0.000000
0.866960 0.531718 0.000000
0.936884 0.512024 0.000000
1.009506 0.489510 0.000000
1.085150 0.463470 0.000000
1.164139 0.432859 0.000000
1.202202 0.410119 0.000000
0.000000 0.668722 0.000000
0.000000 0.668662 0.000000
0.000000 0.668484 0.000000
0.000000 0.668187 0.000000
0.000000 0.667772 0.000000
0.000000 0.667238 0.000000
0.000000 0.666585 0.000000
0.000000 0.665814 0.000000
0.000000 0.664924 0.000000
0.000000 0.663916 0.000000
0.000000 0.662789 0.000000
0.000000 0.661544 0.000000
0.000000 0.660181 0.000000
0.000000 0.658701 0.000000
0.000000 0.657102 0.000000
0.000000 0.655385 0.000000
0.000000 0.653522 0.000000
0.180207 0.651322 0.000000
0.277731 0.648688 0.000000
0.357391 0.645533 0.000000
0.430533 0.641755 0.000000
0.501272 0.637230 0.000000
0.571703 0.631809 0.000000
0.643112 0.625310 0.000000
0.710312 0.612213 0.000000
0.778646 0.597526 0.000000
0.848609 0.581031 0.000000
0.920626 0.562437 0.000000
0.995084 0.541357 0.000000
1.072347 0.517250 0.000000
1.152771 0.489348 0.000000
1.194079 0.467757 0.000000
0.000000 0.708558 0.000000
0.000000 0.708505 0.000000
0.000000 0.708345 0.000000
0.000000 0.708080 0.000000
0.000000 0.707708 0.000000
0.000000 0.707230 0.000000
0.000000 0.706646 0.000000
0.000000 0.705956 0.000000
0.000000 0.705159 0.000000
0.000000 0.704257 0.000000
0.000000 0.703249 0.000000
0.000000 0.702135 0.000000
0.000000 0.700916 0.000000
0.000000 0.699590 0.000000
0.000000 0.698159 0.000000
0.000000 0.696623 0.000000
0.000000 0.694956 0.000000
0.000000 0.692987 0.000000
0.171008 0.690629 0.000000
0.284328 0.687806 0.000000
0.372706 0.684426 0.000000
0.452533 0.680378 0.000000
0.529087 0.675529 0.000000
0.604918 0.669720 0.000000
0.681539 0.662756 0.000000
0.753458 0.648729 0.000000
0.826442 0.633013 0.000000
0.901049 0.615372 0.000000
0.977756 0.595495 0.000000
1.056988 0.572961 0.000000
1.139145 0.547187 0.000000
1.184334 0.526350 0.000000
0.000000 0.751208 0.000000
0.000000 0.751161 0.000000
0.000000 0.751018 0.000000
0.000000 0.750781 0.000000
0.000000 0.750449 0.000000
0.000000 0.750022 0.000000
0.000000 0.749500 0.000000
0.000000 0.748883 0.000000
0.000000 0.748172 0.000000
0.000000 0.747366 0.000000
0.000000 0.746466 0.000000
0.000000 0.745470 0.000000
0.000000 0.744381 0.000000
0.000000 0.743196 0.000000
0.000000 0.741918 0.000000
0.000000 0.740545 0.000000
0.000000 0.739055 0.000000
0.000000 0.737296 0.000000
0.000000 0.735189 0.000000
0.160597 0.732667 0.000000
0.292146 0.729647 0.000000
0.389740 0.726031 0.000000
0.476542 0.721700 0.000000
0.559153 0.716513 0.000000
0.640614 0.710298 0.000000
0.722680 0.702848 0.000000
0.799540 0.687848 0.000000
0.877402 0.671054 0.000000
0.956892 0.652213 0.000000
1.038534 0.630990 0.000000
1.122798 0.606933 0.000000
1.172632 0.586590 0.000000
0.000000 0.796804 0.000000
0.000000 0.796761 0.000000
0.000000 0.796634 0.000000
0.000000 0.796423 0.000000
0.000000 0.796127 0.000000
0.000000 0.795746 0.000000
0.000000 0.795280 0.000000
0.000000 0.794730 0.000000
0.000000 0.794096 0.000000
0.000000 0.793377 0.000000
0.000000 0.792573 0.000000
0.000000 0.791685 0.000000
0.000000 0.790713 0.000000
0.000000 0.789656 0.000000
0.000000 0.788515 0.000000
0.000000 0.787290 0.000000
0.000000 0.785961 0.000000
0.000000 0.784391 0.000000
0.000000 0.782512 0.000000
0.000000 0.780261 0.000000
0.148610 0.777566 0.000000
0.301273 0.774340 0.000000
0.408568 0.770476 0.000000
0.502637 0.765849 0.000000
0.591560 0.760308 0.000000
0.678900 0.753668 0.000000
0.766662 0.745709 0.000000
0.848702 0.729689 0.000000
0.931690 0.711765 0.000000
1.016316 0.691664 0.000000
1.103160 0.669030 0.000000
1.158566 0.649005 0.000000
0.000000 0.845487 0.000000
0.000000 0.845449 0.000000
0.000000 0.845336 0.000000
0.000000 0.845147 0.000000
0.000000 0.844883 0.000000
0.000000 0.844544 0.000000
0.000000 0.844129 0.000000
0.000000 0.843639 0.000000
0.000000 0.843074 0.000000
0.000000 0.842433 0.000000
0.000000 0.841717 0.000000
0.000000 0.840926 0.000000
0.000000 0.840059 0.000000
0.000000 0.839118 0.000000
0.000000 0.838101 0.000000
0.000000 0.837009 0.000000
0.000000 0.835824 0.000000
0.000000 0.834425 0.000000
0.000000 0.832750 0.000000
0.000000 0.830744 0.000000
