assets/resources/wfx_effect/nle_default/BaseFilter/HLGCube/Data/HDR_HLG_709.cube
#Copyright: (C)Copyright 2024 Wondershare Inc.
#Created by: BIAOZHOU.
LUT_3D_SIZE 5
DOMAIN_MIN 0.000000 0.000000 0.000000
DOMAIN_MAX 0.903226 0.903226 0.903226
0.000000 0.000000 0.000000
0.237702 0.000000 0.000000
0.404298 0.000000 0.000000
0.580330 0.000000 0.000000
0.873036 0.000000 0.000000
0.000000 0.230171 0.000000
0.226394 0.226394 0.000000
0.399025 0.199813 0.000000
0.577524 0.179192 0.000000
0.871735 0.156091 0.000000
0.000000 0.392481 0.000000
0.195258 0.390909 0.000000
0.386555 0.386555 0.000000
0.569902 0.357254 0.000000
0.867959 0.319589 0.000000
0.000000 0.563984 0.000000
0.173878 0.563172 0.000000
0.351256 0.560809 0.000000
0.555786 0.555786 0.000000
0.859967 0.507890 0.000000
0.000000 0.849159 0.000000
0.150864 0.848787 0.000000
0.311359 0.847683 0.000000
0.498818 0.845219 0.000000
0.837184 0.837184 0.000000
0.000000 0.000000 0.242453
0.236473 0.000000 0.236473
0.403807 0.000000 0.202497
0.580078 0.000000 0.180138
0.872921 0.000000 0.156361
0.000000 0.229264 0.229264
0.225619 0.225619 0.225619
0.398597 0.199573 0.199573
0.577286 0.179104 0.179104
0.871623 0.156065 0.156065
0.000000 0.392120 0.195938
0.195064 0.390563 0.195064
0.386247 0.386247 0.192641
0.569695 0.357118 0.176293
0.867852 0.319545 0.155206
0.000000 0.563799 0.174110
0.173811 0.562990 0.173811
0.351141 0.560636 0.172939
0.555628 0.555628 0.171085
0.859870 0.507831 0.153388
0.000000 0.849074 0.150929
0.150845 0.848703 0.150845
0.311326 0.847600 0.150593
0.498769 0.845139 0.150033
0.837112 0.837112 0.148204
0.000000 0.000000 0.411753
0.205516 0.000000 0.409186
0.402370 0.000000 0.402370
0.579331 0.000000 0.363475
0.872578 0.000000 0.321463
0.000000 0.203416 0.405445
0.202186 0.202186 0.403253
0.397340 0.198867 0.397340
0.576576 0.178841 0.361657
0.871285 0.155988 0.320938
0.000000 0.391059 0.391059
0.194492 0.389544 0.389544
0.385338 0.385338 0.385338
0.569080 0.356712 0.356712
0.867531 0.319415 0.319415
0.000000 0.563250 0.352866
0.173610 0.562449 0.352338
0.350800 0.560119 0.350800
0.555159 0.555159 0.347528
0.859580 0.507653 0.316188
0.000000 0.848823 0.311822
0.150788 0.848453 0.311672
0.311226 0.847354 0.311226
0.498622 0.844900 0.310230
0.836897 0.836897 0.306982
0.000000 0.000000 0.590642
0.183554 0.000000 0.589306
0.367536 0.000000 0.585487
0.577663 0.000000 0.577663
0.871801 0.000000 0.515171
0.000000 0.182797 0.587260
0.182332 0.182332 0.586004
0.365503 0.180999 0.582405
0.574991 0.178254 0.574991
0.870520 0.155814 0.514383
0.000000 0.362748 0.578229
0.179060 0.362047 0.577167
0.360025 0.360025 0.574102
0.567703 0.355803 0.567703
0.866802 0.319119 0.512095
0.000000 0.562016 0.562016
0.173161 0.561234 0.561234
0.350034 0.558957 0.558957
0.554103 0.554103 0.554103
0.858922 0.507248 0.507248
0.000000 0.848251 0.500683
0.150658 0.847884 0.500457
0.310998 0.846793 0.499786
0.498288 0.844358 0.498288
0.836409 0.836409 0.493398
0.000000 0.000000 0.888099
0.159678 0.000000 0.887485
0.326778 0.000000 0.885674
0.521252 0.000000 0.881685
0.869140 0.000000 0.869140
0.000000 0.159460 0.886526
0.159323 0.159323 0.885925
0.326159 0.158918 0.884148
0.520359 0.158027 0.880234
0.867902 0.155218 0.867902
0.000000 0.325282 0.881987
0.158297 0.325051 0.881419
0.324370 0.324370 0.879741
0.517776 0.322866 0.876035
0.864304 0.318105 0.864304
0.000000 0.515605 0.872506
0.156152 0.515295 0.872003
0.320625 0.514379 0.870513
0.512348 0.512348 0.867212
0.856664 0.505859 0.856664
0.000000 0.846285 0.846285
0.150212 0.845927 0.845927
0.310215 0.844863 0.844863
0.497138 0.842489 0.842489
0.834726 0.834726 0.834726
