assets/resources/wfx_effect/nle_default/BaseFilter/HLGCube/Data/HDR_HLG_709.cube
#Copyright: (C)Copyright 2024 Wondershare Inc.
#Created by: BIAOZHOU.
LUT_3D_SIZE 8
DOMAIN_MIN 0.000000 0.000000 0.000000
DOMAIN_MAX 0.903226 0.903226 0.903226
0.000000 0.000000 0.000000
0.148447 0.000000 0.000000
0.264242 0.000000 0.000000
0.360508 0.000000 0.000000
0.446243 0.000000 0.000000
0.549063 0.000000 0.000000
0.689017 0.000000 0.000000
0.873036 0.000000 0.000000
0.000000 0.143212 0.000000
0.140587 0.140587 0.000000
0.260577 0.122112 0.000000
0.358307 0.110452 0.000000
0.444732 0.102285 0.000000
0.548029 0.094417 0.000000
0.688343 0.086002 0.000000
0.872609 0.077540 0.000000
0.000000 0.256028 0.000000
0.118945 0.254936 0.000000
0.251909 0.251909 0.000000
0.352436 0.235614 0.000000
0.440499 0.222877 0.000000
0.545048 0.209915 0.000000
0.686364 0.195568 0.000000
0.871341 0.180837 0.000000
0.000000 0.349817 0.000000
0.106797 0.349178 0.000000
0.231971 0.347329 0.000000
0.344456 0.344456 0.000000
0.434281 0.329690 0.000000
0.540441 0.313555 0.000000
0.683199 0.294792 0.000000
0.869274 0.274901 0.000000
0.000000 0.433347 0.000000
0.098565 0.432912 0.000000
0.217906 0.431635 0.000000
0.326001 0.429590 0.000000
0.426879 0.426879 0.000000
0.534608 0.409167 0.000000
0.679006 0.387368 0.000000
0.866458 0.363318 0.000000
0.000000 0.533521 0.000000
0.090749 0.533225 0.000000
0.204308 0.532348 0.000000
0.307662 0.530920 0.000000
0.404737 0.528980 0.000000
0.525726 0.525726 0.000000
0.672225 0.501726 0.000000
0.861716 0.473633 0.000000
0.000000 0.669874 0.000000
0.082462 0.669682 0.000000
0.189736 0.669109 0.000000
0.287669 0.668166 0.000000
0.380051 0.666865 0.000000
0.495912 0.664629 0.000000
0.660274 0.660274 0.000000
0.852791 0.628805 0.000000
0.000000 0.849159 0.000000
0.074172 0.849037 0.000000
0.175066 0.848674 0.000000
0.267333 0.848072 0.000000
0.354590 0.847233 0.000000
0.464440 0.845773 0.000000
0.621320 0.842855 0.000000
0.837184 0.837184 0.000000
0.000000 0.000000 0.151749
0.147593 0.000000 0.147593
0.263901 0.000000 0.123977
0.360310 0.000000 0.111254
0.446109 0.000000 0.102719
0.548971 0.000000 0.094651
0.688958 0.000000 0.086118
0.872998 0.000000 0.077596
0.000000 0.142582 0.142582
0.140048 0.140048 0.140048
0.260279 0.121945 0.121945
0.358121 0.110377 0.110377
0.444602 0.102244 0.102244
0.547939 0.094395 0.094395
0.688284 0.085991 0.085991
0.872571 0.077535 0.077535
0.000000 0.255778 0.119418
0.118811 0.254695 0.118811
0.251695 0.251695 0.117127
0.352279 0.235502 0.108039
0.440382 0.222811 0.100916
0.544963 0.209878 0.093658
0.686307 0.195548 0.085616
0.871305 0.180827 0.077354
0.000000 0.349672 0.106995
0.106740 0.349035 0.106740
0.231875 0.347194 0.106003
0.344332 0.344332 0.104857
0.434180 0.329611 0.098964
0.540364 0.313507 0.092518
0.683144 0.294766 0.085016
0.869238 0.274888 0.077058
0.000000 0.433248 0.098671
0.098534 0.432815 0.098534
0.217853 0.431540 0.098133
0.325931 0.429500 0.097491
0.426795 0.426795 0.096640
0.534540 0.409113 0.091075
0.678955 0.387338 0.084221
0.866424 0.363302 0.076656
0.000000 0.533454 0.090806
0.090733 0.533158 0.090733
0.204279 0.532283 0.090516
0.307622 0.530856 0.090162
0.404689 0.528919 0.089682
0.525669 0.525669 0.088877
0.672180 0.501692 0.082936
0.861683 0.473614 0.075979
0.000000 0.669831 0.082490
0.082454 0.669639 0.082454
0.189722 0.669066 0.082345
0.287649 0.668124 0.082167
0.380026 0.666823 0.081920
0.495881 0.664589 0.081496
0.660237 0.660237 0.080671
0.852763 0.628784 0.074704
0.000000 0.849131 0.074185
0.074168 0.849010 0.074168
0.175059 0.848646 0.074116
0.267324 0.848045 0.074030
0.354578 0.847207 0.073910
0.464424 0.845747 0.073702
0.621301 0.842830 0.073285
0.837160 0.837160 0.072475
0.000000 0.000000 0.269424
0.126075 0.000000 0.267640
0.262902 0.000000 0.262902
0.359722 0.000000 0.240811
0.445708 0.000000 0.225798
0.548698 0.000000 0.211527
0.688780 0.000000 0.196384
0.872886 0.000000 0.181230
0.000000 0.124616 0.265039
0.123761 0.123761 0.263516
0.259406 0.121454 0.259406
0.357568 0.110156 0.239275
0.444215 0.102123 0.224961
0.547672 0.094329 0.211073
0.688109 0.085957 0.196158
0.872460 0.077519 0.181121
0.000000 0.255040 0.255040
0.118413 0.253987 0.253987
0.251063 0.251063 0.251063
0.351812 0.235169 0.235169
0.440032 0.222615 0.222615
0.544711 0.209766 0.209766
0.686137 0.195491 0.195491
0.871195 0.180799 0.180799
0.000000 0.349240 0.233334
0.106570 0.348611 0.232886
0.231588 0.346792 0.231588
0.343962 0.343962 0.229570
0.433879 0.329374 0.219164
0.540134 0.313365 0.207745
0.682983 0.294690 0.194425
0.869132 0.274850 0.180274
0.000000 0.432954 0.218646
0.098443 0.432523 0.218404
0.217694 0.431258 0.217694
0.325720 0.429232 0.216558
0.426544 0.426544 0.215051
0.534335 0.408952 0.205185
0.678804 0.387247 0.193013
0.866320 0.363255 0.179558
0.000000 0.533254 0.204708
0.090683 0.532959 0.204578
0.204193 0.532087 0.204193
0.307505 0.530666 0.203566
0.404545 0.528736 0.202713
0.525498 0.525498 0.201284
0.672044 0.501588 0.190728
0.861586 0.473558 0.178353
0.000000 0.669701 0.189936
0.082429 0.669509 0.189871
0.189678 0.668938 0.189678
0.287589 0.667997 0.189360
0.379951 0.666699 0.188922
0.495790 0.664470 0.188168
0.660126 0.660126 0.186700
0.852676 0.628719 0.176085
0.000000 0.849049 0.175161
0.074156 0.848927 0.175130
0.175038 0.848565 0.175038
0.267295 0.847963 0.174885
0.354542 0.847126 0.174672
0.464379 0.845668 0.174301
0.621244 0.842754 0.173559
0.837090 0.837090 0.172117
0.000000 0.000000 0.367252
0.113612 0.000000 0.366201
0.243309 0.000000 0.363224
0.358764 0.000000 0.358764
0.445049 0.000000 0.338156
0.548247 0.000000 0.318386
0.688486 0.000000 0.297297
0.872699 0.000000 0.276124
0.000000 0.112972 0.364601
0.112581 0.112581 0.363625
0.241616 0.111470 0.360851
0.356667 0.109795 0.356667
0.443579 0.101922 0.337000
0.547229 0.094219 0.317756
0.687818 0.085902 0.296981
0.872274 0.077492 0.275972
0.000000 0.239349 0.357673
0.109877 0.238777 0.356870
0.237136 0.237136 0.354570
0.351048 0.234624 0.351048
0.439456 0.222292 0.333758
0.544294 0.209582 0.315939
0.685855 0.195396 0.296050
0.871012 0.180753 0.275521
0.000000 0.348531 0.348531
0.106292 0.347915 0.347915
0.231118 0.346132 0.346132
0.343355 0.343355 0.343355
0.433383 0.328983 0.328983
0.539753 0.313129 0.313129
0.682715 0.294562 0.294562
0.868954 0.274787 0.274787
0.000000 0.432468 0.328264
0.098291 0.432043 0.327930
0.217433 0.430791 0.326946
0.325371 0.428788 0.325371
0.426129 0.426129 0.323280
0.533996 0.408685 0.309565
0.678553 0.387095 0.292591
0.866149 0.363177 0.273786
0.000000 0.532922 0.308901
0.090601 0.532629 0.308720
0.204050 0.531763 0.308183
0.307310 0.530351 0.307310
0.404306 0.528433 0.306122
0.525215 0.525215 0.304130
0.671820 0.501416 0.289400
0.861425 0.473465 0.272099
0.000000 0.669485 0.288294
0.082388 0.669294 0.288203
0.189606 0.668724 0.287933
0.287489 0.667787 0.287489
0.379827 0.666494 0.286876
0.495638 0.664271 0.285823
0.659941 0.659941 0.283772
0.852533 0.628610 0.268925
0.000000 0.848912 0.267633
0.074137 0.848791 0.267590
0.175003 0.848428 0.267461
0.267246 0.847828 0.267246
0.354481 0.846993 0.266948
0.464304 0.845537 0.266429
0.621149 0.842628 0.265390
0.836973 0.836973 0.263372
0.000000 0.000000 0.454379
0.105096 0.000000 0.453663
0.229093 0.000000 0.451583
0.340734 0.000000 0.448328
0.444139 0.000000 0.444139
0.547619 0.000000 0.419410
0.688074 0.000000 0.392833
0.872438 0.000000 0.366032
0.000000 0.104747 0.452554
0.104531 0.104531 0.451868
0.228133 0.103903 0.449872
0.339486 0.102918 0.446741
0.442700 0.101646 0.442700
0.546614 0.094066 0.418619
0.687410 0.085825 0.392433
0.872014 0.077455 0.365840
0.000000 0.226807 0.447507
0.102967 0.226465 0.446897
0.225467 0.225467 0.445118
0.336003 0.223893 0.442311
0.438659 0.221845 0.438659
0.543713 0.209325 0.416335
0.685460 0.195262 0.391258
0.870756 0.180688 0.365269
0.000000 0.334377 0.440243
0.100711 0.333974 0.439730
0.221602 0.332792 0.438226
0.330912 0.330912 0.435836
0.432694 0.328442 0.432694
0.539222 0.312800 0.412799
0.682339 0.294385 0.389377
0.868704 0.274698 0.364337
0.000000 0.431795 0.431795
0.098082 0.431376 0.431376
0.217070 0.430145 0.430145
0.324887 0.428172 0.428172
0.425552 0.425552 0.425552
0.533522 0.408313 0.408313
0.678202 0.386884 0.386884
0.865908 0.363068 0.363068
0.000000 0.532459 0.407475
0.090487 0.532169 0.407247
0.203850 0.531310 0.406571
0.307038 0.529912 0.405470
0.403973 0.528010 0.403973
0.524819 0.524819 0.401461
0.671505 0.501175 0.382848
0.861199 0.473335 0.360930
0.000000 0.669182 0.381447
0.082331 0.668992 0.381333
0.189505 0.668425 0.380992
0.287350 0.667493 0.380429
0.379654 0.666205 0.379654
0.495425 0.663994 0.378321
0.659683 0.659683 0.375723
0.852331 0.628459 0.356905
0.000000 0.848720 0.355265
0.074109 0.848599 0.355210
0.174955 0.848237 0.355046
0.267179 0.847639 0.354774
0.354396 0.846805 0.354396
0.464198 0.845353 0.353737
0.621016 0.842451 0.352419
0.836809 0.836809 0.349858
0.000000 0.000000 0.558867
0.096982 0.000000 0.558379
0.215166 0.000000 0.556942
0.322339 0.000000 0.554633
0.422508 0.000000 0.551554
0.546527 0.000000 0.546527
0.687353 0.000000 0.513308
0.871977 0.000000 0.479550
0.000000 0.096793 0.557617
0.096675 0.096675 0.557141
0.214634 0.096327 0.555738
0.321626 0.095768 0.553481
0.421654 0.095022 0.550469
0.545543 0.093801 0.545543
0.686696 0.085689 0.512805
0.871556 0.077389 0.479307
0.000000 0.213885 0.554039
0.095796 0.213688 0.553595
0.213110 0.213110 0.552285
0.319578 0.212178 0.550173
0.419194 0.210929 0.547345
0.542701 0.208879 0.542701
0.684768 0.195028 0.511329
0.870305 0.180573 0.478586
0.000000 0.318594 0.548583
0.094455 0.318347 0.548183
0.210778 0.317617 0.547004
0.316437 0.316437 0.545097
0.415406 0.314849 0.542533
0.538296 0.312227 0.538296
0.681681 0.294073 0.508966
0.868265 0.274541 0.477410
0.000000 0.414819 0.541787
0.092784 0.414544 0.541438
0.207865 0.413731 0.540405
0.312495 0.412412 0.538729
0.410629 0.410629 0.536465
0.532697 0.407663 0.532697
0.677586 0.386513 0.505831
0.865485 0.362876 0.475806
0.000000 0.531650 0.531650
0.090288 0.531365 0.531365
0.203501 0.530520 0.530520
0.306562 0.529144 0.529144
0.403392 0.527272 0.527272
0.524126 0.524126 0.524126
0.670953 0.500753 0.500753
0.860800 0.473105 0.473105
0.000000 0.668650 0.498990
0.082231 0.668462 0.498846
0.189327 0.667900 0.498416
0.287105 0.666975 0.497708
0.379348 0.665699 0.496731
0.495051 0.663505 0.495051
0.659228 0.659228 0.491777
0.851976 0.628191 0.468017
0.000000 0.848381 0.465943
0.074061 0.848261 0.465874
0.174869 0.847901 0.465667
0.267060 0.847305 0.465323
0.354246 0.846475 0.464844
0.464011 0.845030 0.464011
0.620781 0.842139 0.462344
0.836520 0.836520 0.459104
0.000000 0.000000 0.701093
0.088360 0.000000 0.700776
0.200120 0.000000 0.699834
0.301944 0.000000 0.698293
0.397724 0.000000 0.696190
0.517350 0.000000 0.692633
0.685894 0.000000 0.685894
0.871038 0.000000 0.642549
0.000000 0.088266 0.700278
0.088206 0.088206 0.699964
0.199850 0.088030 0.699034
0.301575 0.087741 0.697513
0.397269 0.087347 0.695434
0.516803 0.086680 0.691919
0.685252 0.085416 0.685252
0.870621 0.077256 0.642236
0.000000 0.199464 0.697892
0.087756 0.199362 0.697590
0.199059 0.199059 0.696694
0.300492 0.198563 0.695227
0.395936 0.197886 0.693222
0.515200 0.196737 0.689825
0.683367 0.194555 0.683367
0.869386 0.180339 0.641305
0.000000 0.299960 0.694106
0.087041 0.299825 0.693821
0.197803 0.299425 0.692977
0.298770 0.298770 0.691593
0.393813 0.297872 0.689699
0.512642 0.296348 0.686484
0.680348 0.293441 0.680348
0.867369 0.274221 0.639786
0.000000 0.393476 0.689141
0.086103 0.393318 0.688878
0.196154 0.392847 0.688097
0.296506 0.392076 0.686817
0.391017 0.391017 0.685060
0.509264 0.389215 0.682070
0.676338 0.385761 0.676338
0.864620 0.362484 0.637716
0.000000 0.508617 0.681225
0.084608 0.508440 0.680994
0.193520 0.507913 0.680305
0.292885 0.507047 0.679175
0.386533 0.505856 0.677620
0.503822 0.503822 0.674962
0.669832 0.499894 0.669832
0.859986 0.472636 0.634225
0.000000 0.667570 0.667570
0.082026 0.667385 0.667385
0.188967 0.666834 0.666834
0.286607 0.665925 0.665925
0.378728 0.664670 0.664670
0.494292 0.662513 0.662513
0.658303 0.658303 0.658303
0.851251 0.627645 0.627645
0.000000 0.847689 0.624962
0.073962 0.847570 0.624872
0.174694 0.847213 0.624604
0.266816 0.846623 0.624159
0.353940 0.845800 0.623539
0.463629 0.844367 0.622460
0.620301 0.841502 0.620301
0.835928 0.835928 0.616103
0.000000 0.000000 0.888099
0.079724 0.000000 0.887898
0.184899 0.000000 0.887299
0.280982 0.000000 0.886310
0.371708 0.000000 0.884941
0.485662 0.000000 0.882576
0.647736 0.000000 0.877923
0.869140 0.000000 0.869140
0.000000 0.079679 0.887582
0.079651 0.079651 0.887382
0.184769 0.079566 0.886787
0.280801 0.079425 0.885805
0.371483 0.079231 0.884444
0.485384 0.078895 0.882094
0.647393 0.078234 0.877468
0.868733 0.076986 0.868733
0.000000 0.184581 0.886050
0.079433 0.184532 0.885855
0.184383 0.184383 0.885271
0.280267 0.184138 0.884307
0.370815 0.183798 0.882972
0.484560 0.183210 0.880665
0.646378 0.182053 0.876120
0.867527 0.179866 0.867527
0.000000 0.280001 0.883563
0.079078 0.279933 0.883373
0.183756 0.279731 0.882807
0.279398 0.279398 0.881873
0.369728 0.278936 0.880578
0.483219 0.278137 0.878339
0.644724 0.276561 0.873924
0.865558 0.273575 0.865558
0.000000 0.369553 0.880193
0.078598 0.369471 0.880011
0.182906 0.369224 0.879469
0.278220 0.368818 0.878574
0.368254 0.368254 0.877332
0.481399 0.367278 0.875182
0.642474 0.365351 0.870937
0.862872 0.361690 0.862872
0.000000 0.481044 0.874567
0.077795 0.480946 0.874398
0.181486 0.480655 0.873893
0.276252 0.480174 0.873058
0.365788 0.479506 0.871900
0.478349 0.478349 0.869894
0.638695 0.476058 0.865921
0.858339 0.471686 0.858339
0.000000 0.637346 0.864129
0.076307 0.637234 0.863981
0.178850 0.636902 0.863540
0.272593 0.636351 0.862809
0.361200 0.635586 0.861794
0.472661 0.634258 0.860030
0.631617 0.631617 0.856524
0.849779 0.626537 0.849779
0.000000 0.846285 0.846285
0.073762 0.846168 0.846168
0.174339 0.845818 0.845818
0.266322 0.845238 0.845238
0.353318 0.844430 0.844430
0.462854 0.843023 0.843023
0.619326 0.840207 0.840207
0.834726 0.834726 0.834726
