assets/resources/wfx_effect/nle_default/BaseFilter/HLGCube/Data/HDR_HLG.cube
#Copyright: (C)Copyright 2022 Wondershare Inc.
#Created by: BIAOZHOU.
LUT_3D_SIZE 5
DOMAIN_MIN 0.000000 0.000000 0.000000
DOMAIN_MAX 0.903226 0.903226 0.903226
0.000000 0.000000 0.000000
0.306569 0.000000 0.000000
0.512362 0.000000 0.000000
0.729811 0.000000 0.000000
1.091385 0.000000 0.000000
0.000000 0.245389 0.000000
0.234760 0.227371 0.000000
0.484613 0.155844 0.000000
0.715628 0.000000 0.000000
1.084918 0.000000 0.000000
0.000000 0.416361 0.000000
0.000000 0.409282 0.000000
0.399682 0.388087 0.000000
0.673267 0.319656 0.000000
1.065574 0.051035 0.000000
0.000000 0.597016 0.000000
0.000000 0.593404 0.000000
0.075742 0.582590 0.000000
0.573944 0.557905 0.000000
1.021527 0.439624 0.000000
0.000000 0.897409 0.000000
0.000000 0.895765 0.000000
0.000000 0.890834 0.000000
0.000000 0.879586 0.000000
0.863707 0.840280 0.000000
0.000000 0.000000 0.256690
0.298384 0.000000 0.248350
0.509158 0.000000 0.207382
0.728178 0.000000 0.172284
1.090642 0.000000 0.101538
0.000000 0.243513 0.231403
0.225619 0.225619 0.225619
0.481392 0.154486 0.193702
0.713995 0.000000 0.160646
1.084175 0.000000 0.086934
0.000000 0.415619 0.163376
0.000000 0.408556 0.160300
0.396135 0.387396 0.151120
0.671614 0.319122 0.121032
1.064830 0.049092 0.022612
0.000000 0.596637 0.008869
0.000000 0.593029 0.002855
0.059202 0.582223 0.000000
0.572140 0.557552 0.000000
1.020778 0.439356 0.000000
0.000000 0.897237 0.000000
0.000000 0.895593 0.000000
0.000000 0.890664 0.000000
0.000000 0.879417 0.000000
0.862887 0.840119 0.000000
0.000000 0.000000 0.434094
0.241953 0.000000 0.430582
0.499519 0.000000 0.421007
0.723275 0.000000 0.375354
1.088411 0.000000 0.315222
0.000000 0.213834 0.422936
0.177076 0.199482 0.419837
0.471675 0.150384 0.411259
0.709089 0.000000 0.369258
1.081945 0.000000 0.310642
0.000000 0.413417 0.394415
0.000000 0.406397 0.392056
0.385338 0.385338 0.385338
0.666646 0.317522 0.351326
1.062599 0.042940 0.296622
0.000000 0.595506 0.325369
0.000000 0.591906 0.324026
0.000000 0.581124 0.320036
0.566700 0.556497 0.311121
1.018530 0.438550 0.262570
0.000000 0.896720 0.148370
0.000000 0.895077 0.146695
0.000000 0.890152 0.141570
0.000000 0.878914 0.129229
0.860422 0.839638 0.074407
0.000000 0.000000 0.621546
0.170090 0.000000 0.619726
0.440102 0.000000 0.614469
0.712045 0.000000 0.603442
1.083312 0.000000 0.529297
0.000000 0.186935 0.615673
0.085094 0.173993 0.613942
0.416463 0.128136 0.608929
0.697843 0.000000 0.598355
1.076846 0.000000 0.526360
0.000000 0.381353 0.599288
0.000000 0.375489 0.597769
0.337598 0.357541 0.593345
0.655220 0.313867 0.583890
1.057496 0.027595 0.517594
0.000000 0.592944 0.566659
0.000000 0.589363 0.565446
0.000000 0.578633 0.561880
0.554103 0.554103 0.554103
1.013383 0.436708 0.497741
0.000000 0.895543 0.450276
0.000000 0.893903 0.449628
0.000000 0.888986 0.447689
0.000000 0.877765 0.443284
0.854767 0.838540 0.428107
0.000000 0.000000 0.933241
0.000000 0.000000 0.932406
0.330918 0.000000 0.929934
0.613229 0.000000 0.924449
1.065434 0.000000 0.906796
0.000000 0.144642 0.930530
0.000000 0.131644 0.929710
0.306270 0.082124 0.927276
0.601526 0.000000 0.921873
1.058964 0.000000 0.904457
0.000000 0.334658 0.922599
0.000000 0.329616 0.921815
0.214098 0.314001 0.919490
0.565168 0.274953 0.914318
1.039581 0.000000 0.897566
0.000000 0.540092 0.905460
0.000000 0.537191 0.904747
0.000000 0.528420 0.902630
0.472359 0.507965 0.897905
0.995281 0.430256 0.882456
0.000000 0.891461 0.853066
0.000000 0.889831 0.852512
0.000000 0.884942 0.850860
0.000000 0.873782 0.847145
0.834726 0.834726 0.834726
