assets/resources/wfx_effect/nle_default/BaseFilter/HLGCube/Data/HDR_HLG.cube
#Copyright: (C)Copyright 2022 Wondershare Inc.
#Created by: BIAOZHOU.
LUT_3D_SIZE 8
DOMAIN_MIN 0.000000 0.000000 0.000000
DOMAIN_MAX 0.903226 0.903226 0.903226
0.000000 0.000000 0.000000
0.196314 0.000000 0.000000
0.339354 0.000000 0.000000
0.458269 0.000000 0.000000
0.564177 0.000000 0.000000
0.691187 0.000000 0.000000
0.864070 0.000000 0.000000
1.091385 0.000000 0.000000
0.000000 0.153790 0.000000
0.146402 0.141266 0.000000
0.320066 0.091550 0.000000
0.447087 0.001813 0.000000
0.556593 0.000000 0.000000
0.686036 0.000000 0.000000
0.860727 0.000000 0.000000
1.089272 0.000000 0.000000
0.000000 0.272626 0.000000
0.000000 0.267706 0.000000
0.261033 0.252974 0.000000
0.413660 0.216941 0.000000
0.533949 0.174789 0.000000
0.670637 0.092860 0.000000
0.850719 0.000000 0.000000
1.082940 0.000000 0.000000
0.000000 0.371421 0.000000
0.000000 0.368572 0.000000
0.127683 0.360045 0.000000
0.356331 0.345842 0.000000
0.496109 0.315048 0.000000
0.645048 0.269922 0.000000
0.834091 0.180024 0.000000
1.072408 0.000000 0.000000
0.000000 0.459408 0.000000
0.000000 0.457478 0.000000
0.000000 0.451697 0.000000
0.255900 0.442078 0.000000
0.441205 0.428551 0.000000
0.608902 0.391640 0.000000
0.810758 0.329214 0.000000
1.057635 0.199731 0.000000
0.000000 0.564928 0.000000
0.000000 0.563618 0.000000
0.000000 0.559691 0.000000
0.000000 0.553155 0.000000
0.320969 0.543978 0.000000
0.542991 0.527742 0.000000
0.769343 0.476929 0.000000
1.031556 0.391302 0.000000
0.000000 0.708558 0.000000
0.000000 0.707708 0.000000
0.000000 0.705159 0.000000
0.000000 0.700916 0.000000
0.000000 0.694956 0.000000
0.372706 0.684426 0.000000
0.681539 0.662756 0.000000
0.977756 0.595495 0.000000
0.000000 0.897409 0.000000
0.000000 0.896872 0.000000
0.000000 0.895261 0.000000
0.000000 0.892578 0.000000
0.000000 0.888808 0.000000
0.000000 0.882146 0.000000
0.451884 0.868454 0.000000
0.863707 0.840280 0.000000
0.000000 0.000000 0.161645
0.190625 0.000000 0.155848
0.337126 0.000000 0.127372
0.456981 0.000000 0.108121
0.563304 0.000000 0.090773
0.690595 0.000000 0.066134
0.863686 0.000000 0.014239
1.091142 0.000000 0.000000
0.000000 0.152486 0.144069
0.140048 0.140048 0.140048
0.317827 0.090606 0.117864
0.445798 0.000548 0.099910
0.555721 0.000000 0.082696
0.685444 0.000000 0.057058
0.860343 0.000000 0.003830
1.089029 0.000000 0.000000
0.000000 0.272111 0.096785
0.000000 0.267201 0.094648
0.258568 0.252494 0.088267
0.412348 0.216558 0.072376
0.533072 0.174419 0.054197
0.670045 0.092317 0.023392
0.850335 0.000000 0.000000
1.082698 0.000000 0.000000
0.000000 0.371122 0.030719
0.000000 0.368277 0.027999
0.123459 0.359757 0.019968
0.354908 0.345564 0.006971
0.495211 0.314814 0.000000
0.644451 0.269710 0.000000
0.833706 0.179771 0.000000
1.072165 0.000000 0.000000
0.000000 0.459206 0.000000
0.000000 0.457277 0.000000
0.000000 0.451499 0.000000
0.254128 0.441884 0.000000
0.440242 0.428363 0.000000
0.608292 0.391481 0.000000
0.810371 0.329071 0.000000
1.057392 0.199540 0.000000
0.000000 0.564790 0.000000
0.000000 0.563481 0.000000
0.000000 0.559555 0.000000
0.000000 0.553021 0.000000
0.319774 0.543846 0.000000
0.542337 0.527614 0.000000
0.768949 0.476823 0.000000
1.031312 0.391204 0.000000
0.000000 0.708469 0.000000
0.000000 0.707619 0.000000
0.000000 0.705071 0.000000
0.000000 0.700828 0.000000
0.000000 0.694869 0.000000
0.371843 0.684341 0.000000
0.681115 0.662673 0.000000
0.977507 0.595427 0.000000
0.000000 0.897353 0.000000
0.000000 0.896816 0.000000
0.000000 0.895205 0.000000
0.000000 0.892522 0.000000
0.000000 0.888752 0.000000
0.000000 0.882091 0.000000
0.451301 0.868400 0.000000
0.863440 0.840227 0.000000
0.000000 0.000000 0.284952
0.151401 0.000000 0.282511
0.330426 0.000000 0.275855
0.453113 0.000000 0.250203
0.560686 0.000000 0.231110
0.688818 0.000000 0.210366
0.862534 0.000000 0.182609
1.090414 0.000000 0.140458
0.000000 0.131857 0.277196
0.106308 0.121882 0.275042
0.311073 0.087755 0.269080
0.441927 0.000000 0.245647
0.553103 0.000000 0.227379
0.683668 0.000000 0.207089
0.859191 0.000000 0.179523
1.088301 0.000000 0.137104
0.000000 0.270580 0.257373
0.000000 0.265701 0.255733
0.251063 0.251063 0.251063
0.408401 0.215414 0.232407
0.530440 0.173308 0.216196
0.668266 0.090673 0.197098
0.849183 0.000000 0.169997
1.081970 0.000000 0.126565
0.000000 0.370230 0.219978
0.000000 0.367393 0.218967
0.109906 0.358896 0.215982
0.350612 0.344732 0.211141
0.492510 0.314115 0.197363
0.642659 0.269074 0.179771
0.832552 0.179010 0.153062
1.071437 0.000000 0.106986
0.000000 0.458600 0.183035
0.000000 0.456675 0.182195
0.000000 0.450906 0.179681
0.248735 0.441304 0.175504
0.437342 0.427799 0.169646
0.606460 0.391007 0.153312
0.809210 0.328641 0.126129
1.056663 0.198965 0.072493
0.000000 0.564379 0.122835
0.000000 0.563070 0.121909
0.000000 0.559148 0.119106
0.000000 0.552620 0.114342
0.316159 0.543452 0.107421
0.540373 0.527230 0.094391
0.767767 0.476507 0.058826
1.030580 0.390911 0.000000
0.000000 0.708201 0.000000
0.000000 0.707352 0.000000
0.000000 0.704805 0.000000
0.000000 0.700564 0.000000
0.000000 0.694608 0.000000
0.369244 0.684084 0.000000
0.679842 0.662424 0.000000
0.976762 0.595224 0.000000
0.000000 0.897184 0.000000
0.000000 0.896647 0.000000
0.000000 0.895037 0.000000
0.000000 0.892354 0.000000
0.000000 0.888585 0.000000
0.000000 0.881926 0.000000
0.449545 0.868238 0.000000
0.862636 0.840070 0.000000
0.000000 0.000000 0.387463
0.113958 0.000000 0.386031
0.297881 0.000000 0.381923
0.446650 0.000000 0.375623
0.556316 0.000000 0.351971
0.685855 0.000000 0.327764
0.860613 0.000000 0.298724
1.089200 0.000000 0.262428
0.000000 0.116948 0.382850
0.061431 0.107824 0.381500
0.281093 0.075701 0.377616
0.435450 0.000000 0.371623
0.548732 0.000000 0.349030
0.680705 0.000000 0.325437
0.857270 0.000000 0.296771
1.087088 0.000000 0.260641
0.000000 0.252905 0.370139
0.000000 0.248698 0.368980
0.225744 0.235862 0.365619
0.401775 0.213511 0.360354
0.526041 0.171449 0.340434
0.665298 0.087881 0.318498
0.847262 0.000000 0.290883
1.080756 0.000000 0.255221
0.000000 0.368757 0.351567
0.000000 0.365933 0.350611
0.083198 0.357471 0.347813
0.343356 0.343355 0.343355
0.487988 0.312954 0.326705
0.639667 0.268014 0.307037
0.830627 0.177735 0.280962
1.070224 0.000000 0.245974
0.000000 0.457596 0.318441
0.000000 0.455676 0.317780
0.000000 0.449921 0.315821
0.239472 0.440342 0.312620
0.432473 0.426862 0.308245
0.603400 0.390218 0.291011
0.807275 0.327924 0.266719
1.055448 0.198003 0.232459
0.000000 0.563695 0.276700
0.000000 0.562388 0.276187
0.000000 0.558472 0.274652
0.000000 0.551954 0.272109
0.310037 0.542797 0.268562
0.537085 0.526593 0.262359
0.765793 0.475980 0.240354
1.029359 0.390423 0.206701
0.000000 0.707757 0.205308
0.000000 0.706908 0.204814
0.000000 0.704363 0.203328
0.000000 0.700126 0.200841
0.000000 0.694174 0.197320
0.364866 0.683657 0.191009
0.677716 0.662010 0.177631
0.975519 0.594885 0.141025
0.000000 0.896903 0.000000
0.000000 0.896366 0.000000
0.000000 0.894756 0.000000
0.000000 0.892075 0.000000
0.000000 0.888307 0.000000
0.000000 0.881650 0.000000
0.446602 0.867967 0.000000
0.861295 0.839808 0.000000
0.000000 0.000000 0.478761
0.064226 0.000000 0.477785
0.268774 0.000000 0.474934
0.417551 0.000000 0.470413
0.550160 0.000000 0.464478
0.681685 0.000000 0.436099
0.857910 0.000000 0.403397
1.087494 0.000000 0.365671
0.000000 0.104686 0.475603
0.000000 0.095864 0.474661
0.252768 0.064131 0.471903
0.407582 0.000000 0.467519
0.542570 0.000000 0.461747
0.676534 0.000000 0.434098
0.854568 0.000000 0.401853
1.085381 0.000000 0.364375
0.000000 0.238161 0.466604
0.000000 0.234321 0.465746
0.198012 0.222512 0.463227
0.376890 0.201657 0.459201
0.519829 0.168821 0.453859
0.661119 0.083840 0.428187
0.844559 0.000000 0.397235
1.079050 0.000000 0.360475
0.000000 0.352905 0.452867
0.000000 0.350373 0.452115
0.024109 0.342739 0.449898
0.321608 0.329862 0.446329
0.481585 0.311327 0.441546
0.635450 0.266522 0.418603
0.827919 0.175931 0.389575
1.068517 0.000000 0.353929
0.000000 0.456195 0.435458
0.000000 0.454282 0.434809
0.000000 0.448548 0.432888
0.225792 0.438998 0.429771
0.425552 0.425552 0.425552
0.599081 0.389112 0.405583
0.804549 0.326915 0.378856
1.053739 0.196644 0.344620
0.000000 0.562737 0.395731
0.000000 0.561434 0.395283
0.000000 0.557526 0.393946
0.000000 0.551020 0.391743
0.301206 0.541880 0.388699
0.532435 0.525699 0.383450
0.763014 0.475239 0.359927
1.027642 0.389736 0.327791
0.000000 0.707133 0.338442
0.000000 0.706285 0.338100
0.000000 0.703744 0.337077
0.000000 0.699511 0.335377
0.000000 0.693565 0.332997
0.358611 0.683059 0.328811
0.674718 0.661428 0.320277
0.973769 0.594409 0.291160
0.000000 0.896508 0.238962
0.000000 0.895971 0.238614
0.000000 0.894363 0.237568
0.000000 0.891683 0.235817
0.000000 0.887917 0.233342
0.000000 0.881264 0.228923
0.442426 0.867588 0.219645
0.859406 0.839440 0.199601
0.000000 0.000000 0.588250
0.000000 0.000000 0.587586
0.230558 0.000000 0.585624
0.383001 0.000000 0.582446
0.515261 0.000000 0.578161
0.674296 0.000000 0.571037
0.853127 0.000000 0.532795
1.084474 0.000000 0.490683
0.000000 0.089957 0.586094
0.000000 0.081080 0.585443
0.214106 0.047991 0.583518
0.373743 0.000000 0.580399
0.508521 0.000000 0.576187
0.669142 0.000000 0.569176
0.849784 0.000000 0.531477
1.082361 0.000000 0.489669
0.000000 0.221949 0.579818
0.000000 0.218373 0.579203
0.154714 0.207320 0.577380
0.344755 0.187600 0.574420
0.488039 0.156075 0.570413
0.653705 0.076313 0.563714
0.839773 0.000000 0.527554
1.076030 0.000000 0.486633
0.000000 0.334684 0.569917
0.000000 0.332389 0.569351
0.000000 0.325442 0.567672
0.290837 0.313628 0.564939
0.452748 0.296440 0.561222
0.627958 0.263882 0.554971
0.823121 0.172702 0.521112
1.065496 0.000000 0.481580
0.000000 0.437183 0.556957
0.000000 0.435468 0.556446
0.000000 0.430309 0.554928
0.191505 0.421659 0.552448
0.399483 0.409370 0.549059
0.591394 0.387162 0.543322
0.799720 0.325129 0.512235
1.050714 0.194219 0.474489
0.000000 0.561056 0.536064
0.000000 0.559757 0.535623
0.000000 0.555863 0.534310
0.000000 0.549379 0.532154
0.284875 0.540266 0.529191
0.524127 0.524127 0.524126
0.758083 0.473932 0.496956
1.024603 0.388520 0.461964
0.000000 0.706034 0.481945
0.000000 0.705188 0.481652
0.000000 0.702651 0.480774
0.000000 0.698426 0.479319
0.000000 0.692492 0.477292
0.347244 0.682003 0.473756
0.669387 0.660403 0.466660
0.970671 0.593567 0.436090
0.000000 0.895810 0.404964
0.000000 0.895275 0.404737
0.000000 0.893668 0.404060
0.000000 0.890990 0.402931
0.000000 0.887229 0.401346
0.000000 0.880581 0.398550
0.434928 0.866917 0.392818
0.856058 0.838790 0.381087
0.000000 0.000000 0.737284
0.000000 0.000000 0.736853
0.161773 0.000000 0.735568
0.333193 0.000000 0.733461
0.468167 0.000000 0.730565
0.626853 0.000000 0.725622
0.843265 0.000000 0.716083
1.078255 0.000000 0.666090
0.000000 0.067131 0.735880
0.000000 0.057238 0.735453
0.140539 0.019602 0.734182
0.324027 0.000000 0.732096
0.461955 0.000000 0.729228
0.622336 0.000000 0.724331
0.839921 0.000000 0.714872
1.076143 0.000000 0.665250
0.000000 0.201584 0.731737
0.000000 0.198190 0.731323
0.037634 0.187647 0.730089
0.294792 0.168651 0.728064
0.442877 0.137727 0.725277
0.608685 0.053930 0.720511
0.829900 0.000000 0.711283
1.069811 0.000000 0.662738
0.000000 0.311918 0.725042
0.000000 0.309819 0.724648
0.000000 0.303442 0.723471
0.237873 0.292535 0.721537
0.409328 0.276531 0.718873
0.585536 0.245819 0.714307
0.813216 0.165900 0.705435
1.059273 0.000000 0.658583
0.000000 0.412484 0.716026
0.000000 0.410946 0.715654
0.000000 0.406310 0.714548
0.115635 0.398498 0.712728
0.357134 0.387317 0.710215
0.551940 0.366893 0.705898
0.789738 0.321448 0.697471
1.044481 0.189141 0.652805
0.000000 0.535219 0.701026
0.000000 0.534069 0.700690
0.000000 0.530615 0.699685
0.000000 0.524838 0.698029
0.237272 0.516670 0.695738
0.488278 0.502071 0.691786
0.747874 0.471252 0.684018
1.018337 0.386012 0.642748
0.000000 0.703789 0.673007
0.000000 0.702946 0.672721
0.000000 0.700420 0.671865
0.000000 0.696211 0.670450
0.000000 0.690297 0.668485
0.322452 0.679844 0.665075
0.658303 0.658303 0.658303
0.964277 0.591838 0.622590
0.000000 0.894381 0.601798
0.000000 0.893846 0.601611
0.000000 0.892242 0.601052
0.000000 0.889571 0.600123
0.000000 0.885817 0.598823
0.000000 0.879182 0.596539
0.419017 0.865542 0.591903
0.849132 0.837456 0.582600
0.000000 0.000000 0.933241
0.000000 0.000000 0.932968
0.000000 0.000000 0.932152
0.250701 0.000000 0.930804
0.401491 0.000000 0.928930
0.564711 0.000000 0.925679
0.780928 0.000000 0.919221
1.065434 0.000000 0.906796
0.000000 0.022404 0.932352
0.000000 0.010888 0.932080
0.000000 0.000000 0.931269
0.239849 0.000000 0.929928
0.395268 0.000000 0.928064
0.560535 0.000000 0.924829
0.778020 0.000000 0.918402
1.063321 0.000000 0.906030
0.000000 0.175378 0.929708
0.000000 0.172014 0.929440
0.000000 0.161499 0.928642
0.203548 0.142266 0.927321
0.375939 0.109894 0.925485
0.547834 0.008750 0.922297
0.769259 0.000000 0.915960
1.056984 0.000000 0.903745
0.000000 0.284694 0.925372
0.000000 0.282724 0.925111
0.000000 0.276728 0.924332
0.119358 0.266425 0.923044
0.341105 0.251201 0.921253
0.526035 0.221624 0.918141
0.754530 0.141844 0.911947
1.046434 0.000000 0.899983
0.000000 0.382938 0.919418
0.000000 0.381534 0.919166
0.000000 0.377294 0.918413
0.000000 0.370124 0.917167
0.284269 0.359812 0.915435
0.493830 0.340827 0.912422
0.733520 0.297958 0.906416
1.031613 0.178283 0.894783
0.000000 0.503099 0.909255
0.000000 0.502073 0.909017
0.000000 0.498985 0.908305
0.000000 0.493805 0.907127
0.126186 0.486450 0.905487
0.430955 0.473217 0.902632
0.695320 0.444948 0.896926
1.005387 0.380833 0.885826
0.000000 0.669854 0.889594
0.000000 0.669114 0.889379
0.000000 0.666891 0.888737
0.000000 0.663179 0.887674
0.000000 0.657946 0.886190
0.251587 0.648643 0.883602
0.610885 0.629286 0.878408
0.951038 0.588291 0.868227
0.000000 0.891461 0.853066
0.000000 0.890929 0.852885
0.000000 0.889332 0.852343
0.000000 0.886671 0.851443
0.000000 0.882932 0.850186
0.000000 0.876323 0.847984
0.383880 0.862730 0.843539
0.834726 0.834726 0.834726
