assets/configs/ColorAnd3dLutPreset/lutDefault/60_SLog_709_Style/Data/SLog 709 Style.CUBE
#Created by: Adobe Photoshop Export Color Lookup Plugin
#Copyright: (C) Copyright 2024 Wondershare Andy Zhang
TITLE "SLog 709 Style"
#LUT size
LUT_3D_SIZE 4
#data domain
#LUT data points
DOMAIN_MIN 0.000000 0.000000 0.000000
DOMAIN_MAX 0.818182 0.818182 0.818182
0.000000 0.000000 0.000000
0.470032 0.000000 0.015076
0.915741 0.000000 0.170654
1.000000 0.000000 0.535156
0.000000 0.319183 0.016663
0.258575 0.305206 0.002441
0.897095 0.211914 0.055023
1.000000 0.000000 0.516357
0.000000 0.774689 0.039612
0.000000 0.773773 0.039581
0.642090 0.754730 0.004425
0.999878 0.695129 0.265137
0.000000 1.000000 0.053009
0.000000 1.000000 0.053009
0.000000 1.000000 0.053009
0.882629 0.989777 0.008942
0.004883 0.000000 0.337708
0.473541 0.000000 0.343506
0.913727 0.000000 0.428986
1.000000 0.000000 0.625000
0.000000 0.311371 0.274078
0.295074 0.296051 0.296234
0.894043 0.140686 0.382751
1.000000 0.000000 0.612885
0.000000 0.777740 0.039795
0.000000 0.776764 0.039764
0.643402 0.755524 0.004547
1.000000 0.676056 0.459290
0.000000 1.000000 0.053009
0.000000 1.000000 0.053009
0.000000 1.000000 0.053009
0.882751 0.989777 0.008942
0.010986 0.000000 0.765320
0.538757 0.000000 0.768433
0.906708 0.000000 0.754700
1.000000 0.000000 0.802124
0.000000 0.164429 0.752808
0.287964 0.136078 0.756653
0.896820 0.005249 0.757172
1.000000 0.000000 0.796600
0.000000 0.730164 0.688416
0.000000 0.728607 0.690765
0.711029 0.710541 0.713074
1.000000 0.631897 0.772675
0.000000 0.999634 0.102264
0.000000 0.999603 0.109497
0.000000 0.999390 0.131531
0.920258 0.990570 0.442688
0.357941 0.240570 0.984924
0.612610 0.218201 0.985657
0.890259 0.146851 0.987427
1.000000 0.002869 0.982727
0.102386 0.443268 0.982025
0.467163 0.397400 0.982849
0.876312 0.360687 0.985931
1.000000 0.200531 0.981079
0.000000 0.802673 0.971588
0.000000 0.801605 0.971771
0.720337 0.683197 0.974884
1.000000 0.642853 0.971283
0.000000 0.961975 0.937256
0.000000 0.961853 0.937378
0.000000 0.961426 0.937897
0.953125 0.947845 0.955322
