assets/configs/ColorAnd3dLutPreset/lutDefault/60_SLog_709_Style/Data/SLog 709 Style.CUBE
#Created by: Adobe Photoshop Export Color Lookup Plugin
#Copyright: (C) Copyright 2024 Wondershare Andy Zhang
TITLE "SLog 709 Style"
#LUT size
LUT_3D_SIZE 12
#data domain
DOMAIN_MIN 0.0 0.0 0.0
DOMAIN_MAX 1.0 1.0 1.0
#LUT data points
0.000000 0.000000 0.000000
0.115723 0.000000 0.001007
0.281830 0.000000 0.004852
0.470032 0.000000 0.015076
0.642426 0.000000 0.047211
0.793762 0.000000 0.096771
0.915741 0.000000 0.170654
0.993042 0.000000 0.269775
1.000000 0.000000 0.400360
1.000000 0.000000 0.535156
1.000000 0.000000 0.662628
1.000000 0.000000 0.758881
0.000000 0.048370 0.002594
0.038086 0.044434 0.000458
0.237061 0.031525 0.000214
0.445831 0.003937 0.008087
0.630432 0.000000 0.031769
0.788147 0.000000 0.083618
0.913452 0.000000 0.158264
0.992737 0.000000 0.259338
1.000000 0.000000 0.393585
1.000000 0.000000 0.531403
1.000000 0.000000 0.660858
1.000000 0.000000 0.757965
0.000000 0.168762 0.008881
0.000000 0.166840 0.008789
0.134460 0.160065 0.001801
0.402771 0.143494 0.000000
0.609436 0.106995 0.004547
0.777893 0.030426 0.045013
0.908875 0.000031 0.135712
0.992188 0.000000 0.245117
1.000000 0.000000 0.383942
1.000000 0.000000 0.526093
1.000000 0.000000 0.658356
1.000000 0.000000 0.756683
0.000000 0.319183 0.016663
0.000000 0.317810 0.016571
0.000061 0.315704 0.016418
0.258575 0.305206 0.002441
0.561310 0.290558 0.000031
0.753723 0.263580 0.000000
0.897095 0.211914 0.055023
0.989838 0.081238 0.200195
1.000000 0.000031 0.362244
1.000000 0.000000 0.516357
1.000000 0.000000 0.653900
1.000000 0.000000 0.754395
0.000000 0.483978 0.024994
0.000000 0.483246 0.024963
0.000000 0.482178 0.024902
0.001343 0.479645 0.022339
0.396271 0.466797 0.003204
0.697784 0.462921 0.002686
0.870605 0.433777 0.000000
0.981995 0.392975 0.077118
1.000000 0.290527 0.281433
1.000000 0.068512 0.488586
1.000000 0.000031 0.644531
1.000000 0.000000 0.750397
0.000000 0.637146 0.032684
0.000000 0.636749 0.032654
0.000000 0.636200 0.032623
0.000000 0.635193 0.032562
0.017456 0.632141 0.018311
0.523132 0.617920 0.003723
0.802155 0.645386 0.015259
0.960419 0.591278 0.000336
1.000000 0.552765 0.141052
1.000000 0.463318 0.404449
1.000000 0.266266 0.606598
1.000000 0.000061 0.741913
0.000000 0.774689 0.039612
0.000000 0.774506 0.039612
0.000000 0.774231 0.039581
0.000000 0.773773 0.039581
0.000031 0.772949 0.039520
0.131989 0.768829 0.000153
0.642090 0.754730 0.004425
0.888672 0.804169 0.026093
0.987946 0.763458 0.011932
0.999878 0.695129 0.265137
1.000000 0.616913 0.535339
1.000000 0.452850 0.723022
0.000000 0.886078 0.045837
0.000000 0.885986 0.045837
0.000000 0.885834 0.045837
0.000000 0.885620 0.045776
0.000000 0.885284 0.045746
0.000092 0.884583 0.045715
0.397797 0.879730 0.000000
0.747833 0.865417 0.005920
0.947571 0.918518 0.029419
0.970215 0.910797 0.030426
0.997406 0.818481 0.408081
1.000000 0.748505 0.666107
0.000000 0.970367 0.050964
0.000000 0.970337 0.050964
0.000000 0.970276 0.050964
0.000000 0.970215 0.050964
0.000000 0.970062 0.050934
0.000000 0.969818 0.050934
0.000000 0.969391 0.050903
0.524323 0.964691 0.000000
0.831970 0.952393 0.006439
0.941620 0.974152 0.024567
0.952393 0.974640 0.026184
0.991943 0.923981 0.542145
0.000000 1.000000 0.053009
0.000000 1.000000 0.053009
0.000000 1.000000 0.053009
0.000000 1.000000 0.053009
0.000000 1.000000 0.053009
0.000000 1.000000 0.053009
0.000000 1.000000 0.053009
0.000000 1.000000 0.053009
0.655609 0.999512 0.000000
0.882629 0.989777 0.008942
0.908813 0.984833 0.015839
0.923615 0.985474 0.114777
0.000000 1.000000 0.053009
0.000000 1.000000 0.053009
0.000000 1.000000 0.053009
0.000000 1.000000 0.053009
0.000000 1.000000 0.053009
0.000000 1.000000 0.053009
0.000000 1.000000 0.053009
0.000000 1.000000 0.053009
0.000000 1.000000 0.053009
0.778381 0.999756 0.000275
0.904999 0.985901 0.014740
0.906799 0.985382 0.015320
0.000000 1.000000 0.053009
0.000000 1.000000 0.053009
0.000000 1.000000 0.053009
0.000000 1.000000 0.053009
0.000000 1.000000 0.053009
0.000000 1.000000 0.053009
0.000000 1.000000 0.053009
0.000000 1.000000 0.053009
0.000000 1.000000 0.053009
0.000000 1.000000 0.053009
0.858978 0.996368 0.003845
0.906799 0.985382 0.015320
0.000854 0.000000 0.056671
0.119965 0.000000 0.063873
0.285126 0.000000 0.076965
0.471863 0.000000 0.099426
0.643127 0.000000 0.131744
0.793823 0.000000 0.176086
0.915497 0.000000 0.238037
0.992889 0.000000 0.327728
1.000000 0.000000 0.438477
1.000000 0.000000 0.557373
1.000000 0.000000 0.673370
1.000000 0.000000 0.764557
0.000000 0.048065 0.035370
0.041718 0.042603 0.042572
0.241058 0.022736 0.051208
0.447693 0.000885 0.078613
0.631042 0.000000 0.115051
0.788177 0.000000 0.163116
0.913147 0.000000 0.227081
0.992615 0.000000 0.318939
1.000000 0.000000 0.432709
1.000000 0.000000 0.553955
1.000000 0.000000 0.671722
1.000000 0.000000 0.763641
0.000000 0.173065 0.010864
0.000000 0.170807 0.012024
0.139526 0.164886 0.012512
0.405243 0.143951 0.028412
0.610565 0.098419 0.066620
0.777771 0.022858 0.135376
0.908508 0.000031 0.208344
0.992004 0.000000 0.305328
1.000000 0.000000 0.424561
1.000000 0.000000 0.549164
1.000000 0.000000 0.669373
1.000000 0.000000 0.762421
0.000000 0.323761 0.016846
0.000000 0.322418 0.016785
0.000092 0.320099 0.016571
0.261566 0.309662 0.002350
0.562164 0.293976 0.001709
0.753906 0.262909 0.047119
0.896912 0.199371 0.141144
0.989594 0.066437 0.269775
1.000000 0.000031 0.406219
1.000000 0.000000 0.540344
1.000000 0.000000 0.665222
1.000000 0.000000 0.760223
0.000000 0.486603 0.025146
0.000000 0.485840 0.025085
0.000000 0.484772 0.025055
0.002136 0.482269 0.022247
0.397827 0.469727 0.003082
0.697968 0.465668 0.002808
0.870361 0.433838 0.008728
0.981781 0.384857 0.168488
1.000000 0.281799 0.338898
1.000000 0.059692 0.515076
1.000000 0.000031 0.656799
1.000000 0.000000 0.756256
0.000000 0.638519 0.032745
0.000000 0.638092 0.032715
0.000000 0.637573 0.032684
0.000000 0.636627 0.032654
0.018005 0.633514 0.017487
0.524017 0.619415 0.003632
0.801971 0.647430 0.015533
0.960114 0.590546 0.000366
1.000000 0.545502 0.227051
1.000000 0.458252 0.438965
1.000000 0.260529 0.622284
1.000000 0.000061 0.747437
0.000000 0.775391 0.039642
0.000000 0.775177 0.039642
0.000000 0.774902 0.039642
0.000000 0.774445 0.039612
0.000031 0.773621 0.039551
0.138672 0.769470 0.000000
0.642548 0.755493 0.004395
0.888672 0.804993 0.026154
0.988190 0.761566 0.011597
1.000000 0.689819 0.321136
1.000000 0.614838 0.555420
1.000000 0.451080 0.731445
0.000000 0.886383 0.045868
0.000000 0.886292 0.045837
0.000000 0.886169 0.045837
0.000000 0.885956 0.045837
0.000000 0.885559 0.045776
0.000092 0.884888 0.045746
0.399475 0.880035 0.000000
0.748077 0.865753 0.005920
0.947571 0.918793 0.029419
0.970337 0.909210 0.031189
0.998291 0.813995 0.439178
1.000000 0.747375 0.677063
0.000000 0.970459 0.050964
0.000000 0.970459 0.050964
0.000000 0.970398 0.050964
0.000000 0.970337 0.050964
0.000000 0.970184 0.050934
0.000000 0.969940 0.050934
0.000000 0.969482 0.050903
0.524963 0.964783 0.000000
0.832062 0.952545 0.006439
0.941498 0.974182 0.024567
0.956299 0.975006 0.049316
0.993103 0.920258 0.558502
0.000000 1.000000 0.053009
0.000000 1.000000 0.053009
0.000000 1.000000 0.053009
0.000000 1.000000 0.053009
0.000000 1.000000 0.053009
0.000000 1.000000 0.053009
0.000000 1.000000 0.053009
0.000000 1.000000 0.053009
0.656006 0.999512 0.000000
0.882660 0.989777 0.008942
0.908813 0.984833 0.015839
0.931000 0.986389 0.179016
0.000000 1.000000 0.053009
0.000000 1.000000 0.053009
0.000000 1.000000 0.053009
0.000000 1.000000 0.053009
0.000000 1.000000 0.053009
0.000000 1.000000 0.053009
0.000000 1.000000 0.053009
0.000000 1.000000 0.053009
0.000000 1.000000 0.053009
0.778534 0.999756 0.000275
0.904999 0.985901 0.014740
0.906799 0.985382 0.015320
0.000000 1.000000 0.053009
0.000000 1.000000 0.053009
0.000000 1.000000 0.053009
0.000000 1.000000 0.053009
0.000000 1.000000 0.053009
0.000000 1.000000 0.053009
0.000000 1.000000 0.053009
0.000000 1.000000 0.053009
0.000000 1.000000 0.053009
0.000000 1.000000 0.053009
0.859039 0.996338 0.003845
0.906799 0.985382 0.015320
0.002716 0.000000 0.183716
0.131042 0.000000 0.188782
0.287201 0.000000 0.193115
0.473175 0.000000 0.210632
0.643341 0.000000 0.233978
0.793488 0.000000 0.268555
0.914917 0.000000 0.321106
0.992645 0.000000 0.393311
1.000000 0.000000 0.482422
1.000000 0.000000 0.584686
1.000000 0.000000 0.686249
1.000000 0.000000 0.771851
0.001251 0.011017 0.168335
0.032379 0.007904 0.173859
0.242706 0.001404 0.176208
0.448883 0.000061 0.197449
0.631165 0.000000 0.220612
0.787720 0.000000 0.257935
0.912537 0.000000 0.312164
0.992371 0.000000 0.386322
1.000000 0.000000 0.477661
1.000000 0.000000 0.581635
1.000000 0.000000 0.684845
1.000000 0.000000 0.771027
0.000000 0.165100 0.139618
0.000000 0.161865 0.144775
0.154144 0.154755 0.154816
0.407867 0.121979 0.164612
0.610535 0.071411 0.194305
0.777191 0.008789 0.238159
0.907745 0.000000 0.296448
0.991699 0.000000 0.375519
1.000000 0.000000 0.471069
1.000000 0.000000 0.577423
1.000000 0.000000 0.682922
1.000000 0.000000 0.769867
0.000000 0.324066 0.062927
0.000000 0.322266 0.071014
0.000031 0.319580 0.081818
0.275940 0.311981 0.093994
0.563599 0.287079 0.127441
0.754150 0.247864 0.172577
0.896118 0.180267 0.245178
0.989258 0.051208 0.347992
1.000000 0.000031 0.455597
1.000000 0.000000 0.569580
1.000000 0.000000 0.679443
1.000000 0.000000 0.767792
0.000000 0.488831 0.025238
0.000000 0.487915 0.025208
0.000000 0.486664 0.025146
0.002686 0.483765 0.022278
0.399292 0.470215 0.006348
0.699646 0.460175 0.046783
0.870056 0.426392 0.150970
0.981476 0.370087 0.263550
1.000000 0.270752 0.402313
1.000000 0.047974 0.547089
1.000000 0.000031 0.671753
1.000000 0.000000 0.764099
0.000000 0.640381 0.032837
0.000000 0.639984 0.032806
0.000000 0.639435 0.032776
0.000000 0.638458 0.032745
0.018860 0.635223 0.016663
0.524963 0.620789 0.003632
0.801819 0.646881 0.015503
0.959717 0.584930 0.111816
1.000000 0.535736 0.310272
1.000000 0.451569 0.479645
1.000000 0.254486 0.642059
1.000000 0.000061 0.755157
0.000000 0.776276 0.039703
0.000000 0.776093 0.039703
0.000000 0.775818 0.039673
0.000000 0.775360 0.039642
0.000031 0.774536 0.039612
0.148102 0.770386 0.000000
0.643188 0.756439 0.004333
0.888611 0.805420 0.026184
0.993652 0.744293 0.086639
1.000000 0.684204 0.380798
1.000000 0.612030 0.580597
1.000000 0.448944 0.742401
0.000000 0.886810 0.045868
0.000000 0.886719 0.045868
0.000000 0.886597 0.045868
0.000000 0.886383 0.045868
0.000000 0.885986 0.045837
0.000092 0.885345 0.045776
0.401733 0.880432 0.000000
0.748383 0.866211 0.005890
0.947571 0.919159 0.029419
0.974976 0.898224 0.114960
0.999146 0.808838 0.476105
1.000000 0.745880 0.691101
0.000000 0.970642 0.050964
0.000000 0.970612 0.050964
0.000000 0.970551 0.050964
0.000000 0.970459 0.050964
0.000000 0.970337 0.050964
0.000000 0.970062 0.050934
0.000000 0.969635 0.050903
0.525848 0.964935 0.000000
0.832184 0.952698 0.006409
0.941345 0.974213 0.024536
0.965363 0.972717 0.160767
0.994629 0.915283 0.579834
0.000000 1.000000 0.053009
0.000000 1.000000 0.053009
0.000000 1.000000 0.053009
0.000000 1.000000 0.053009
0.000000 1.000000 0.053009
0.000000 1.000000 0.053009
0.000000 1.000000 0.053009
0.000000 1.000000 0.053009
0.656525 0.999512 0.000000
0.882690 0.989777 0.008942
0.908813 0.984833 0.015839
0.938599 0.987305 0.246185
0.000000 1.000000 0.053009
0.000000 1.000000 0.053009
0.000000 1.000000 0.053009
0.000000 1.000000 0.053009
0.000000 1.000000 0.053009
0.000000 1.000000 0.053009
0.000000 1.000000 0.053009
0.000000 1.000000 0.053009
0.000000 1.000000 0.053009
0.778778 0.999756 0.000275
0.905029 0.985870 0.014771
0.906799 0.985382 0.015320
0.000000 1.000000 0.053009
0.000000 1.000000 0.053009
0.000000 1.000000 0.053009
0.000000 1.000000 0.053009
0.000000 1.000000 0.053009
0.000000 1.000000 0.053009
0.000000 1.000000 0.053009
0.000000 1.000000 0.053009
0.000000 1.000000 0.053009
0.000000 1.000000 0.053009
0.859100 0.996338 0.003845
0.906799 0.985382 0.015320
0.004883 0.000000 0.337708
0.112579 0.000000 0.341156
0.289398 0.000000 0.345886
0.473541 0.000000 0.343506
0.642700 0.000000 0.370789
0.792389 0.000000 0.394287
0.913727 0.000000 0.428986
0.992279 0.000000 0.478271
1.000000 0.000000 0.543762
1.000000 0.000000 0.625000
1.000000 0.000000 0.705475
1.000000 0.000000 0.784424
0.004761 0.000000 0.327728
0.012573 0.000000 0.331177
0.253693 0.000000 0.336273
0.448669 0.000000 0.333649
0.630127 0.000000 0.362213
0.786377 0.000000 0.386566
0.911224 0.000000 0.422729
0.991974 0.000000 0.473419
1.000000 0.000000 0.540100
1.000000 0.000000 0.622620
1.000000 0.000000 0.704315
1.000000 0.000000 0.783569
0.000000 0.125305 0.310944
0.000000 0.115875 0.314606
0.136780 0.086823 0.321869
0.420746 0.042236 0.328247
0.609009 0.012634 0.347626
0.775482 0.000183 0.373779
0.906128 0.000000 0.412048
0.991180 0.000000 0.465576
1.000000 0.000000 0.535004
1.000000 0.000000 0.619293
1.000000 0.000000 0.702698
1.000000 0.000000 0.782379
0.000000 0.311371 0.274078
0.000000 0.309174 0.277649
0.000000 0.305817 0.282440
0.295074 0.296051 0.296234
0.563507 0.262665 0.307220
0.752563 0.217407 0.334991
0.894043 0.140686 0.382751
0.988647 0.012085 0.447235
1.000000 0.000031 0.522766
1.000000 0.000000 0.612885
1.000000 0.000000 0.699677
1.000000 0.000000 0.780365
0.000000 0.483307 0.189911
0.000000 0.482208 0.195862
0.000000 0.480530 0.203644
0.002441 0.478973 0.217468
0.426788 0.469421 0.227264
0.701691 0.441986 0.266144
0.868896 0.405548 0.314911
0.980713 0.348724 0.385681
1.000000 0.250610 0.483002
1.000000 0.030396 0.593994
1.000000 0.000031 0.693451
1.000000 0.000000 0.776825
0.000000 0.639526 0.040161
0.000000 0.638947 0.040985
0.000000 0.638092 0.044159
0.000000 0.636536 0.050751
0.018555 0.637390 0.055115
0.537842 0.618835 0.102203
0.818268 0.606049 0.199249
0.958496 0.569336 0.299194
1.000000 0.521637 0.411896
1.000000 0.442169 0.537750
1.000000 0.238312 0.672760
1.000000 0.000061 0.768372
0.000000 0.777740 0.039795
0.000000 0.777527 0.039764
0.000000 0.777252 0.039764
0.000000 0.776764 0.039764
0.000031 0.775787 0.039703
0.162323 0.771057 0.000031
0.643402 0.755524 0.004547
0.892181 0.793579 0.076508
0.999023 0.717957 0.283447
1.000000 0.676056 0.459290
1.000000 0.607269 0.618927
1.000000 0.445801 0.760345
0.000000 0.887573 0.045959
0.000000 0.887482 0.045959
0.000000 0.887329 0.045929
0.000000 0.887115 0.045929
0.000000 0.886749 0.045868
0.000092 0.886078 0.045837
0.405731 0.881134 0.000000
0.748962 0.867035 0.005859
0.947083 0.917877 0.029449
0.987854 0.867096 0.285645
0.999878 0.802246 0.529938
1.000000 0.743347 0.713562
0.000000 0.970917 0.050995
0.000000 0.970886 0.050995
0.000000 0.970856 0.050995
0.000000 0.970764 0.050995
0.000000 0.970612 0.050964
0.000000 0.970367 0.050964
0.000000 0.969940 0.050934
0.527405 0.965210 0.000000
0.832397 0.953003 0.006409
0.941162 0.974243 0.024506
0.974915 0.967529 0.296936
0.996307 0.908661 0.614899
0.000000 1.000000 0.053009
0.000000 1.000000 0.053009
0.000000 1.000000 0.053009
0.000000 1.000000 0.053009
0.000000 1.000000 0.053009
0.000000 1.000000 0.053009
0.000000 1.000000 0.053009
0.000000 1.000000 0.053009
0.657440 0.999512 0.000000
0.882751 0.989777 0.008942
0.908783 0.984863 0.015839
0.948242 0.988342 0.332062
0.000000 1.000000 0.053009
0.000000 1.000000 0.053009
0.000000 1.000000 0.053009
0.000000 1.000000 0.053009
0.000000 1.000000 0.053009
0.000000 1.000000 0.053009
0.000000 1.000000 0.053009
0.000000 1.000000 0.053009
0.000000 1.000000 0.053009
0.779175 0.999756 0.000275
0.905029 0.985870 0.014771
0.906799 0.985382 0.015320
0.000000 1.000000 0.053009
0.000000 1.000000 0.053009
0.000000 1.000000 0.053009
0.000000 1.000000 0.053009
0.000000 1.000000 0.053009
0.000000 1.000000 0.053009
0.000000 1.000000 0.053009
0.000000 1.000000 0.053009
0.000000 1.000000 0.053009
0.000000 1.000000 0.053009
0.859222 0.996338 0.003876
0.906799 0.985382 0.015320
0.007111 0.000000 0.493378
0.083160 0.000000 0.495270
0.323517 0.000000 0.497955
0.473663 0.000000 0.500977
0.641510 0.000000 0.491486
0.790710 0.000000 0.519440
0.912048 0.000000 0.546570
0.991760 0.000000 0.578278
1.000000 0.000000 0.622131
1.000000 0.000000 0.676300
1.000000 0.000000 0.733032
1.000000 0.000000 0.805328
0.007019 0.000000 0.487732
0.007172 0.000000 0.489594
0.264465 0.000000 0.492310
0.447388 0.000000 0.496857
0.628113 0.000000 0.486450
0.784088 0.000000 0.514740
0.909180 0.000000 0.542542
0.991364 0.000000 0.575104
1.000000 0.000000 0.619659
1.000000 0.000000 0.674744
1.000000 0.000000 0.732056
1.000000 0.000000 0.804596
0.002289 0.014069 0.478851
0.002747 0.011261 0.480713
0.117798 0.009552 0.483551
0.405060 0.002014 0.488708
0.605743 0.000000 0.478577
0.772583 0.000000 0.506927
0.903625 0.000000 0.535736
0.990387 0.000000 0.569550
1.000000 0.000000 0.615997
1.000000 0.000000 0.672577
1.000000 0.000000 0.730743
1.000000 0.000000 0.803589
0.000000 0.313843 0.460205
0.000000 0.311371 0.462189
0.000000 0.307098 0.464966
0.276306 0.239624 0.474762
0.572754 0.202576 0.478241
0.748993 0.169708 0.493774
0.890808 0.088684 0.519409
0.987640 0.012726 0.556824
1.000000 0.000031 0.606934
1.000000 0.000000 0.668030
1.000000 0.000000 0.728333
1.000000 0.000000 0.801758
0.000000 0.463470 0.422699
0.000000 0.462219 0.424774
0.000000 0.460510 0.427338
0.002655 0.457733 0.432129
0.443573 0.445465 0.446198
0.698303 0.418121 0.457001
0.865845 0.379639 0.478302
0.978851 0.325134 0.518005
1.000000 0.215332 0.579437
1.000000 0.035583 0.655548
1.000000 0.000031 0.723114
1.000000 0.000000 0.798523
0.000000 0.625397 0.350403
0.000000 0.624695 0.353394
0.000000 0.623718 0.357422
0.000000 0.622070 0.364319
0.017303 0.619385 0.377045
0.568390 0.610565 0.382629
0.817993 0.582275 0.420715
0.956024 0.549316 0.463196
1.000000 0.505951 0.527985
1.000000 0.427765 0.613281
1.000000 0.217499 0.715424
1.000000 0.000061 0.789886
0.000000 0.771149 0.148865
0.000000 0.770752 0.153870
0.000000 0.770203 0.163391
0.000000 0.769165 0.177124
0.000031 0.767365 0.199738
0.141907 0.788666 0.234436
0.675934 0.750610 0.285736
0.913422 0.733734 0.364838
0.998962 0.702087 0.450500
1.000000 0.665436 0.556030
1.000000 0.598083 0.671173
1.000000 0.440094 0.787018
0.000000 0.888336 0.046051
0.000000 0.888214 0.046051
0.000000 0.888031 0.046051
0.000000 0.887726 0.046021
0.000000 0.887085 0.045990
0.000061 0.885895 0.045898
0.410614 0.881775 0.001099
0.753540 0.862640 0.050629
0.957001 0.890228 0.278107
0.997894 0.833527 0.443726
1.000000 0.794891 0.603455
1.000000 0.739105 0.747650
0.000000 0.971405 0.051025
0.000000 0.971344 0.051025
0.000000 0.971313 0.051025
0.000000 0.971222 0.051025
0.000000 0.971069 0.050995
0.000000 0.970856 0.050995
0.000000 0.970428 0.050964
0.530060 0.965698 0.000000
0.832703 0.953400 0.006439
0.948090 0.973572 0.064087
0.984283 0.956848 0.454498
0.997986 0.900635 0.667328
0.000000 1.000000 0.053009
0.000000 1.000000 0.053009
0.000000 1.000000 0.053009
0.000000 1.000000 0.053009
0.000000 1.000000 0.053009
0.000000 1.000000 0.053009
0.000000 1.000000 0.053009
0.000000 1.000000 0.053009
0.659058 0.999512 0.000000
0.882874 0.989807 0.008942
0.908875 0.984802 0.015900
0.963623 0.989807 0.471130
0.000000 1.000000 0.053009
0.000000 1.000000 0.053009
0.000000 1.000000 0.053009
0.000000 1.000000 0.053009
0.000000 1.000000 0.053009
0.000000 1.000000 0.053009
0.000000 1.000000 0.053009
0.000000 1.000000 0.053009
0.000000 1.000000 0.053009
0.779877 0.999756 0.000275
0.905090 0.985870 0.014771
0.906799 0.985382 0.015320
0.000000 1.000000 0.053009
0.000000 1.000000 0.053009
0.000000 1.000000 0.053009
0.000000 1.000000 0.053009
0.000000 1.000000 0.053009
0.000000 1.000000 0.053009
0.000000 1.000000 0.053009
0.000000 1.000000 0.053009
0.000000 1.000000 0.053009
0.000000 1.000000 0.053009
0.859436 0.996307 0.003906
0.906799 0.985382 0.015320
0.009064 0.000000 0.636505
0.064850 0.000000 0.637543
0.330078 0.000000 0.639099
0.493530 0.000000 0.641907
0.641327 0.000000 0.640533
0.788544 0.000000 0.629211
0.909851 0.000000 0.648346
0.991180 0.000000 0.678436
1.000000 0.000000 0.701660
1.000000 0.000000 0.731506
1.000000 0.000000 0.775208
1.000000 0.000000 0.836853
0.009003 0.000000 0.632935
0.009064 0.000000 0.633972
0.252563 0.000000 0.635559
0.477142 0.000000 0.638397
0.627136 0.000000 0.639435
0.781097 0.000000 0.626282
0.906250 0.000000 0.645508
0.990540 0.000000 0.676544
1.000000 0.000000 0.700470
1.000000 0.000000 0.730499
1.000000 0.000000 0.774323
1.000000 0.000000 0.836212
0.008911 0.000000 0.627472
0.008942 0.000000 0.628448
0.094360 0.000000 0.630005
0.445709 0.000000 0.632935
0.603302 0.000000 0.636230
0.768829 0.000000 0.621735
0.900024 0.000000 0.640900
0.989319 0.000000 0.673187
1.000000 0.000000 0.698334
1.000000 0.000000 0.729187
1.000000 0.000000 0.773132
1.000000 0.000000 0.835358
0.000000 0.237640 0.616608
0.000000 0.232697 0.617615
0.000000 0.223389 0.619080
0.273560 0.180817 0.624298
0.554504 0.147125 0.629669
0.770477 0.071198 0.632996
0.906738 0.021790 0.645203
0.986450 0.001068 0.666077
1.000000 0.000000 0.693085
1.000000 0.000000 0.726013
1.000000 0.000000 0.771088
1.000000 0.000000 0.833862
0.000000 0.487091 0.597168
0.000000 0.486023 0.598267
0.000000 0.484497 0.599701
0.002625 0.479889 0.602570
0.427643 0.399811 0.613556
0.705200 0.369812 0.615234
0.861389 0.346619 0.626648
0.975372 0.292450 0.648224
1.000000 0.185272 0.684875
1.000000 0.007355 0.718048
1.000000 0.000031 0.765808
1.000000 0.000000 0.831238
0.000000 0.603729 0.560333
0.000000 0.603088 0.561279
0.000000 0.602203 0.562592
0.000000 0.600647 0.564789
0.025604 0.602692 0.575256
0.582977 0.584442 0.584839
0.813385 0.561523 0.596069
0.952332 0.527466 0.614624
1.000000 0.483887 0.649628
1.000000 0.410156 0.702972
1.000000 0.222260 0.767517
1.000000 0.000061 0.823181
0.000000 0.751923 0.497528
0.000000 0.751556 0.499023
0.000000 0.751068 0.501038
0.000000 0.750153 0.504486
0.000031 0.748535 0.510498
0.131104 0.778595 0.529327
0.698425 0.735779 0.527374
0.911316 0.711517 0.564392
0.998138 0.685669 0.604218
1.000000 0.653137 0.665222
1.000000 0.585175 0.738892
1.000000 0.434601 0.823242
0.000000 0.874756 0.347565
0.000000 0.874512 0.350342
0.000000 0.874176 0.354095
0.000000 0.873627 0.360504
0.000000 0.872589 0.371460
0.000061 0.870911 0.389832
0.363495 0.883759 0.399658
0.793671 0.853821 0.444794
0.970459 0.841034 0.514008
0.999969 0.815216 0.596405
1.000000 0.785645 0.692535
1.000000 0.730316 0.792786
0.000000 0.970947 0.051086
0.000000 0.970856 0.051086
0.000000 0.970764 0.051086
0.000000 0.970520 0.051056
0.000000 0.970123 0.051025
0.000000 0.969360 0.064026
0.000000 0.967926 0.083374
0.543182 0.966309 0.055237
0.856720 0.946198 0.254517
0.979187 0.963562 0.446411
0.991974 0.932739 0.588318
0.999664 0.891754 0.736511
0.000000 1.000000 0.053009
0.000000 1.000000 0.053009
0.000000 1.000000 0.053009
0.000000 1.000000 0.053009
0.000000 1.000000 0.053009
0.000000 1.000000 0.053009
0.000000 1.000000 0.053009
0.000000 1.000000 0.053040
0.661865 0.999542 0.000061
0.882843 0.989655 0.009094
0.937256 0.988007 0.253815
0.980408 0.990112 0.602356
0.000000 1.000000 0.053009
0.000000 1.000000 0.053009
0.000000 1.000000 0.053009
0.000000 1.000000 0.053009
0.000000 1.000000 0.053009
0.000000 1.000000 0.053009
0.000000 1.000000 0.053009
0.000000 1.000000 0.053009
0.000000 1.000000 0.053009
0.781128 0.999756 0.000275
0.905151 0.985840 0.014801
0.906799 0.985382 0.015381
0.000000 1.000000 0.053009
0.000000 1.000000 0.053009
0.000000 1.000000 0.053009
0.000000 1.000000 0.053009
0.000000 1.000000 0.053009
0.000000 1.000000 0.053009
0.000000 1.000000 0.053009
0.000000 1.000000 0.053009
0.000000 1.000000 0.053009
0.000000 1.000000 0.053009
0.859802 0.996246 0.003937
0.906799 0.985382 0.015320
0.010986 0.000000 0.765320
0.090881 0.000000 0.765900
0.342346 0.000000 0.766876
0.538757 0.000000 0.768433
0.641571 0.000000 0.771057
0.786316 0.000000 0.764923
0.906708 0.000000 0.754700
0.990448 0.000000 0.764648
1.000000 0.000000 0.780090
1.000000 0.000000 0.802124
1.000000 0.000000 0.835266
1.000000 0.000000 0.878906
0.010956 0.000000 0.762939
0.014404 0.000000 0.763550
0.263672 0.000000 0.764496
0.513489 0.000000 0.766113
