assets/configs/ColorAnd3dLutPreset/lutDefault/60_SLog_709_Style/Data/SLog 709 Style.CUBE
#Created by: Adobe Photoshop Export Color Lookup Plugin
#Copyright: (C) Copyright 2024 Wondershare Andy Zhang
TITLE "SLog 709 Style"
#LUT size
LUT_3D_SIZE 6
#data domain
#LUT data points
DOMAIN_MIN 0.000000 0.000000 0.000000
DOMAIN_MAX 0.909091 0.909091 0.909091
0.000000 0.000000 0.000000
0.281830 0.000000 0.004852
0.642426 0.000000 0.047211
0.915741 0.000000 0.170654
1.000000 0.000000 0.400360
1.000000 0.000000 0.662628
0.000000 0.168762 0.008881
0.134460 0.160065 0.001801
0.609436 0.106995 0.004547
0.908875 0.000031 0.135712
1.000000 0.000000 0.383942
1.000000 0.000000 0.658356
0.000000 0.483978 0.024994
0.000000 0.482178 0.024902
0.396271 0.466797 0.003204
0.870605 0.433777 0.000000
1.000000 0.290527 0.281433
1.000000 0.000031 0.644531
0.000000 0.774689 0.039612
0.000000 0.774231 0.039581
0.000031 0.772949 0.039520
0.642090 0.754730 0.004425
0.987946 0.763458 0.011932
1.000000 0.616913 0.535339
0.000000 0.970367 0.050964
0.000000 0.970276 0.050964
0.000000 0.970062 0.050934
0.000000 0.969391 0.050903
0.831970 0.952393 0.006439
0.952393 0.974640 0.026184
0.000000 1.000000 0.053009
0.000000 1.000000 0.053009
0.000000 1.000000 0.053009
0.000000 1.000000 0.053009
0.000000 1.000000 0.053009
0.904999 0.985901 0.014740
0.002716 0.000000 0.183716
0.287201 0.000000 0.193115
0.643341 0.000000 0.233978
0.914917 0.000000 0.321106
1.000000 0.000000 0.482422
1.000000 0.000000 0.686249
0.000000 0.165100 0.139618
0.154144 0.154755 0.154816
0.610535 0.071411 0.194305
0.907745 0.000000 0.296448
1.000000 0.000000 0.471069
1.000000 0.000000 0.682922
0.000000 0.488831 0.025238
0.000000 0.486664 0.025146
0.399292 0.470215 0.006348
0.870056 0.426392 0.150970
1.000000 0.270752 0.402313
1.000000 0.000031 0.671753
0.000000 0.776276 0.039703
0.000000 0.775818 0.039673
0.000031 0.774536 0.039612
0.643188 0.756439 0.004333
0.993652 0.744293 0.086639
1.000000 0.612030 0.580597
0.000000 0.970642 0.050964
0.000000 0.970551 0.050964
0.000000 0.970337 0.050964
0.000000 0.969635 0.050903
0.832184 0.952698 0.006409
0.965363 0.972717 0.160767
0.000000 1.000000 0.053009
0.000000 1.000000 0.053009
0.000000 1.000000 0.053009
0.000000 1.000000 0.053009
0.000000 1.000000 0.053009
0.905029 0.985870 0.014771
0.007111 0.000000 0.493378
0.323517 0.000000 0.497955
0.641510 0.000000 0.491486
0.912048 0.000000 0.546570
1.000000 0.000000 0.622131
1.000000 0.000000 0.733032
0.002289 0.014069 0.478851
0.117798 0.009552 0.483551
0.605743 0.000000 0.478577
0.903625 0.000000 0.535736
1.000000 0.000000 0.615997
1.000000 0.000000 0.730743
0.000000 0.463470 0.422699
0.000000 0.460510 0.427338
0.443573 0.445465 0.446198
0.865845 0.379639 0.478302
1.000000 0.215332 0.579437
1.000000 0.000031 0.723114
0.000000 0.771149 0.148865
0.000000 0.770203 0.163391
0.000031 0.767365 0.199738
0.675934 0.750610 0.285736
0.998962 0.702087 0.450500
1.000000 0.598083 0.671173
0.000000 0.971405 0.051025
0.000000 0.971313 0.051025
0.000000 0.971069 0.050995
0.000000 0.970428 0.050964
0.832703 0.953400 0.006439
0.984283 0.956848 0.454498
0.000000 1.000000 0.053009
0.000000 1.000000 0.053009
0.000000 1.000000 0.053009
0.000000 1.000000 0.053009
0.000000 1.000000 0.053009
0.905090 0.985870 0.014771
0.010986 0.000000 0.765320
0.342346 0.000000 0.766876
0.641571 0.000000 0.771057
0.906708 0.000000 0.754700
1.000000 0.000000 0.780090
1.000000 0.000000 0.835266
0.010834 0.000092 0.759399
0.109894 0.000000 0.760834
0.608643 0.000000 0.765228
0.894958 0.000000 0.750092
1.000000 0.000000 0.776855
1.000000 0.000000 0.833771
0.000000 0.471252 0.741730
0.000000 0.468262 0.743011
0.424957 0.365662 0.751282
0.876526 0.294220 0.755951
1.000000 0.158539 0.775055
1.000000 0.000031 0.826843
0.000000 0.730164 0.688416
0.000000 0.729401 0.689667
0.000031 0.727264 0.692719
0.711029 0.710541 0.713074
0.995575 0.666351 0.741516
1.000000 0.569824 0.817291
0.000000 0.952026 0.509430
0.000000 0.951782 0.512512
0.000000 0.950989 0.520874
0.000000 0.948547 0.544434
0.883759 0.932220 0.591766
0.999420 0.905212 0.728546
0.000000 1.000000 0.053009
0.000000 1.000000 0.053009
0.000000 1.000000 0.053009
0.000000 1.000000 0.053009
0.000000 1.000000 0.053009
0.905273 0.985870 0.016113
0.151733 0.008484 0.946167
0.451172 0.007019 0.946655
0.714203 0.002655 0.948700
0.896179 0.000000 0.950409
1.000000 0.000000 0.938782
1.000000 0.000000 0.955627
0.005554 0.104279 0.943848
0.298309 0.105743 0.944458
0.686005 0.076599 0.951874
0.881958 0.032898 0.948364
1.000000 0.000580 0.936035
1.000000 0.000000 0.954010
0.000000 0.491455 0.938049
0.000061 0.484589 0.938507
0.471497 0.385376 0.940674
0.847748 0.348846 0.944885
1.000000 0.258423 0.932007
1.000000 0.006561 0.947113
0.000000 0.778442 0.924774
0.000000 0.777924 0.924957
0.000061 0.775757 0.925659
0.700226 0.663025 0.930939
0.993073 0.627441 0.928253
1.000000 0.569794 0.937195
0.000000 0.913544 0.886292
0.000000 0.913391 0.886444
0.000000 0.913025 0.886932
0.000000 0.911713 0.888245
0.904999 0.896973 0.908508
1.000000 0.879059 0.923950
0.000000 0.999786 0.789459
0.000000 0.999786 0.790131
0.000000 0.999786 0.791931
0.000000 0.999695 0.797424
0.000000 0.999359 0.813263
0.971130 0.993683 0.853882
0.517609 0.497955 0.998962
0.581970 0.496460 0.999054
0.728058 0.489777 0.999207
0.902618 0.472473 0.999512
0.999207 0.433472 0.995483
1.000000 0.293457 0.994476
0.469330 0.524384 0.998596
0.550781 0.531769 0.998688
0.692383 0.526611 0.998871
0.900330 0.510376 0.999268
0.998657 0.474365 0.995697
1.000000 0.367218 0.995026
0.311676 0.652161 0.997711
0.434418 0.603790 0.997803
0.625427 0.599579 0.997986
0.881897 0.586700 0.998535
0.996460 0.561401 0.995972
1.000000 0.492462 0.995667
0.000000 0.849884 0.993134
0.000031 0.848328 0.993378
0.287659 0.815613 0.994049
0.760101 0.736328 0.995270
0.976837 0.719299 0.996246
1.000000 0.684052 0.995300
0.000000 0.968506 0.983978
0.000000 0.968475 0.984009
0.000000 0.968414 0.984070
0.034454 0.965454 0.985321
0.908752 0.893524 0.987671
1.000000 0.883362 0.987366
0.000000 0.987732 0.964355
0.000000 0.987732 0.964386
0.000000 0.987701 0.964417
0.000000 0.987579 0.964539
0.000366 0.986847 0.964935
0.978638 0.975800 0.979675
