assets/configs/ColorAnd3dLutPreset/lutDefault/60_CLog_709_Style/Data/CLog 709 Style.CUBE
#Created by: Adobe Photoshop Export Color Lookup Plugin
#Copyright: (C) Copyright 2024 Wondershare Andy Zhang
TITLE "CLog 709 Style"
#LUT size
LUT_3D_SIZE 12
#data domain
DOMAIN_MIN 0.0 0.0 0.0
DOMAIN_MAX 1.0 1.0 1.0
#LUT data points
0.000000 0.000000 0.000000
0.000000 0.000000 0.000000
0.056061 0.000275 0.000214
0.175262 0.000824 0.000397
0.356750 0.004822 0.000977
0.604706 0.027985 0.003326
0.797363 0.061768 0.003784
0.908905 0.105438 0.002899
0.959137 0.142975 0.001526
0.968964 0.181366 0.002472
0.968964 0.387085 0.171539
0.968964 0.803925 0.677521
0.000000 0.000000 0.000000
0.000000 0.000000 0.000000
0.056549 0.000305 0.000214
0.175629 0.000916 0.000397
0.356842 0.005066 0.000977
0.604736 0.028290 0.003326
0.797485 0.062073 0.003815
0.908936 0.105713 0.002899
0.959167 0.143127 0.001526
0.968964 0.181519 0.002533
0.968964 0.387299 0.171692
0.968964 0.803955 0.677582
0.001465 0.064423 0.001099
0.001587 0.064453 0.001068
0.066925 0.067291 0.000458
0.187531 0.067230 0.000641
0.365845 0.073364 0.001465
0.612244 0.089630 0.005035
0.803925 0.114777 0.010986
0.915314 0.142365 0.011292
0.964661 0.167023 0.007202
0.968964 0.206512 0.015686
0.968964 0.411774 0.195923
0.968964 0.813568 0.692780
0.008118 0.185730 0.003174
0.008453 0.185760 0.003143
0.071503 0.188538 0.002350
0.188599 0.190277 0.002960
0.365479 0.194244 0.004120
0.616882 0.200592 0.009125
0.819611 0.199615 0.020996
0.929810 0.203918 0.026550
0.968964 0.218079 0.030334
0.968964 0.277008 0.070770
0.968964 0.460419 0.244446
0.968964 0.833008 0.723633
0.030121 0.372192 0.009766
0.030609 0.372192 0.009766
0.092987 0.373535 0.011383
0.201935 0.374756 0.012482
0.375244 0.378540 0.015625
0.629364 0.378235 0.020538
0.851044 0.351044 0.029266
0.958527 0.318787 0.044067
0.968964 0.332550 0.095276
0.968964 0.405914 0.184052
0.968964 0.560089 0.353180
0.968964 0.872986 0.788879
0.051819 0.628876 0.016327
0.052185 0.628876 0.016388
0.119141 0.629089 0.025421
0.215729 0.630310 0.026184
0.378326 0.633636 0.027649
0.630981 0.635193 0.028870
0.878082 0.598694 0.028809
0.968964 0.534668 0.075226
0.968964 0.560272 0.265656
0.968964 0.609924 0.387146
0.968964 0.722565 0.564178
0.968964 0.931641 0.888458
0.084778 0.825531 0.017487
0.085144 0.825531 0.017700
0.140930 0.825745 0.031403
0.211487 0.827942 0.033569
0.339294 0.833496 0.036621
0.558777 0.841827 0.040649
0.826508 0.831024 0.035431
0.968964 0.777344 0.072540
0.968964 0.770233 0.437744
0.968964 0.794434 0.616302
0.968964 0.858795 0.764099
0.968964 0.968964 0.961731
0.126251 0.933746 0.017365
0.126556 0.933746 0.017548
0.167389 0.933990 0.033997
0.211304 0.935913 0.038055
0.295654 0.940613 0.041809
0.456543 0.948792 0.050079
0.699371 0.951935 0.051392
0.933838 0.937836 0.048126
0.968964 0.906616 0.452026
0.968964 0.907806 0.767242
0.968964 0.937622 0.889618
0.968964 0.968964 0.968964
0.168152 0.968964 0.017426
0.168365 0.968964 0.017670
0.198883 0.968964 0.035614
0.226379 0.968964 0.042908
0.276917 0.968964 0.050598
0.388062 0.968964 0.078125
0.585999 0.968964 0.135254
0.808716 0.968964 0.156708
0.968964 0.968964 0.169037
0.968964 0.966034 0.821381
0.968964 0.968964 0.954468
0.968964 0.968964 0.968964
0.473663 0.968964 0.274689
0.473785 0.968964 0.274811
0.493530 0.968964 0.292450
0.526886 0.968964 0.322449
0.597321 0.968964 0.391052
0.719788 0.968964 0.531921
0.838074 0.968964 0.692322
0.918884 0.968964 0.815582
0.962799 0.968964 0.877228
0.968964 0.968964 0.930725
0.968964 0.968964 0.968964
0.968964 0.968964 0.968964
0.968933 0.968964 0.958466
0.968933 0.968964 0.958466
0.968964 0.968964 0.960358
0.968964 0.968964 0.964203
0.968964 0.968964 0.968903
0.968964 0.968964 0.968964
0.968964 0.968964 0.968964
0.968964 0.968964 0.968964
0.968964 0.968964 0.968964
0.968964 0.968964 0.968964
0.968964 0.968964 0.968964
0.968964 0.968964 0.968964
0.968964 0.968964 0.968964
0.968964 0.968964 0.968964
0.968964 0.968964 0.968964
0.968964 0.968964 0.968964
0.968964 0.968964 0.968964
0.968964 0.968964 0.968964
0.968964 0.968964 0.968964
0.968964 0.968964 0.968964
0.968964 0.968964 0.968964
0.968964 0.968964 0.968964
0.968964 0.968964 0.968964
0.968964 0.968964 0.968964
0.000000 0.000000 0.000000
0.000000 0.000000 0.000000
0.056763 0.000244 0.000244
0.175598 0.000763 0.000427
0.356750 0.004700 0.001099
0.604797 0.027710 0.003418
0.797638 0.061340 0.003815
0.908997 0.105164 0.002899
0.959167 0.142853 0.001526
0.968964 0.181335 0.002472
0.968964 0.387115 0.171570
0.968964 0.803925 0.677521
0.000000 0.000000 0.000000
0.000000 0.000000 0.000000
0.057312 0.000275 0.000244
0.176025 0.000854 0.000397
0.357056 0.004913 0.001068
0.604919 0.028046 0.003418
0.797638 0.061646 0.003815
0.909027 0.105408 0.002899
0.959198 0.142975 0.001526
0.968964 0.181488 0.002533
0.968964 0.387299 0.171722
0.968964 0.803955 0.677643
0.001434 0.064423 0.001221
0.001526 0.064514 0.001160
0.066925 0.067291 0.000519
0.187683 0.067108 0.000702
0.366028 0.073181 0.001526
0.612457 0.089417 0.005127
0.804077 0.114563 0.011078
0.915344 0.142212 0.011383
0.964661 0.166901 0.007233
0.968964 0.206512 0.015747
0.968964 0.411835 0.195953
0.968964 0.813599 0.692841
0.008057 0.185760 0.003326
0.008240 0.185791 0.003265
0.071381 0.188568 0.002411
0.188599 0.190277 0.003052
0.365509 0.194153 0.004242
0.617065 0.200439 0.009277
0.819702 0.199524 0.021179
0.929840 0.203949 0.026703
0.968964 0.218079 0.030365
0.968964 0.277100 0.070831
0.968964 0.460449 0.244476
0.968964 0.833008 0.723663
0.029785 0.372192 0.009918
0.030182 0.372192 0.009888
0.092773 0.373596 0.011536
0.201782 0.374817 0.012665
0.375244 0.378571 0.015747
0.629425 0.378204 0.020813
0.851074 0.351013 0.029480
0.958496 0.318848 0.044403
0.968964 0.332642 0.095551
0.968964 0.406036 0.184174
0.968964 0.560120 0.353241
0.968964 0.872986 0.788910
0.051483 0.628937 0.016479
0.051880 0.628937 0.016541
0.118896 0.629089 0.025574
0.215607 0.630310 0.026428
0.378296 0.633667 0.027802
0.630981 0.635193 0.029053
0.878113 0.598694 0.028992
0.968964 0.534637 0.075500
0.968964 0.560272 0.265778
0.968964 0.609955 0.387177
0.968964 0.722595 0.564209
0.968964 0.931702 0.888489
0.084412 0.825562 0.017609
0.084869 0.825531 0.017761
0.140869 0.825775 0.031555
0.211517 0.827942 0.033783
0.339294 0.833496 0.036804
0.558746 0.841827 0.040894
0.826508 0.831024 0.035706
0.968964 0.777374 0.072784
0.968964 0.770233 0.437805
0.968964 0.794434 0.616394
0.968964 0.858795 0.764130
0.968964 0.968964 0.961731
0.126068 0.933746 0.017426
0.126434 0.933746 0.017609
0.167419 0.933990 0.034119
0.211456 0.935913 0.038239
0.295776 0.940582 0.042175
0.456665 0.948792 0.050415
0.699402 0.951935 0.051727
0.933838 0.937836 0.048401
0.968964 0.906616 0.452057
0.968964 0.907806 0.767273
0.968964 0.937683 0.889648
0.968964 0.968964 0.968964
0.168091 0.968964 0.017487
0.168304 0.968964 0.017670
0.198975 0.968964 0.035736
0.226532 0.968964 0.043060
0.277069 0.968964 0.050903
0.388184 0.968964 0.078400
0.586090 0.968964 0.135559
0.808746 0.968964 0.156921
0.968964 0.968964 0.169159
0.968964 0.966034 0.821381
0.968964 0.968964 0.954498
0.968964 0.968964 0.968964
0.473694 0.968964 0.274750
0.473816 0.968964 0.274841
0.493622 0.968964 0.292511
0.526947 0.968964 0.322571
0.597382 0.968964 0.391113
0.719818 0.968964 0.531952
0.838104 0.968964 0.692322
0.918945 0.968964 0.815613
0.962799 0.968964 0.877258
0.968964 0.968964 0.930756
0.968964 0.968964 0.968964
0.968964 0.968964 0.968964
0.968933 0.968964 0.958466
0.968933 0.968964 0.958466
0.968964 0.968964 0.960388
0.968964 0.968964 0.964203
0.968964 0.968964 0.968903
0.968964 0.968964 0.968964
0.968964 0.968964 0.968964
0.968964 0.968964 0.968964
0.968964 0.968964 0.968964
0.968964 0.968964 0.968964
0.968964 0.968964 0.968964
0.968964 0.968964 0.968964
0.968964 0.968964 0.968964
0.968964 0.968964 0.968964
0.968964 0.968964 0.968964
0.968964 0.968964 0.968964
0.968964 0.968964 0.968964
0.968964 0.968964 0.968964
0.968964 0.968964 0.968964
0.968964 0.968964 0.968964
0.968964 0.968964 0.968964
0.968964 0.968964 0.968964
0.968964 0.968964 0.968964
0.968964 0.968964 0.968964
0.000092 0.000214 0.046783
0.000092 0.000183 0.046936
0.059387 0.000427 0.058502
0.177185 0.000946 0.060822
0.357635 0.003693 0.065613
0.611542 0.014038 0.064301
0.812378 0.027191 0.035828
0.922485 0.061737 0.008392
0.964844 0.121063 0.002808
0.968964 0.175049 0.004456
0.968964 0.391083 0.179077
0.968964 0.807190 0.683319
0.000092 0.000214 0.047119
0.000092 0.000214 0.047638
0.059784 0.000488 0.058990
0.177734 0.000977 0.060944
0.358002 0.003784 0.065521
0.611786 0.014252 0.064178
0.812469 0.027374 0.035797
0.922485 0.062042 0.008453
0.964844 0.121185 0.002838
0.968964 0.175232 0.004578
0.968964 0.391235 0.179291
0.968964 0.807251 0.683411
0.001373 0.065521 0.065430
0.001434 0.065582 0.065491
0.067474 0.067474 0.067474
0.191376 0.061279 0.060913
0.378235 0.054535 0.052338
0.632904 0.056274 0.047089
0.822510 0.077545 0.037292
0.925720 0.113495 0.025299
0.968781 0.152161 0.013977
0.968964 0.207367 0.026093
0.968964 0.415985 0.203674
0.968964 0.816895 0.698517
0.006958 0.186005 0.069580
0.007080 0.186127 0.069519
0.058105 0.191864 0.056610
0.191681 0.192169 0.056946
0.375580 0.188110 0.052643
0.633209 0.185333 0.050323
0.830383 0.183075 0.051544
0.933655 0.194366 0.049255
0.968964 0.214569 0.044373
0.968964 0.282623 0.085785
0.968964 0.464813 0.252563
0.968964 0.836090 0.729095
0.021484 0.372803 0.075653
0.021729 0.372833 0.075470
0.056793 0.378174 0.050720
0.188751 0.378143 0.050873
0.377899 0.379028 0.051697
0.640533 0.371582 0.053589
0.853790 0.346039 0.071198
0.954132 0.327301 0.092224
0.968964 0.347717 0.131714
0.968964 0.415710 0.203339
0.968964 0.564178 0.361359
0.968964 0.875549 0.793579
0.034241 0.629791 0.072784
0.034424 0.629791 0.072723
0.081635 0.632080 0.058319
0.194550 0.632996 0.058563
0.369965 0.635406 0.061432
0.632507 0.635223 0.063507
0.880524 0.596191 0.066620
0.968964 0.539734 0.125183
0.968964 0.565186 0.288605
0.968964 0.614258 0.399902
0.968964 0.726196 0.571625
0.968964 0.933655 0.891998
0.053558 0.826904 0.044495
0.053802 0.826904 0.044525
0.113647 0.827332 0.054596
0.205566 0.828308 0.070953
0.337646 0.833649 0.077240
0.558899 0.841858 0.084717
0.826813 0.831299 0.076813
0.968964 0.778198 0.113708
0.968964 0.771759 0.453247
0.968964 0.797058 0.624969
0.968964 0.861603 0.770020
0.968964 0.968964 0.963806
0.117157 0.934204 0.037598
0.117310 0.934235 0.037628
0.155975 0.934570 0.050995
0.224426 0.935364 0.077271
0.309906 0.939911 0.086456
0.469055 0.947998 0.100006
0.704132 0.951477 0.102264
0.933655 0.938049 0.092560
0.968964 0.907135 0.466309
0.968964 0.909302 0.773651
0.968964 0.939362 0.893524
0.968964 0.968964 0.968964
0.169220 0.968964 0.032318
0.169281 0.968964 0.032318
0.197510 0.968964 0.048157
0.250824 0.968964 0.081421
0.304840 0.968964 0.096069
0.413818 0.968964 0.125183
0.600555 0.968964 0.176392
0.813660 0.968964 0.195618
0.968964 0.968964 0.199524
0.968964 0.966614 0.827362
0.968964 0.968964 0.956787
0.968964 0.968964 0.968964
0.479919 0.968964 0.284515
0.480011 0.968964 0.284576
0.499847 0.968964 0.302338
0.537994 0.968964 0.337830
0.607391 0.968964 0.406128
0.725769 0.968964 0.543182
0.841736 0.968964 0.700775
0.921143 0.968964 0.822052
0.963928 0.968964 0.882904
0.968964 0.968964 0.934967
0.968964 0.968964 0.968964
0.968964 0.968964 0.968964
0.968964 0.968964 0.960022
0.968964 0.968964 0.960022
0.968964 0.968964 0.961884
0.968964 0.968964 0.965637
0.968964 0.968964 0.968903
0.968964 0.968964 0.968964
0.968964 0.968964 0.968964
0.968964 0.968964 0.968964
0.968964 0.968964 0.968964
0.968964 0.968964 0.968964
0.968964 0.968964 0.968964
0.968964 0.968964 0.968964
0.968964 0.968964 0.968964
0.968964 0.968964 0.968964
0.968964 0.968964 0.968964
0.968964 0.968964 0.968964
0.968964 0.968964 0.968964
0.968964 0.968964 0.968964
0.968964 0.968964 0.968964
0.968964 0.968964 0.968964
0.968964 0.968964 0.968964
0.968964 0.968964 0.968964
0.968964 0.968964 0.968964
0.968964 0.968964 0.968964
0.000122 0.001923 0.149139
0.000153 0.001801 0.150085
0.058716 0.000916 0.171082
0.178772 0.001587 0.175232
0.358856 0.004181 0.183105
0.613281 0.013550 0.183197
0.815704 0.026550 0.143890
0.927856 0.041656 0.076935
0.968964 0.097107 0.028015
0.968964 0.170929 0.023285
0.968964 0.399200 0.195679
0.968964 0.813446 0.694855
0.000122 0.002075 0.149628
0.000153 0.001923 0.150757
0.058929 0.000946 0.171936
0.179108 0.001617 0.175720
0.359161 0.004211 0.183228
0.613464 0.013794 0.183197
0.815735 0.026733 0.143860
0.927856 0.041992 0.076996
0.968964 0.097504 0.028168
0.968964 0.171173 0.023438
0.968964 0.399323 0.195862
0.968964 0.813538 0.694946
0.001587 0.066101 0.177338
0.001617 0.066071 0.177765
0.056091 0.057312 0.192200
0.192505 0.056732 0.191620
0.378204 0.053192 0.187225
0.634735 0.052277 0.178131
0.825775 0.066467 0.142639
0.929291 0.094635 0.086365
0.968964 0.145844 0.050201
0.968964 0.217468 0.054352
0.968964 0.424194 0.220398
0.968964 0.822968 0.709747
0.006165 0.186981 0.186615
0.006226 0.187042 0.186737
0.056915 0.192047 0.191956
0.189636 0.189636 0.189636
0.381104 0.179047 0.178772
0.635986 0.166779 0.163269
0.827728 0.171936 0.145844
0.931061 0.194336 0.121094
0.968964 0.223328 0.095001
0.968964 0.294220 0.117706
0.968964 0.473450 0.269653
0.968964 0.841858 0.739777
0.019287 0.372742 0.195221
0.019470 0.372833 0.195129
0.052216 0.378632 0.186249
0.166351 0.383209 0.165100
0.383057 0.383423 0.165375
0.642792 0.365540 0.167450
0.843964 0.346893 0.176086
0.944336 0.341949 0.178436
0.968964 0.361389 0.184052
0.968964 0.426361 0.232239
0.968964 0.572510 0.378876
0.968964 0.880585 0.802948
0.033386 0.629791 0.191040
0.033661 0.629791 0.190948
0.073517 0.632538 0.181763
0.165955 0.636261 0.156738
0.360413 0.638184 0.159393
0.635803 0.637390 0.158142
0.879944 0.593475 0.163422
0.968964 0.546753 0.211456
0.968964 0.573975 0.335175
0.968964 0.622345 0.426239
0.968964 0.733063 0.586823
0.968964 0.937347 0.898712
0.090179 0.825073 0.160797
0.090393 0.825073 0.160797
0.122314 0.826508 0.154968
0.196198 0.828705 0.150757
0.336426 0.833557 0.160370
0.560333 0.841797 0.170685
0.827789 0.832123 0.156647
0.968964 0.778748 0.184479
0.968964 0.774841 0.486725
0.968964 0.802002 0.642700
0.968964 0.866821 0.781403
0.968964 0.968964 0.967651
0.175415 0.931976 0.134857
0.175507 0.931976 0.134888
0.196808 0.932861 0.138397
0.241394 0.934601 0.145111
0.331085 0.938751 0.160400
0.490356 0.946503 0.182648
0.712677 0.950592 0.186279
0.933472 0.938446 0.167297
0.968964 0.908264 0.496948
0.968964 0.912201 0.786774
0.968964 0.942596 0.900940
0.968964 0.968964 0.968964
0.246521 0.968964 0.127930
0.246552 0.968964 0.127960
0.258423 0.968964 0.131958
0.283997 0.968964 0.140076
0.348389 0.968964 0.166229
0.451508 0.968964 0.194763
0.626678 0.968964 0.247498
0.822876 0.968964 0.264801
0.968964 0.968964 0.257660
0.968964 0.967651 0.839508
0.968964 0.968964 0.961182
0.968964 0.968964 0.968964
0.496765 0.968964 0.309509
0.496887 0.968964 0.309570
0.515381 0.968964 0.326385
0.552002 0.968964 0.360657
0.625214 0.968964 0.434998
0.737701 0.968964 0.566406
0.849121 0.968964 0.718048
0.925598 0.968964 0.835236
0.966095 0.968964 0.893921
0.968964 0.968964 0.943115
0.968964 0.968964 0.968964
0.968964 0.968964 0.968964
0.968964 0.968964 0.963043
0.968964 0.968964 0.963074
0.968964 0.968964 0.964844
0.968964 0.968964 0.968414
0.968964 0.968964 0.968903
0.968964 0.968964 0.968964
0.968964 0.968964 0.968964
0.968964 0.968964 0.968964
0.968964 0.968964 0.968964
0.968964 0.968964 0.968964
0.968964 0.968964 0.968964
0.968964 0.968964 0.968964
0.968964 0.968964 0.968964
0.968964 0.968964 0.968964
0.968964 0.968964 0.968964
0.968964 0.968964 0.968964
0.968964 0.968964 0.968964
0.968964 0.968964 0.968964
0.968964 0.968964 0.968964
0.968964 0.968964 0.968964
0.968964 0.968964 0.968964
0.968964 0.968964 0.968964
0.968964 0.968964 0.968964
0.968964 0.968964 0.968964
0.000122 0.019867 0.306244
0.000153 0.019104 0.307648
0.056091 0.003235 0.346191
0.179993 0.003784 0.348206
0.362579 0.006958 0.356232
0.617828 0.015167 0.355682
0.824890 0.024536 0.299622
0.935730 0.038483 0.210144
0.968964 0.080627 0.113922
0.968964 0.190674 0.084045
0.968964 0.416412 0.231750
0.968964 0.825348 0.717865
0.000122 0.020233 0.306763
0.000153 0.019592 0.308197
0.056122 0.003296 0.346802
0.180237 0.003845 0.348663
0.362762 0.007080 0.356476
0.618042 0.015411 0.355713
0.824951 0.024658 0.299652
0.935730 0.038727 0.210236
0.968964 0.081024 0.114014
0.968964 0.191071 0.084290
0.968964 0.416565 0.231903
0.968964 0.825439 0.717957
0.001221 0.075043 0.342743
0.001221 0.074829 0.343567
0.048462 0.054016 0.379120
0.186890 0.051178 0.378296
0.379730 0.051208 0.377594
0.638031 0.050873 0.363434
0.835571 0.060547 0.302612
0.937500 0.087128 0.218781
0.968964 0.132263 0.130005
0.968964 0.237854 0.118378
0.968964 0.441589 0.256409
0.968964 0.834564 0.732147
0.006042 0.189484 0.355957
0.006104 0.189484 0.356232
0.047821 0.187195 0.378448
0.164734 0.165710 0.383423
0.383667 0.165253 0.382904
0.640259 0.162598 0.358673
0.835632 0.164215 0.306488
0.935364 0.183899 0.238312
0.968964 0.226624 0.176697
0.968964 0.313293 0.176483
0.968964 0.490814 0.305939
0.968964 0.852875 0.760925
0.020416 0.373718 0.373199
0.020721 0.373779 0.373199
0.053925 0.378448 0.378296
0.165314 0.383301 0.383270
0.376953 0.376953 0.376953
0.637970 0.364441 0.363586
0.830841 0.351471 0.338013
0.933563 0.357513 0.306213
0.968964 0.379120 0.272034
0.968964 0.446350 0.289764
0.968964 0.589447 0.416351
0.968964 0.890106 0.821198
0.040009 0.629822 0.368927
0.040253 0.629822 0.368866
0.084686 0.632111 0.366669
0.174927 0.635468 0.359406
0.343201 0.640961 0.339264
0.640442 0.641693 0.340210
0.866913 0.598083 0.357025
0.961823 0.572784 0.381287
0.968964 0.593597 0.428162
0.968964 0.641571 0.485504
0.968964 0.747284 0.618652
0.968964 0.944214 0.911346
0.161224 0.821350 0.331207
0.161469 0.821350 0.331177
0.187469 0.822632 0.330231
0.241547 0.825043 0.325867
0.357666 0.830719 0.322235
0.573792 0.839874 0.338379
0.829010 0.834381 0.328583
0.968964 0.783142 0.337311
0.968964 0.783478 0.558685
0.968964 0.812256 0.679382
0.968964 0.876770 0.803619
0.968964 0.968964 0.968964
0.271606 0.927612 0.287170
0.271729 0.927612 0.287231
0.285797 0.928467 0.287872
0.322784 0.930206 0.294739
0.401062 0.934418 0.311157
0.542328 0.942535 0.338104
0.735474 0.947845 0.347412
0.932709 0.939301 0.325226
0.968964 0.911072 0.564850
0.968964 0.918274 0.813232
0.968964 0.948792 0.915039
0.968964 0.968964 0.968964
0.368713 0.968964 0.273773
0.368805 0.968964 0.273773
0.378448 0.968964 0.277710
0.399811 0.968964 0.285645
0.447327 0.968964 0.303741
0.538086 0.968964 0.336517
0.678223 0.968964 0.380341
0.841614 0.968964 0.393250
0.968964 0.968964 0.324982
0.968964 0.968964 0.864532
0.968964 0.968964 0.968964
0.968964 0.968964 0.968964
0.542267 0.968964 0.374237
0.542328 0.968964 0.374329
0.557587 0.968964 0.388611
0.589264 0.968964 0.418976
0.657166 0.968964 0.490417
0.763702 0.968964 0.616943
0.865265 0.968964 0.755371
0.934998 0.968964 0.862427
0.968964 0.968964 0.916107
0.968964 0.968964 0.962982
0.968964 0.968964 0.968964
0.968964 0.968964 0.968964
0.968964 0.968964 0.968903
0.968964 0.968964 0.968903
0.968964 0.968964 0.968903
0.968964 0.968964 0.968903
0.968964 0.968964 0.968964
0.968964 0.968964 0.968964
0.968964 0.968964 0.968964
0.968964 0.968964 0.968964
0.968964 0.968964 0.968964
0.968964 0.968964 0.968964
0.968964 0.968964 0.968964
0.968964 0.968964 0.968964
0.968964 0.968964 0.968964
0.968964 0.968964 0.968964
0.968964 0.968964 0.968964
0.968964 0.968964 0.968964
0.968964 0.968964 0.968964
0.968964 0.968964 0.968964
0.968964 0.968964 0.968964
0.968964 0.968964 0.968964
0.968964 0.968964 0.968964
0.968964 0.968964 0.968964
0.968964 0.968964 0.968964
0.968964 0.968964 0.968964
0.000092 0.060883 0.512909
0.000092 0.060364 0.514404
0.043457 0.013092 0.597656
0.171448 0.013153 0.601807
0.356781 0.016052 0.610138
0.618896 0.022247 0.610596
0.837677 0.022980 0.538544
0.950348 0.026398 0.407959
0.968964 0.062744 0.266754
0.968964 0.211060 0.188660
0.968964 0.445587 0.299500
0.968964 0.843018 0.754456
0.000092 0.061035 0.513458
0.000092 0.060486 0.514984
0.043457 0.013306 0.598053
0.171509 0.013336 0.602051
0.356873 0.016266 0.610382
0.619019 0.022430 0.610809
0.837769 0.023102 0.538574
0.950378 0.026611 0.408020
0.968964 0.063110 0.266907
0.968964 0.211365 0.188843
0.968964 0.445831 0.299652
0.968964 0.843079 0.754517
0.000977 0.102356 0.562347
0.001007 0.101990 0.563385
0.040039 0.059387 0.635223
0.174866 0.053375 0.636322
0.366608 0.054657 0.637726
0.632843 0.056030 0.628296
0.848267 0.054413 0.546967
0.954132 0.063477 0.415649
0.968964 0.123688 0.282562
0.968964 0.254517 0.215851
0.968964 0.470123 0.323029
0.968964 0.851624 0.767700
0.007965 0.199341 0.590088
0.008087 0.199219 0.590485
0.044891 0.186279 0.634491
0.152771 0.161713 0.637604
0.358582 0.160431 0.640289
0.638336 0.157532 0.635284
0.855988 0.145966 0.553101
0.957001 0.150574 0.428925
0.968964 0.217072 0.313812
0.968964 0.328674 0.267334
0.968964 0.517487 0.371124
0.968964 0.868896 0.794128
0.025513 0.372650 0.624451
0.025665 0.372650 0.624512
0.063843 0.372009 0.635803
0.165405 0.364502 0.637604
0.337952 0.341064 0.641663
0.642334 0.339813 0.640228
0.851624 0.333801 0.563171
0.948730 0.341309 0.475464
0.968964 0.380737 0.396118
0.968964 0.466736 0.378387
0.968964 0.614899 0.480621
0.968964 0.903870 0.849060
0.021606 0.631409 0.631012
0.021942 0.631439 0.631012
0.065002 0.633453 0.633087
0.157867 0.637024 0.636810
0.339966 0.641388 0.641205
0.633575 0.633575 0.633575
0.831696 0.627991 0.625092
0.936249 0.622375 0.602570
0.968964 0.627777 0.570923
0.968964 0.672424 0.580139
0.968964 0.769501 0.672302
0.968964 0.953827 0.929504
0.212891 0.820679 0.560699
0.213043 0.820679 0.560699
0.241699 0.821289 0.562805
0.300232 0.822540 0.566376
0.419281 0.825897 0.577240
0.613617 0.833801 0.600403
0.832031 0.835754 0.604248
0.959198 0.805176 0.626129
0.968964 0.804962 0.687836
0.968964 0.831177 0.746033
0.968964 0.891846 0.838959
0.968964 0.968964 0.968964
0.400024 0.922058 0.510437
0.400085 0.922058 0.510468
0.414215 0.922729 0.514191
0.445038 0.924255 0.521423
0.511902 0.927887 0.539520
0.633179 0.935638 0.578064
0.781158 0.942719 0.602295
0.932983 0.939819 0.591766
0.968964 0.917786 0.693573
0.968964 0.928162 0.856689
0.968964 0.957886 0.935455
0.968964 0.968964 0.968964
0.523468 0.967346 0.481445
0.523529 0.967346 0.481476
0.532349 0.967896 0.486511
0.551178 0.968964 0.496948
0.593140 0.968964 0.520905
0.669281 0.968964 0.564636
0.764709 0.968964 0.602509
0.875793 0.968964 0.612640
0.968964 0.968964 0.589325
0.968964 0.968964 0.904968
0.968964 0.968964 0.968964
0.968964 0.968964 0.968964
0.627045 0.968964 0.502838
0.627075 0.968964 0.502930
0.635162 0.968964 0.510468
0.651978 0.968964 0.526215
0.721191 0.968964 0.601929
0.811340 0.968964 0.710327
0.894440 0.968964 0.821503
0.950928 0.968964 0.906281
0.968964 0.968964 0.948730
0.968964 0.968964 0.968903
0.968964 0.968964 0.968964
0.968964 0.968964 0.968964
0.968964 0.968964 0.968964
0.968964 0.968964 0.968964
0.968964 0.968964 0.968964
0.968964 0.968964 0.968964
0.968964 0.968964 0.968964
0.968964 0.968964 0.968964
0.968964 0.968964 0.968964
0.968964 0.968964 0.968964
0.968964 0.968964 0.968964
0.968964 0.968964 0.968964
0.968964 0.968964 0.968964
0.968964 0.968964 0.968964
0.968964 0.968964 0.968964
0.968964 0.968964 0.968964
0.968964 0.968964 0.968964
0.968964 0.968964 0.968964
0.968964 0.968964 0.968964
0.968964 0.968964 0.968964
0.968964 0.968964 0.968964
0.968964 0.968964 0.968964
0.968964 0.968964 0.968964
0.968964 0.968964 0.968964
0.968964 0.968964 0.968964
0.968964 0.968964 0.968964
0.000031 0.139160 0.641724
0.000031 0.138824 0.642548
0.003723 0.050018 0.792725
0.118805 0.027466 0.819458
0.300140 0.031769 0.837402
0.567261 0.034515 0.855347
0.820007 0.029327 0.810913
0.953827 0.024567 0.682617
0.968964 0.082489 0.497986
0.968964 0.245148 0.359406
0.968964 0.476959 0.403229
0.968964 0.859436 0.795532
0.000031 0.139252 0.642212
0.000031 0.138947 0.643005
0.003723 0.050232 0.792969
0.118835 0.027679 0.819580
