assets/configs/ColorAnd3dLutPreset/lutDefault/60_CLog_709_Style/Data/CLog 709 Style.CUBE
#Created by: Adobe Photoshop Export Color Lookup Plugin
#Copyright: (C) Copyright 2024 Wondershare Andy Zhang
TITLE "CLog 709 Style"
#LUT size
LUT_3D_SIZE 6
#data domain
#LUT data points
DOMAIN_MIN 0.000000 0.000000 0.000000
DOMAIN_MAX 0.909091 0.909091 0.909091
0.000000 0.000000 0.000000
0.056061 0.000275 0.000214
0.356750 0.004822 0.000977
0.797363 0.061768 0.003784
0.959137 0.142975 0.001526
0.968964 0.387085 0.171539
0.001465 0.064423 0.001099
0.066925 0.067291 0.000458
0.365845 0.073364 0.001465
0.803925 0.114777 0.010986
0.964661 0.167023 0.007202
0.968964 0.411774 0.195923
0.030121 0.372192 0.009766
0.092987 0.373535 0.011383
0.375244 0.378540 0.015625
0.851044 0.351044 0.029266
0.968964 0.332550 0.095276
0.968964 0.560089 0.353180
0.084778 0.825531 0.017487
0.140930 0.825745 0.031403
0.339294 0.833496 0.036621
0.826508 0.831024 0.035431
0.968964 0.770233 0.437744
0.968964 0.858795 0.764099
0.168152 0.968964 0.017426
0.198883 0.968964 0.035614
0.276917 0.968964 0.050598
0.585999 0.968964 0.135254
0.968964 0.968964 0.169037
0.968964 0.968964 0.954468
0.968933 0.968964 0.958466
0.968964 0.968964 0.960358
0.968964 0.968964 0.968903
0.968964 0.968964 0.968964
0.968964 0.968964 0.968964
0.968964 0.968964 0.968964
0.000092 0.000214 0.046783
0.059387 0.000427 0.058502
0.357635 0.003693 0.065613
0.812378 0.027191 0.035828
0.964844 0.121063 0.002808
0.968964 0.391083 0.179077
0.001373 0.065521 0.065430
0.067474 0.067474 0.067474
0.378235 0.054535 0.052338
0.822510 0.077545 0.037292
0.968781 0.152161 0.013977
0.968964 0.415985 0.203674
0.021484 0.372803 0.075653
0.056793 0.378174 0.050720
0.377899 0.379028 0.051697
0.853790 0.346039 0.071198
0.968964 0.347717 0.131714
0.968964 0.564178 0.361359
0.053558 0.826904 0.044495
0.113647 0.827332 0.054596
0.337646 0.833649 0.077240
0.826813 0.831299 0.076813
0.968964 0.771759 0.453247
0.968964 0.861603 0.770020
0.169220 0.968964 0.032318
0.197510 0.968964 0.048157
0.304840 0.968964 0.096069
0.600555 0.968964 0.176392
0.968964 0.968964 0.199524
0.968964 0.968964 0.956787
0.968964 0.968964 0.960022
0.968964 0.968964 0.961884
0.968964 0.968964 0.968903
0.968964 0.968964 0.968964
0.968964 0.968964 0.968964
0.968964 0.968964 0.968964
0.000122 0.019867 0.306244
0.056091 0.003235 0.346191
0.362579 0.006958 0.356232
0.824890 0.024536 0.299622
0.968964 0.080627 0.113922
0.968964 0.416412 0.231750
0.001221 0.075043 0.342743
0.048462 0.054016 0.379120
0.379730 0.051208 0.377594
0.835571 0.060547 0.302612
0.968964 0.132263 0.130005
0.968964 0.441589 0.256409
0.020416 0.373718 0.373199
0.053925 0.378448 0.378296
0.376953 0.376953 0.376953
0.830841 0.351471 0.338013
0.968964 0.379120 0.272034
0.968964 0.589447 0.416351
0.161224 0.821350 0.331207
0.187469 0.822632 0.330231
0.357666 0.830719 0.322235
0.829010 0.834381 0.328583
0.968964 0.783478 0.558685
0.968964 0.876770 0.803619
0.368713 0.968964 0.273773
0.378448 0.968964 0.277710
0.447327 0.968964 0.303741
0.678223 0.968964 0.380341
0.968964 0.968964 0.324982
0.968964 0.968964 0.968964
0.968964 0.968964 0.968903
0.968964 0.968964 0.968903
0.968964 0.968964 0.968964
0.968964 0.968964 0.968964
0.968964 0.968964 0.968964
0.968964 0.968964 0.968964
0.000031 0.139160 0.641724
0.003723 0.050018 0.792725
0.300140 0.031769 0.837402
0.820007 0.029327 0.810913
0.968964 0.082489 0.497986
0.968964 0.476959 0.403229
0.000458 0.159882 0.701965
0.010040 0.091888 0.818237
0.303772 0.078491 0.845184
0.827118 0.067932 0.818634
0.968964 0.136169 0.508636
0.968964 0.499634 0.424469
0.052429 0.365021 0.826111
0.090607 0.363098 0.831116
0.304901 0.341217 0.835083
0.837646 0.325897 0.827545
0.968964 0.377625 0.584259
0.968964 0.639435 0.566376
0.012024 0.828979 0.828552
0.064606 0.829651 0.829163
0.327393 0.833252 0.832520
0.829895 0.829895 0.829895
0.968964 0.829590 0.815582
0.968964 0.905121 0.875061
0.601532 0.965851 0.663818
0.611694 0.966187 0.669342
0.679871 0.968811 0.707184
0.842255 0.968964 0.803528
0.968964 0.968964 0.816406
0.968964 0.968964 0.968964
0.968964 0.968964 0.968964
0.968964 0.968964 0.968964
0.968964 0.968964 0.968964
0.968964 0.968964 0.968964
0.968964 0.968964 0.968964
0.968964 0.968964 0.968964
0.000000 0.259888 0.771942
0.000000 0.258026 0.803375
0.039368 0.153503 0.968964
0.522308 0.239227 0.968964
0.968964 0.069885 0.968323
0.968964 0.511902 0.698151
0.000031 0.276062 0.813293
0.000031 0.273285 0.841949
0.054291 0.203827 0.968964
0.526062 0.272614 0.968964
0.968964 0.118011 0.967865
0.968964 0.533020 0.708954
0.039490 0.398468 0.957489
0.050323 0.398285 0.964050
0.179565 0.418793 0.968964
0.573425 0.453308 0.968964
0.968964 0.357666 0.963654
0.968964 0.666504 0.781342
0.421997 0.763977 0.968964
0.438080 0.765991 0.968964
0.540070 0.780548 0.968964
0.777954 0.824219 0.968964
0.968964 0.813019 0.968964
0.968964 0.919678 0.936401
0.122284 0.968964 0.968964
0.157959 0.968964 0.968964
0.321289 0.968964 0.968964
0.813904 0.968964 0.968964
0.968964 0.968964 0.968964
0.968964 0.968964 0.968964
0.968964 0.968964 0.968964
0.968964 0.968964 0.968964
0.968964 0.968964 0.968964
0.968964 0.968964 0.968964
0.968964 0.968964 0.968964
0.968964 0.968964 0.968964
0.000000 0.373596 0.897125
0.000000 0.377686 0.906647
0.000031 0.401581 0.962097
0.220123 0.508484 0.968964
0.655945 0.527405 0.968964
0.968964 0.522186 0.968964
0.000000 0.388641 0.917297
0.000031 0.392609 0.925507
0.000549 0.416107 0.968964
0.237793 0.525940 0.968964
0.665283 0.545074 0.968964
0.968964 0.543274 0.968964
0.047821 0.502167 0.968964
0.057007 0.507172 0.968964
0.134125 0.542755 0.968964
0.360260 0.633972 0.968964
0.732086 0.660004 0.968964
0.968964 0.678772 0.968964
0.526733 0.798279 0.968964
0.533844 0.800903 0.968964
0.584564 0.818848 0.968964
0.742981 0.870605 0.968964
0.906799 0.902954 0.968964
0.968964 0.936249 0.968964
0.872742 0.947571 0.968964
0.876160 0.948608 0.968964
0.898682 0.955597 0.968964
0.953644 0.968964 0.968964
0.968964 0.968964 0.968964
0.968964 0.968964 0.968964
0.968964 0.968964 0.968964
0.968964 0.968964 0.968964
0.968964 0.968964 0.968964
0.968964 0.968964 0.968964
0.968964 0.968964 0.968964
0.968964 0.968964 0.968964
