assets/configs/ColorAnd3dLutPreset/lutDefault/60_CLog_709_Style/Data/CLog 709 Style.CUBE
#Created by: Adobe Photoshop Export Color Lookup Plugin
#Copyright: (C) Copyright 2024 Wondershare Andy Zhang
TITLE "CLog 709 Style"
#LUT size
LUT_3D_SIZE 4
#data domain
#LUT data points
DOMAIN_MIN 0.000000 0.000000 0.000000
DOMAIN_MAX 0.818182 0.818182 0.818182
0.000000 0.000000 0.000000
0.175262 0.000824 0.000397
0.797363 0.061768 0.003784
0.968964 0.181366 0.002472
0.008118 0.185730 0.003174
0.188599 0.190277 0.002960
0.819611 0.199615 0.020996
0.968964 0.277008 0.070770
0.084778 0.825531 0.017487
0.211487 0.827942 0.033569
0.826508 0.831024 0.035431
0.968964 0.794434 0.616302
0.473663 0.968964 0.274689
0.526886 0.968964 0.322449
0.838074 0.968964 0.692322
0.968964 0.968964 0.930725
0.000122 0.001923 0.149139
0.178772 0.001587 0.175232
0.815704 0.026550 0.143890
0.968964 0.170929 0.023285
0.006165 0.186981 0.186615
0.189636 0.189636 0.189636
0.827728 0.171936 0.145844
0.968964 0.294220 0.117706
0.090179 0.825073 0.160797
0.196198 0.828705 0.150757
0.827789 0.832123 0.156647
0.968964 0.802002 0.642700
0.496765 0.968964 0.309509
0.552002 0.968964 0.360657
0.849121 0.968964 0.718048
0.968964 0.968964 0.943115
0.000031 0.139160 0.641724
0.118805 0.027466 0.819458
0.820007 0.029327 0.810913
0.968964 0.245148 0.359406
0.007446 0.219330 0.769409
0.122406 0.179108 0.833008
0.834503 0.153992 0.826294
0.968964 0.344330 0.415436
0.012024 0.828979 0.828552
0.157593 0.831055 0.830505
0.829895 0.829895 0.829895
0.968964 0.850586 0.820953
0.713409 0.968964 0.658752
0.745636 0.968964 0.690369
0.924347 0.968964 0.890533
0.968964 0.968964 0.968903
0.000000 0.301758 0.809235
0.000000 0.308624 0.866425
0.299591 0.368286 0.968964
0.968964 0.220032 0.968964
0.000580 0.352081 0.898376
0.001373 0.356140 0.936005
0.344177 0.445160 0.968964
0.968964 0.324890 0.968964
0.490356 0.769531 0.968964
0.518158 0.777435 0.968964
0.747559 0.842194 0.968964
0.968964 0.852814 0.968964
0.679596 0.968964 0.968964
0.728546 0.968964 0.968964
0.958160 0.968964 0.968964
0.968964 0.968964 0.968964
