assets/configs/ColorAnd3dLutPreset/lutDefault/60_NLog_70_Cinematic/Data/NLog 709 Cinematic.CUBE
#Created by: Adobe Photoshop Export Color Lookup Plugin
#Copyright: (C) Copyright 2024 Wondershare Andy Zhang
TITLE "NLog 709 Cinematic"
#LUT size
LUT_3D_SIZE 6
#data domain
#LUT data points
DOMAIN_MIN 0.000000 0.000000 0.000000
DOMAIN_MAX 0.909091 0.909091 0.909091
0.012390 0.000000 0.013062
0.108765 0.000000 0.018494
0.498352 0.000000 0.038086
0.818665 0.000000 0.060150
0.893158 0.000000 0.081299
0.941071 0.000000 0.078125
0.000000 0.070374 0.008453
0.084351 0.058350 0.005707
0.489929 0.000000 0.012421
0.825378 0.000000 0.034485
0.907623 0.000000 0.061676
0.955780 0.000000 0.062500
0.007507 0.416077 0.000000
0.033478 0.408630 0.000000
0.393280 0.348053 0.000000
0.807617 0.243317 0.000000
0.889618 0.000000 0.014557
0.946869 0.000000 0.023102
0.028625 0.786804 0.000000
0.049377 0.790497 0.000000
0.067993 0.769409 0.000000
0.767365 0.708740 0.000000
0.887451 0.534515 0.000000
0.940399 0.000000 0.002075
0.044098 0.885712 0.000000
0.058807 0.885620 0.000000
0.073639 0.884674 0.000000
0.094604 0.878876 0.000000
0.879059 0.828186 0.000000
0.938812 0.745148 0.000000
0.046539 0.933899 0.000000
0.061401 0.933899 0.000000
0.076141 0.933807 0.000000
0.091187 0.933624 0.000000
0.112244 0.932495 0.000000
0.932251 0.882172 0.000000
0.006470 0.000000 0.083160
0.105591 0.000000 0.087921
0.497345 0.000000 0.105408
0.818634 0.000000 0.118530
0.893158 0.000000 0.123413
0.941071 0.000000 0.103577
0.000000 0.074097 0.082062
0.074402 0.055664 0.075378
0.499817 0.000000 0.082855
0.831787 0.000000 0.094391
0.907623 0.000000 0.104370
0.955780 0.000000 0.088898
0.000000 0.416199 0.049774
0.000000 0.421753 0.027069
0.402649 0.356201 0.005096
0.821655 0.231689 0.000000
0.904236 0.000000 0.029572
0.970581 0.000000 0.050232
0.000000 0.786804 0.012085
0.007629 0.800385 0.000000
0.054535 0.783844 0.000000
0.780396 0.720367 0.000000
0.901825 0.532806 0.000000
0.955139 0.000000 0.016571
0.027893 0.885712 0.000000
0.044373 0.900360 0.000000
0.060181 0.899414 0.000000
0.080292 0.893555 0.000000
0.893524 0.841614 0.000000
0.953522 0.752380 0.000000
0.031677 0.933899 0.000000
0.047241 0.948639 0.000000
0.062714 0.948547 0.000000
0.078247 0.948364 0.000000
0.099426 0.947235 0.000000
0.946960 0.896088 0.000000
0.000000 0.019928 0.400330
0.050781 0.000000 0.397644
0.486938 0.000000 0.423706
0.817841 0.000000 0.433075
0.893066 0.000000 0.430176
0.941040 0.000000 0.373352
0.000000 0.089661 0.400909
0.017365 0.054230 0.409546
0.488953 0.000000 0.427002
0.831024 0.000000 0.425659
0.907562 0.000000 0.423218
0.955780 0.000000 0.365417
0.000000 0.417694 0.388428
0.000000 0.423462 0.395142
0.372040 0.353516 0.373016
0.827972 0.212494 0.342255
0.919067 0.000000 0.347351
0.970551 0.000000 0.316559
0.000000 0.786835 0.361725
0.000000 0.800476 0.357452
0.000000 0.799042 0.297699
0.778259 0.732635 0.233795
0.912781 0.498444 0.159668
0.977081 0.005341 0.125977
0.000000 0.885742 0.140991
0.000000 0.900391 0.129913
0.000000 0.914368 0.100891
0.037872 0.912445 0.007050
0.904510 0.850189 0.000000
0.968262 0.731873 0.000000
0.016876 0.933899 0.000000
0.031738 0.948608 0.000000
0.048004 0.963470 0.000000
0.063965 0.963287 0.000000
0.080322 0.962097 0.000000
0.961670 0.909546 0.000000
0.000000 0.039551 0.771606
0.000000 0.023682 0.769562
0.411560 0.000000 0.769409
0.815338 0.000000 0.793243
0.892822 0.000000 0.762024
0.941010 0.000000 0.764557
0.000000 0.109283 0.771973
0.000000 0.079895 0.784668
0.398926 0.000000 0.782562
0.828491 0.000000 0.804413
0.907318 0.000000 0.768646
0.955750 0.000000 0.771423
0.000000 0.457794 0.775177
0.000000 0.450653 0.788177
0.261932 0.323883 0.784210
0.824860 0.202515 0.790649
0.918854 0.000000 0.735809
0.970490 0.000000 0.763641
0.000000 0.787018 0.731110
0.000000 0.800751 0.743652
0.000000 0.800537 0.744629
0.742615 0.737701 0.742889
0.901215 0.498291 0.632996
0.976990 0.005341 0.677643
0.000000 0.885742 0.665619
0.000000 0.900421 0.672913
0.000000 0.914398 0.672638
0.007019 0.912903 0.617584
0.888367 0.861267 0.513733
0.959045 0.679535 0.396881
0.000000 0.933868 0.191986
0.000000 0.948608 0.183197
0.000000 0.963470 0.169128
0.005524 0.970062 0.149170
0.016174 0.968048 0.030975
0.967010 0.912720 0.005585
0.000000 0.064789 0.878845
0.000000 0.037903 0.886841
0.246338 0.000000 0.875854
0.701874 0.000000 0.877289
0.878906 0.000000 0.891968
0.940826 0.000000 0.897186
0.000000 0.119110 0.878967
0.000000 0.093567 0.893219
0.221863 0.000000 0.890106
0.706970 0.000000 0.891541
0.894257 0.000000 0.906433
0.955536 0.000000 0.909119
0.000000 0.444855 0.880280
0.000000 0.436432 0.894684
0.050873 0.317627 0.906158
0.680450 0.158905 0.901550
0.913300 0.000000 0.917999
0.970337 0.000000 0.914429
0.000000 0.797302 0.882385
0.000000 0.806244 0.896912
0.000000 0.788086 0.909027
0.560974 0.630066 0.888214
0.900787 0.473236 0.877441
0.976807 0.005341 0.874115
0.000000 0.885803 0.837799
0.000000 0.900482 0.851471
0.000000 0.914581 0.864777
0.006989 0.914185 0.863647
0.870239 0.868744 0.870331
0.948517 0.694366 0.743988
0.000000 0.933838 0.822571
0.000000 0.948578 0.834412
0.000000 0.963440 0.845825
0.005524 0.970032 0.849304
0.016174 0.968170 0.818024
0.939545 0.920197 0.703979
0.000000 0.086334 0.932739
0.000000 0.067780 0.947449
0.000000 0.016846 0.932190
0.553192 0.000000 0.931702
0.797058 0.000000 0.932251
0.910645 0.000000 0.940247
0.000000 0.122986 0.932770
0.000000 0.105469 0.947449
0.000000 0.033173 0.948181
0.547119 0.000000 0.946350
0.806610 0.000000 0.946930
0.925140 0.000000 0.954987
0.000000 0.441162 0.932861
0.000000 0.434204 0.947540
0.000000 0.373444 0.962036
0.439728 0.078857 0.963531
0.795532 0.000000 0.961212
0.941284 0.000000 0.969696
0.000000 0.789948 0.932983
0.000000 0.797546 0.947723
0.000000 0.783112 0.962372
0.196960 0.603546 0.958313
0.757690 0.396423 0.950867
0.958374 0.005341 0.976105
0.000000 0.916595 0.932983
0.000000 0.929901 0.947723
0.000000 0.940277 0.962616
0.005554 0.926880 0.968842
0.718506 0.745270 0.939850
0.948364 0.678253 0.918579
0.000000 0.933777 0.884766
0.000000 0.948517 0.898743
0.000000 0.963379 0.912811
0.005524 0.969940 0.919464
0.016174 0.968353 0.918060
0.927826 0.927490 0.927856
