assets/configs/ColorAnd3dLutPreset/lutDefault/60_NLog_70_Cinematic/Data/NLog 709 Cinematic.CUBE
#Created by: Adobe Photoshop Export Color Lookup Plugin
#Copyright: (C) Copyright 2024 Wondershare Andy Zhang
TITLE "NLog 709 Cinematic"
#LUT size
LUT_3D_SIZE 12
#data domain
DOMAIN_MIN 0.0 0.0 0.0
DOMAIN_MAX 1.0 1.0 1.0
#LUT data points
0.012390 0.000000 0.013062
0.020477 0.000000 0.014069
0.108765 0.000000 0.018494
0.290161 0.000000 0.027496
0.498352 0.000000 0.038086
0.710083 0.000000 0.050110
0.818665 0.000000 0.060150
0.861694 0.000000 0.070282
0.893158 0.000000 0.081299
0.919006 0.000000 0.085297
0.941071 0.000000 0.078125
0.950012 0.000000 0.054047
0.013000 0.007080 0.013306
0.021027 0.006775 0.013672
0.113007 0.002838 0.014526
0.297516 0.000000 0.020844
0.505707 0.000000 0.031250
0.717438 0.000000 0.043335
0.826019 0.000000 0.053253
0.869049 0.000000 0.063629
0.900513 0.000000 0.074982
0.926361 0.000000 0.078705
0.948425 0.000000 0.071564
0.956757 0.000000 0.046936
0.000000 0.070374 0.008453
0.005280 0.072235 0.006653
0.084351 0.058350 0.005707
0.282135 0.020325 0.000000
0.489929 0.000000 0.012421
0.707581 0.000000 0.023682
0.825378 0.000000 0.034485
0.875824 0.000000 0.047272
0.907623 0.000000 0.061676
0.933655 0.000000 0.068146
0.955780 0.000000 0.062500
0.955780 0.000000 0.038513
0.000000 0.229095 0.000549
0.006805 0.236450 0.000000
0.025635 0.218201 0.000000
0.225861 0.191406 0.000000
0.456482 0.155029 0.000000
0.684998 0.094788 0.000000
0.812378 0.000000 0.006134
0.858643 0.000000 0.020538
0.898529 0.000000 0.028961
0.940186 0.000000 0.046173
0.963074 0.000000 0.047791
0.952240 0.000000 0.027435
0.007507 0.416077 0.000000
0.015106 0.423431 0.000000
0.033478 0.408630 0.000000
0.101196 0.382385 0.000000
0.393280 0.348053 0.000000
0.647949 0.309570 0.000000
0.807617 0.243317 0.000000
0.856232 0.117279 0.000000
0.889618 0.000000 0.014557
0.917999 0.000000 0.016144
0.946869 0.000000 0.023102
0.950012 0.000000 0.017639
0.016296 0.612762 0.000000
0.023773 0.620117 0.000000
0.040009 0.613892 0.000000
0.051575 0.590210 0.000000
0.289520 0.570984 0.000000
0.580322 0.525787 0.000000
0.798370 0.472870 0.000000
0.854309 0.380219 0.000000
0.888489 0.233612 0.000000
0.916626 0.000000 0.008514
0.940735 0.000000 0.009644
0.950012 0.000000 0.010254
0.028625 0.786804 0.000000
0.036194 0.794159 0.000000
0.049377 0.790497 0.000000
0.061096 0.781189 0.000000
0.067993 0.769409 0.000000
0.463348 0.762207 0.000000
0.767365 0.708740 0.000000
0.850647 0.630310 0.000000
0.887451 0.534515 0.000000
0.915955 0.354675 0.000000
0.940399 0.000000 0.002075
0.950012 0.000000 0.002563
0.040527 0.851471 0.000000
0.048157 0.853302 0.000000
0.057098 0.851135 0.000000
0.064545 0.850098 0.000000
0.071808 0.847473 0.000000
0.083313 0.840668 0.000000
0.615601 0.838531 0.000000
0.841064 0.789307 0.000000
0.885071 0.727539 0.000000
0.914948 0.677490 0.000000
0.939850 0.516724 0.000000
0.950012 0.005096 0.000000
0.044098 0.885712 0.000000
0.051453 0.885712 0.000000
0.058807 0.885620 0.000000
0.066345 0.885345 0.000000
0.073639 0.884674 0.000000
0.081085 0.883179 0.000000
0.094604 0.878876 0.000000
0.773560 0.877441 0.000000
0.879059 0.828186 0.000000
0.912933 0.778076 0.000000
0.938812 0.745148 0.000000
0.950012 0.673553 0.000000
0.045410 0.911621 0.000000
0.052734 0.911621 0.000000
0.060089 0.911591 0.000000
0.067657 0.911530 0.000000
0.074982 0.911407 0.000000
0.082489 0.911133 0.000000
0.090027 0.910492 0.000000
0.104645 0.908081 0.000000
0.856598 0.907104 0.000000
0.908020 0.857697 0.000000
0.936829 0.819733 0.000000
0.950012 0.797180 0.000000
0.046539 0.933899 0.000000
0.053802 0.933899 0.000000
0.061401 0.933899 0.000000
0.068634 0.933868 0.000000
0.076141 0.933807 0.000000
0.083649 0.933777 0.000000
0.091187 0.933624 0.000000
0.098907 0.933380 0.000000
0.112244 0.932495 0.000000
0.907471 0.931824 0.000000
0.932251 0.882172 0.000000
0.950012 0.856995 0.000000
0.047333 0.950012 0.000000
0.054749 0.950012 0.000000
0.062164 0.950012 0.000000
0.069580 0.950012 0.000000
0.076996 0.950012 0.000000
0.084381 0.950012 0.000000
0.092072 0.950012 0.000000
0.099731 0.950012 0.000000
0.107147 0.950012 0.000000
0.117371 0.950012 0.000000
0.946991 0.950012 0.000000
0.950012 0.902710 0.000000
0.012024 0.000000 0.020477
0.019470 0.000000 0.020477
0.108765 0.000000 0.025879
0.290161 0.000000 0.034882
0.498352 0.000000 0.045502
0.710083 0.000000 0.057587
0.818665 0.000000 0.067566
0.861694 0.000000 0.077850
0.893158 0.000000 0.088959
0.919006 0.000000 0.092926
0.941071 0.000000 0.085510
0.950012 0.000000 0.061523
0.012207 0.006744 0.021027
0.020325 0.006744 0.021027
0.113007 0.002838 0.022552
0.297516 0.000000 0.028687
0.505707 0.000000 0.038879
0.717438 0.000000 0.050781
0.826019 0.000000 0.060944
0.869049 0.000000 0.071289
0.900513 0.000000 0.082672
0.926361 0.000000 0.086395
0.948425 0.000000 0.078949
0.957367 0.000000 0.054688
0.000000 0.070374 0.016052
0.005280 0.072235 0.014771
0.084167 0.058411 0.013184
0.285950 0.015808 0.002472
0.497314 0.000000 0.020142
0.714966 0.000000 0.031433
0.831879 0.000000 0.042450
0.875824 0.000000 0.054962
0.907623 0.000000 0.069336
0.933655 0.000000 0.075897
0.955780 0.000000 0.070282
0.963165 0.000000 0.046356
0.000000 0.229095 0.007935
0.000000 0.236450 0.001038
0.019135 0.225403 0.000122
0.233185 0.196808 0.000000
0.463837 0.152863 0.000000
0.692352 0.089752 0.000000
0.819733 0.000000 0.013397
0.865997 0.000000 0.027893
0.905975 0.000000 0.036682
0.940826 0.000000 0.053986
0.963226 0.000000 0.055695
0.959625 0.000000 0.034882
0.000092 0.416077 0.000000
0.007355 0.423431 0.000000
0.026611 0.415985 0.000000
0.097137 0.389740 0.000000
0.400635 0.354065 0.000000
0.655304 0.309570 0.000000
0.814972 0.240540 0.000000
0.863586 0.112152 0.000000
0.896973 0.000000 0.021912
0.925354 0.000000 0.023499
0.954254 0.000000 0.030762
0.957367 0.000000 0.025024
0.008820 0.612762 0.000000
0.016205 0.620117 0.000000
0.032959 0.621277 0.000000
0.044861 0.597565 0.000000
0.289185 0.578339 0.000000
0.587677 0.532013 0.000000
0.805725 0.474457 0.000000
0.861664 0.379700 0.000000
0.895844 0.230530 0.000000
0.923981 0.000000 0.015778
0.948090 0.000000 0.016907
0.957367 0.000000 0.017303
0.021332 0.786804 0.000000
0.028900 0.794159 0.000000
0.042236 0.797882 0.000000
0.054474 0.788544 0.000000
0.061493 0.776764 0.000000
0.464630 0.769562 0.000000
0.774719 0.715149 0.000000
0.858002 0.634064 0.000000
0.894806 0.536316 0.000000
0.923309 0.353455 0.000000
0.947754 0.000000 0.009247
0.957367 0.000000 0.009857
0.033325 0.851471 0.000000
0.040894 0.858826 0.000000
0.050293 0.858490 0.000000
0.057800 0.857452 0.000000
0.065308 0.854828 0.000000
0.076813 0.848022 0.000000
0.618500 0.845886 0.000000
0.848419 0.796234 0.000000
0.892426 0.732727 0.000000
0.922302 0.681366 0.000000
0.947205 0.517761 0.000000
0.957367 0.000000 0.002106
0.036743 0.885712 0.000000
0.044434 0.893066 0.000000
0.051880 0.892975 0.000000
0.059479 0.892700 0.000000
0.067078 0.892029 0.000000
0.074585 0.890533 0.000000
0.088287 0.886230 0.000000
0.778961 0.884796 0.000000
0.886414 0.834900 0.000000
0.920288 0.783691 0.000000
0.946167 0.749817 0.000000
0.957367 0.677124 0.000000
0.038055 0.911621 0.000000
0.045807 0.918976 0.000000
0.053162 0.918945 0.000000
0.060822 0.918884 0.000000
0.068420 0.918762 0.000000
0.076019 0.918488 0.000000
0.083771 0.917847 0.000000
0.098572 0.915436 0.000000
0.862885 0.914459 0.000000
0.915375 0.864410 0.000000
0.944183 0.825470 0.000000
0.957367 0.802643 0.000000
0.039215 0.933899 0.000000
0.046875 0.941254 0.000000
0.054474 0.941254 0.000000
0.062073 0.941223 0.000000
0.069611 0.941162 0.000000
0.077209 0.941132 0.000000
0.084778 0.940979 0.000000
0.092590 0.940735 0.000000
0.106232 0.939850 0.000000
0.914185 0.939178 0.000000
0.939606 0.889130 0.000000
0.957367 0.863159 0.000000
0.039886 0.950012 0.000000
0.047699 0.957367 0.000000
0.055176 0.957367 0.000000
0.062836 0.957367 0.000000
0.070374 0.957367 0.000000
0.078064 0.957367 0.000000
0.085571 0.957367 0.000000
0.093262 0.957367 0.000000
0.100983 0.957367 0.000000
0.111481 0.957367 0.000000
0.953857 0.957367 0.000000
0.957367 0.909698 0.000000
0.006470 0.000000 0.083160
0.013855 0.000000 0.083160
0.105591 0.000000 0.087921
0.288574 0.000000 0.096375
0.497345 0.000000 0.105408
0.709625 0.000000 0.114868
0.818634 0.000000 0.118530
0.861694 0.000000 0.120544
0.893158 0.000000 0.123413
0.919006 0.000000 0.119354
0.941071 0.000000 0.103577
0.950012 0.000000 0.076080
0.003937 0.004486 0.086395
0.011322 0.003937 0.086395
0.109680 0.002960 0.090149
0.295929 0.000000 0.093262
0.504700 0.000000 0.100555
0.716980 0.000000 0.109375
0.825989 0.000000 0.112732
0.869049 0.000000 0.114777
0.900513 0.000000 0.117615
0.926361 0.000000 0.113312
0.948425 0.000000 0.097443
0.957367 0.000000 0.069397
0.000000 0.074097 0.082062
0.004547 0.075684 0.084686
0.074402 0.055664 0.075378
0.281738 0.018890 0.073730
0.499817 0.000000 0.082855
0.718567 0.000000 0.090698
0.831787 0.000000 0.094391
0.875824 0.000000 0.098999
0.907623 0.000000 0.104370
0.933655 0.000000 0.103027
0.955780 0.000000 0.088898
0.964752 0.000000 0.061523
0.000000 0.229279 0.065369
0.000000 0.236633 0.062225
0.005096 0.225372 0.048950
0.228180 0.194763 0.036102
0.469147 0.141632 0.022461
0.709137 0.066101 0.009399
0.839142 0.000000 0.036438
0.880829 0.000000 0.055237
0.914124 0.000000 0.071899
0.940826 0.000000 0.081299
0.963226 0.000000 0.074768
0.972229 0.000000 0.050323
0.000000 0.416199 0.049774
0.000000 0.423553 0.044342
0.000000 0.421753 0.027069
0.078857 0.392578 0.007843
0.402649 0.356201 0.005096
0.662079 0.304199 0.000000
0.821655 0.231689 0.000000
0.870361 0.099457 0.000000
0.904236 0.000000 0.029572
0.940582 0.000000 0.039490
0.970581 0.000000 0.050232
0.966461 0.000000 0.034485
0.000000 0.612823 0.033417
0.000000 0.620178 0.026947
0.000000 0.623169 0.011536
0.031921 0.611115 0.000000
0.280182 0.582275 0.000000
0.590973 0.534851 0.000000
0.811920 0.471375 0.000000
0.868439 0.372528 0.000000
0.902893 0.219543 0.000000
0.931305 0.000000 0.023193
0.955475 0.000000 0.024506
0.964752 0.000000 0.024963
0.000000 0.786804 0.012085
0.000000 0.794159 0.005249
0.007629 0.800385 0.000000
0.038635 0.803436 0.000000
0.054535 0.783844 0.000000
0.458862 0.775391 0.000000
0.780396 0.720367 0.000000
0.864716 0.634399 0.000000
0.901825 0.532806 0.000000
0.930511 0.345520 0.000000
0.955139 0.000000 0.016571
0.964752 0.000000 0.017181
0.008942 0.851471 0.000000
0.016144 0.858826 0.000000
0.027283 0.865875 0.000000
0.047089 0.868591 0.000000
0.058319 0.862213 0.000000
0.068268 0.855255 0.000000
0.616760 0.852600 0.000000
0.855164 0.802124 0.000000
0.899475 0.735229 0.000000
0.929596 0.681549 0.000000
0.954559 0.514801 0.000000
0.964752 0.000000 0.009186
0.027893 0.885712 0.000000
0.035217 0.893066 0.000000
0.044373 0.900360 0.000000
0.052521 0.900085 0.000000
0.060181 0.899414 0.000000
0.067963 0.897919 0.000000
0.080292 0.893555 0.000000
0.781281 0.891907 0.000000
0.893524 0.841614 0.000000
0.927551 0.787598 0.000000
0.953522 0.752380 0.000000
0.964752 0.678345 0.000000
0.030701 0.911621 0.000000
0.038361 0.918976 0.000000
0.046173 0.926331 0.000000
0.053833 0.926270 0.000000
0.061554 0.926147 0.000000
0.069183 0.925873 0.000000
0.077026 0.925232 0.000000
0.091248 0.922791 0.000000
0.867737 0.921753 0.000000
0.922699 0.871338 0.000000
0.951569 0.830750 0.000000
0.964752 0.806702 0.000000
0.031677 0.933899 0.000000
0.039307 0.941254 0.000000
0.047241 0.948639 0.000000
0.054901 0.948608 0.000000
0.062714 0.948547 0.000000
0.070435 0.948517 0.000000
0.078247 0.948364 0.000000
0.086151 0.948120 0.000000
0.099426 0.947235 0.000000
0.919983 0.946564 0.000000
0.946960 0.896088 0.000000
0.964752 0.869110 0.000000
0.032501 0.950012 0.000000
0.040192 0.957367 0.000000
0.048065 0.964752 0.000000
0.055786 0.964752 0.000000
0.063324 0.964752 0.000000
0.071136 0.964752 0.000000
0.078918 0.964752 0.000000
0.086884 0.964752 0.000000
0.094666 0.964752 0.000000
0.105042 0.964752 0.000000
0.960754 0.964752 0.000000
0.964752 0.916718 0.000000
0.000000 0.009155 0.230408
0.000000 0.001862 0.230408
0.082550 0.000000 0.229156
0.283020 0.000000 0.243622
0.493835 0.000000 0.254883
0.708008 0.000000 0.267578
0.818359 0.000000 0.269135
0.861633 0.000000 0.268433
0.893127 0.000000 0.262299
0.919006 0.000000 0.222137
0.941071 0.000000 0.166107
0.950012 0.000000 0.111786
0.000000 0.016754 0.232697
0.000000 0.009399 0.237762
0.080597 0.000000 0.236511
0.290375 0.000000 0.248474
0.501190 0.000000 0.254639
0.715363 0.000000 0.265289
0.825714 0.000000 0.266113
0.868988 0.000000 0.265198
0.900482 0.000000 0.258759
0.926361 0.000000 0.217804
0.948425 0.000000 0.160919
0.957367 0.000000 0.105652
0.000000 0.081024 0.230499
0.000000 0.078156 0.237854
0.036407 0.039398 0.232361
0.275726 0.017883 0.241241
0.496155 0.000000 0.245178
0.716766 0.000000 0.253204
0.831543 0.000000 0.253357
0.875732 0.000000 0.253143
0.907593 0.000000 0.247742
0.933655 0.000000 0.207642
0.955780 0.000000 0.152618
0.964752 0.000000 0.098206
0.000000 0.231964 0.222443
0.000000 0.239319 0.229553
0.004547 0.230988 0.225159
0.212463 0.191406 0.213501
0.460938 0.137177 0.201508
0.703064 0.074707 0.207245
0.842621 0.000000 0.211487
0.880737 0.000000 0.215454
0.914093 0.000000 0.215790
0.940826 0.000000 0.182159
0.963226 0.000000 0.136871
0.972229 0.000000 0.087067
0.000000 0.416687 0.213135
0.000000 0.424042 0.213562
0.000000 0.422333 0.204681
0.031677 0.389984 0.170898
0.392242 0.356323 0.152069
0.660828 0.290222 0.134674
0.832062 0.203339 0.110016
0.884430 0.079498 0.116272
0.919128 0.000000 0.141602
0.947632 0.000000 0.133942
0.970581 0.000000 0.109222
0.979675 0.000000 0.071045
0.000000 0.613007 0.196350
0.000000 0.620361 0.194000
0.000000 0.623383 0.184296
0.000000 0.612885 0.150665
0.239258 0.580505 0.104095
0.586426 0.537567 0.096619
0.822388 0.463501 0.073792
0.883392 0.351746 0.042206
0.921448 0.183502 0.007202
0.948090 0.000000 0.041199
0.977783 0.000061 0.063049
0.986176 0.000000 0.047974
0.000000 0.786835 0.145233
0.000000 0.794189 0.140961
0.000000 0.800446 0.131317
0.000000 0.803497 0.105927
0.000000 0.798676 0.040375
0.435547 0.784943 0.018524
0.789490 0.729126 0.010132
0.878357 0.628967 0.000000
0.908020 0.513855 0.000000
0.937408 0.318573 0.000000
0.962585 0.000000 0.024445
0.972229 0.000000 0.024933
0.000000 0.851501 0.071960
0.000000 0.858856 0.066040
0.000000 0.865906 0.056610
0.000000 0.872314 0.038544
0.000000 0.877197 0.003204
0.057770 0.863312 0.000000
0.601227 0.857452 0.000000
0.860016 0.806274 0.000000
0.905670 0.729431 0.000000
0.936554 0.670624 0.000000
0.962006 0.499084 0.000000
0.972229 0.000000 0.016846
0.000000 0.885712 0.013611
0.000000 0.893066 0.006744
0.001770 0.900360 0.000000
0.014618 0.907562 0.000000
0.035187 0.914368 0.000000
0.060181 0.906189 0.000000
0.068634 0.900848 0.000000
0.775482 0.898285 0.000000
0.899933 0.847198 0.000000
0.934601 0.786743 0.000000
0.960968 0.748871 0.000000
0.972229 0.673859 0.000000
0.023132 0.911621 0.000000
0.030731 0.918976 0.000000
0.038452 0.926331 0.000000
0.046539 0.933716 0.000000
0.054260 0.933624 0.000000
0.062195 0.933350 0.000000
0.070160 0.932709 0.000000
0.081299 0.930206 0.000000
0.868988 0.928864 0.000000
0.929840 0.877869 0.000000
0.958984 0.833496 0.000000
0.972229 0.808228 0.000000
0.024384 0.933899 0.000000
0.031708 0.941254 0.000000
0.039612 0.948639 0.000000
0.047638 0.956085 0.000000
0.055298 0.956024 0.000000
0.063232 0.955994 0.000000
0.071167 0.955841 0.000000
0.079102 0.955597 0.000000
0.091125 0.954712 0.000000
0.924377 0.953949 0.000000
0.954376 0.902893 0.000000
0.972229 0.873962 0.000000
0.025055 0.950012 0.000000
0.032532 0.957367 0.000000
0.040283 0.964752 0.000000
0.048431 0.972229 0.000000
0.056183 0.972229 0.000000
0.064087 0.972229 0.000000
0.071960 0.972229 0.000000
0.079987 0.972229 0.000000
0.088074 0.972229 0.000000
0.097534 0.972229 0.000000
0.966766 0.972229 0.000000
0.972229 0.923798 0.000000
0.000000 0.019928 0.400330
0.000000 0.012604 0.400330
0.050781 0.000000 0.397644
0.252075 0.000000 0.398193
0.486938 0.000000 0.423706
0.704834 0.000000 0.437256
0.817841 0.000000 0.433075
0.861511 0.000000 0.428009
0.893066 0.000000 0.430176
0.918976 0.000000 0.424500
0.941040 0.000000 0.373352
0.950012 0.000000 0.204102
0.000000 0.027283 0.400330
0.000000 0.020294 0.407684
0.045471 0.000000 0.404999
0.254364 0.000000 0.405548
0.494293 0.000000 0.428772
0.712189 0.000000 0.438507
0.825195 0.000000 0.432953
0.868866 0.000000 0.427429
0.900421 0.000000 0.429321
0.926331 0.000000 0.423584
0.948395 0.000000 0.371399
0.957367 0.000000 0.199371
0.000000 0.089661 0.400909
0.000000 0.085022 0.408264
0.017365 0.054230 0.409546
0.236969 0.012451 0.408020
0.488953 0.000000 0.427002
0.712433 0.000000 0.432404
0.831024 0.000000 0.425659
0.875580 0.000000 0.420044
0.907562 0.000000 0.423218
0.933624 0.000000 0.418488
0.955780 0.000000 0.365417
0.964752 0.000000 0.192444
0.000000 0.251282 0.403961
0.000000 0.252563 0.411316
0.000000 0.239929 0.410858
0.158783 0.168610 0.397919
0.453186 0.131012 0.404968
0.698242 0.072571 0.405426
0.841339 0.000000 0.399109
0.880615 0.000000 0.392365
0.914062 0.000000 0.401245
0.940826 0.000000 0.402435
0.963226 0.000000 0.349457
0.972229 0.000000 0.179932
0.000000 0.417694 0.388428
0.000000 0.425049 0.395050
0.000000 0.423462 0.395142
0.018524 0.390594 0.371948
0.372040 0.353516 0.373016
0.652069 0.293152 0.356720
0.827972 0.212494 0.342255
0.884003 0.084839 0.331757
0.919067 0.000000 0.347351
0.947632 0.000000 0.367157
0.970551 0.000000 0.316559
0.979675 0.000000 0.160004
0.000000 0.613281 0.381348
0.000000 0.620636 0.383514
0.000000 0.623657 0.380188
0.000000 0.613556 0.359497
0.175171 0.578766 0.313690
0.577332 0.542542 0.300537
0.814606 0.453613 0.277771
0.875946 0.331848 0.236511
0.913666 0.181580 0.241364
0.952454 0.000732 0.284637
0.977783 0.000061 0.255737
0.987183 0.000000 0.132568
0.000000 0.786835 0.361725
0.000000 0.794189 0.361420
0.000000 0.800476 0.357452
0.000000 0.803619 0.342163
0.000000 0.799042 0.297699
0.378418 0.776733 0.241211
0.778259 0.732635 0.233795
0.871948 0.624237 0.200989
0.912781 0.498444 0.159668
0.945679 0.274078 0.100555
0.977081 0.005341 0.125977
0.987122 0.005066 0.088928
0.000000 0.851532 0.308319
0.000000 0.858887 0.306580
0.000000 0.865936 0.302094
0.000000 0.872375 0.290497
0.000000 0.877289 0.265167
0.002838 0.873108 0.196075
0.561615 0.859344 0.133728
0.861938 0.814453 0.115601
0.912567 0.719025 0.069214
0.948303 0.642395 0.014557
0.969330 0.455078 0.000000
0.979675 0.000000 0.024628
0.000000 0.885742 0.140991
0.000000 0.893097 0.136261
0.000000 0.900391 0.129913
0.000000 0.907562 0.118988
0.000000 0.914368 0.100891
0.001648 0.917908 0.069458
0.037872 0.912445 0.007050
0.752197 0.902740 0.000000
0.904510 0.850189 0.000000
0.940948 0.774628 0.000000
0.968262 0.731873 0.000000
0.979675 0.657013 0.000000
0.000000 0.911621 0.012695
0.000000 0.918976 0.005615
0.002045 0.926331 0.000000
0.011383 0.933716 0.000000
0.023438 0.941071 0.000000
0.040588 0.946960 0.000885
0.060547 0.942657 0.000000
0.070953 0.937500 0.000000
0.862610 0.935455 0.000000
0.936462 0.883423 0.000000
0.966278 0.831818 0.000000
0.979675 0.804352 0.000000
0.016876 0.933899 0.000000
0.024139 0.941254 0.000000
0.031738 0.948608 0.000000
0.039917 0.956085 0.000000
0.048004 0.963470 0.000000
0.055908 0.963440 0.000000
0.063965 0.963287 0.000000
0.072205 0.963043 0.000000
0.080322 0.962097 0.000000
0.925323 0.961243 0.000000
0.961670 0.909546 0.000000
0.979675 0.877319 0.000000
0.017639 0.950012 0.000000
0.025024 0.957367 0.000000
0.032776 0.964752 0.000000
0.040588 0.972229 0.000000
0.048767 0.979675 0.000000
0.056610 0.979675 0.000000
0.064819 0.979675 0.000000
0.072937 0.979675 0.000000
0.081085 0.979675 0.000000
0.089203 0.979675 0.000000
0.972015 0.979675 0.000000
0.979675 0.930878 0.000000
0.000000 0.029358 0.589233
0.000000 0.022003 0.589233
0.006012 0.000000 0.585938
0.223328 0.000000 0.585999
0.445953 0.000000 0.586761
0.697906 0.000000 0.623108
0.816956 0.000000 0.611725
0.861267 0.000000 0.597382
0.892944 0.000000 0.595367
0.918915 0.000000 0.596069
0.941040 0.000000 0.582642
0.950012 0.000000 0.505615
0.000000 0.036652 0.589233
0.000000 0.029724 0.596588
0.000000 0.001007 0.593292
0.221924 0.000000 0.593353
0.450073 0.000000 0.594116
0.705261 0.000000 0.628479
0.824310 0.000000 0.615021
0.868622 0.000000 0.599731
0.900299 0.000000 0.597412
0.926270 0.000000 0.597900
0.948395 0.000000 0.583954
0.957367 0.000000 0.505554
0.000000 0.099487 0.589722
0.000000 0.094025 0.597076
0.000000 0.069733 0.601379
0.196777 0.004669 0.605255
0.440765 0.000000 0.597412
0.705231 0.000000 0.629120
0.830048 0.000000 0.613220
0.875366 0.000000 0.596893
0.907471 0.000000 0.595093
0.933594 0.000000 0.596710
0.955780 0.000000 0.583130
0.964752 0.000000 0.503326
0.000000 0.262573 0.591553
0.000000 0.261292 0.598907
0.000000 0.246185 0.601318
0.124084 0.177856 0.596008
0.404236 0.119202 0.594604
0.690277 0.068970 0.618378
0.839294 0.000000 0.602203
0.880371 0.000000 0.578613
0.913971 0.000000 0.580383
0.940765 0.000000 0.587280
0.963196 0.000000 0.576599
0.972229 0.000000 0.495605
0.000000 0.448914 0.594299
0.000000 0.452271 0.601654
0.000000 0.446259 0.604675
0.004059 0.413147 0.595428
0.310699 0.326508 0.583557
0.644257 0.280457 0.589813
0.826843 0.208862 0.565643
0.883820 0.081787 0.536072
0.919006 0.000000 0.538483
0.947571 0.000000 0.562164
0.970520 0.000000 0.560120
0.979675 0.000000 0.479309
0.000000 0.613586 0.564911
0.000000 0.620941 0.571533
0.000000 0.624146 0.575073
0.000000 0.614563 0.568939
0.151550 0.577850 0.550598
0.552185 0.540161 0.552826
0.806854 0.464203 0.526062
0.872284 0.344360 0.481964
0.913666 0.179230 0.460754
0.952423 0.000732 0.496002
0.977753 0.000061 0.525665
0.987183 0.000000 0.449493
0.000000 0.786896 0.548279
0.000000 0.794250 0.551483
0.000000 0.800568 0.552551
0.000000 0.803833 0.546753
0.000000 0.799622 0.522797
0.311615 0.774780 0.478302
0.767517 0.737823 0.470551
0.864563 0.621368 0.426636
0.905487 0.486145 0.371521
0.938843 0.276672 0.359955
0.977051 0.005341 0.434113
0.987122 0.005066 0.386169
0.000000 0.851593 0.514587
0.000000 0.858948 0.516510
0.000000 0.866028 0.516541
0.000000 0.872467 0.511627
0.000000 0.877380 0.497162
0.002808 0.873474 0.449158
0.503815 0.852112 0.373230
0.853638 0.819763 0.363586
0.903290 0.717407 0.321075
0.937592 0.632446 0.267975
0.967865 0.408783 0.191742
0.986816 0.010254 0.214508
0.000000 0.885742 0.446106
0.000000 0.893097 0.446564
0.000000 0.900391 0.445587
0.000000 0.907593 0.441833
0.000000 0.914398 0.432434
0.001648 0.917969 0.411224
0.007019 0.912659 0.340454
0.704559 0.896088 0.232056
0.897919 0.855286 0.210663
0.938629 0.757385 0.154907
0.972748 0.687744 0.046906
0.987183 0.603973 0.000000
0.000000 0.911621 0.184509
0.000000 0.918976 0.180603
0.000000 0.926331 0.175507
0.000000 0.933716 0.167999
0.000000 0.941071 0.157623
0.000885 0.946960 0.142456
0.006134 0.945984 0.118164
0.011475 0.942657 0.017426
0.832275 0.938904 0.001099
0.940216 0.885437 0.001068
0.973145 0.816864 0.000183
0.987183 0.787140 0.000000
0.006622 0.933899 0.000000
0.013794 0.941254 0.000000
0.021301 0.948608 0.000000
0.029633 0.956085 0.000000
0.038330 0.963470 0.000000
0.048553 0.970551 0.000275
0.056854 0.970398 0.000275
0.064941 0.970123 0.000275
0.073212 0.969116 0.000305
0.920197 0.967896 0.000336
0.968384 0.915436 0.000305
0.987183 0.876312 0.000000
0.010254 0.950012 0.000000
0.017303 0.957367 0.000000
0.024963 0.964752 0.000000
0.032776 0.972229 0.000000
0.040894 0.979675 0.000000
0.049133 0.987183 0.000000
0.057373 0.987183 0.000000
0.065552 0.987183 0.000000
0.073761 0.987183 0.000000
0.081909 0.987183 0.000000
0.975616 0.987183 0.000000
0.987183 0.938019 0.000000
0.000000 0.039551 0.771606
0.000000 0.032288 0.772736
0.000000 0.023682 0.769562
0.175323 0.000000 0.768860
0.411560 0.000000 0.769409
0.641571 0.000000 0.770416
0.815338 0.000000 0.793243
0.860870 0.000000 0.769012
0.892822 0.000000 0.762024
0.918854 0.000000 0.763611
0.941010 0.000000 0.764557
0.950012 0.000000 0.736176
0.000000 0.046906 0.771606
0.000000 0.039948 0.778961
0.000000 0.031097 0.776917
0.171509 0.000000 0.776215
