assets/configs/ColorAnd3dLutPreset/lutDefault/60_lut_Dark_Film/Data/Dark Film.CUBE
#Created by: Adobe Photoshop Export Color Lookup Plugin
#Copyright: (C) Copyright 2016 Wondershare Inc.
TITLE "Dark Film"
#LUT size
LUT_3D_SIZE 5
#data domain
#LUT data points
DOMAIN_MIN 0.000000 0.000000 0.000000
DOMAIN_MAX 0.903226 0.903226 0.903226
0.000000 0.000000 0.000000
0.050781 0.018097 0.018097
0.138916 0.018311 0.018311
0.276703 0.006927 0.006927
0.548096 0.000000 0.000000
0.001709 0.108246 0.001709
0.125702 0.125702 0.000000
0.315186 0.123260 0.000000
0.556549 0.115936 0.000000
0.785583 0.110077 0.000000
0.000000 0.337402 0.000000
0.108490 0.333740 0.000000
0.330048 0.330048 0.000000
0.553101 0.327362 0.000000
0.778687 0.326874 0.000000
0.000000 0.552704 0.000000
0.101288 0.553253 0.000000
0.331512 0.557709 0.000000
0.567780 0.567780 0.000000
0.814240 0.587738 0.000000
0.000000 0.799957 0.000000
0.144562 0.824280 0.000000
0.403961 0.857269 0.000000
0.675476 0.883759 0.054321
0.887451 0.887451 0.486237
0.007812 0.007812 0.017639
0.064301 0.020294 0.064301
0.150604 0.015289 0.082977
0.320221 0.000854 0.107056
0.589142 0.000000 0.125458
0.000000 0.117371 0.117371
0.125214 0.125214 0.125214
0.324738 0.121277 0.121277
0.562195 0.113007 0.113007
0.784393 0.108612 0.108612
0.000000 0.336334 0.111237
0.107056 0.332397 0.107056
0.329010 0.329010 0.103455
0.552734 0.326935 0.101166
0.779205 0.327240 0.101257
0.000000 0.552582 0.100861
0.102173 0.554291 0.102173
0.333954 0.560211 0.107727
0.573547 0.573547 0.120728
0.823578 0.597046 0.143921
0.000000 0.807007 0.127594
0.154877 0.834686 0.154877
0.416565 0.869476 0.190125
0.703644 0.885101 0.341583
0.896027 0.896027 0.709961
0.014099 0.014099 0.056946
0.072876 0.020020 0.125641
0.164429 0.011383 0.164429
0.367035 0.000000 0.242035
0.623383 0.000000 0.290924
0.000000 0.123779 0.266296
0.124420 0.124420 0.304291
0.332184 0.118744 0.332184
0.561615 0.111420 0.336517
0.783173 0.107178 0.332489
0.000000 0.334961 0.334961
0.105743 0.331146 0.331146
0.328156 0.328156 0.328156
0.552582 0.326721 0.326721
0.780212 0.328125 0.328125
0.000000 0.552826 0.326904
0.103455 0.555725 0.329590
0.337433 0.563751 0.337433
0.580322 0.580322 0.353821
0.834045 0.607452 0.380829
0.000000 0.815125 0.362061
0.166260 0.846161 0.392883
0.435883 0.878937 0.435883
0.741943 0.884918 0.599579
0.910156 0.910156 0.841797
0.018341 0.018341 0.118195
0.078888 0.018188 0.200165
0.188324 0.006592 0.278992
0.408569 0.000000 0.408569
0.662109 0.000000 0.482849
0.000000 0.125671 0.437744
0.123230 0.123230 0.508179
0.336182 0.115784 0.556549
0.560272 0.109894 0.560272
0.782104 0.105865 0.556671
0.000000 0.333557 0.558868
0.104492 0.329987 0.555511
0.327454 0.327454 0.553162
0.552826 0.326904 0.552826
0.781647 0.329437 0.555573
0.000000 0.553375 0.553375
0.105408 0.557770 0.557770
0.341614 0.567993 0.567993
0.588593 0.588593 0.588593
0.845337 0.618713 0.618713
0.000000 0.824646 0.598083
0.178131 0.858093 0.631439
0.470184 0.883942 0.677032
0.788727 0.887817 0.788727
0.925873 0.925873 0.908508
0.020447 0.020447 0.198761
0.083130 0.015106 0.286957
0.215179 0.000824 0.429932
0.436066 0.000000 0.591187
0.699158 0.000000 0.699158
0.000000 0.125000 0.628693
0.121246 0.121246 0.733429
0.337616 0.112854 0.787109
0.558990 0.108459 0.784241
0.781067 0.104584 0.781067
0.000000 0.332245 0.782959
0.103333 0.328888 0.780029
0.327026 0.327026 0.778595
0.553345 0.327332 0.779297
0.783691 0.331360 0.783691
0.000000 0.554413 0.780457
0.107849 0.560333 0.786560
0.347351 0.573792 0.800201
0.597748 0.597748 0.824280
0.857239 0.630585 0.857239
0.000000 0.835358 0.835358
0.190948 0.870300 0.870300
0.525970 0.885101 0.885101
0.835968 0.896698 0.896698
0.942688 0.942688 0.942688
