assets/configs/ColorAnd3dLutPreset/lutDefault/60_lut_Dark_Film/Data/Dark Film.CUBE
#Created by: Adobe Photoshop Export Color Lookup Plugin
#Copyright: (C) Copyright 2016 Wondershare Inc.
TITLE "Dark Film"
#LUT size
LUT_3D_SIZE 8
#data domain
#LUT data points
DOMAIN_MIN 0.000000 0.000000 0.000000
DOMAIN_MAX 0.903226 0.903226 0.903226
0.000000 0.000000 0.000000
0.022522 0.012360 0.012360
0.062378 0.019348 0.019348
0.111877 0.019897 0.019897
0.167816 0.015869 0.015869
0.247284 0.009064 0.009064
0.379547 0.000183 0.000183
0.548096 0.000000 0.000000
0.018738 0.052277 0.018738
0.054962 0.054962 0.013489
0.112396 0.059174 0.006195
0.202728 0.063110 0.000000
0.317780 0.061096 0.000000
0.440521 0.051849 0.000000
0.588409 0.041016 0.000000
0.751373 0.029449 0.000000
0.000000 0.139587 0.000000
0.058105 0.148224 0.000000
0.149902 0.149902 0.000000
0.264160 0.150604 0.000000
0.395386 0.148865 0.000000
0.530060 0.145142 0.000000
0.657196 0.142548 0.000000
0.783813 0.140137 0.000000
0.000000 0.267975 0.000000
0.021820 0.273285 0.000000
0.144104 0.272705 0.000000
0.270355 0.270355 0.000000
0.396912 0.268127 0.000000
0.523621 0.265900 0.000000
0.650848 0.264099 0.000000
0.778778 0.262848 0.000000
0.000000 0.398285 0.000000
0.009674 0.396057 0.000000
0.136322 0.394073 0.000000
0.263641 0.392609 0.000000
0.391632 0.391632 0.000000
0.520416 0.391357 0.000000
0.650208 0.391937 0.000000
0.781464 0.393890 0.000000
0.000000 0.521118 0.000000
0.004272 0.520416 0.000000
0.133209 0.520508 0.000000
0.263367 0.521729 0.000000
0.394928 0.524139 0.000000
0.528168 0.528168 0.000000
0.664062 0.534698 0.000000
0.803284 0.544495 0.000000
0.000000 0.651611 0.000000
0.008331 0.654541 0.000000
0.142212 0.659424 0.000000
0.279022 0.667114 0.000000
0.419434 0.678253 0.000000
0.563477 0.692902 0.000000
0.710846 0.710846 0.000000
0.860229 0.730713 0.000000
0.000000 0.799957 0.000000
0.035675 0.812256 0.000000
0.181030 0.828430 0.000000
0.329346 0.847351 0.000000
0.479187 0.867676 0.000000
0.635803 0.882111 0.024200
0.786438 0.885040 0.196564
0.887451 0.887451 0.486237
0.004547 0.004547 0.007446
0.029480 0.015381 0.029480
0.070496 0.020325 0.045410
0.118713 0.018921 0.052185
0.175476 0.013763 0.054199
0.269928 0.006073 0.058868
0.410950 0.000000 0.063110
0.573669 0.000000 0.061310
0.017303 0.053406 0.053406
0.055695 0.055695 0.055695
0.119598 0.060944 0.060944
0.214539 0.063324 0.063324
0.327332 0.058411 0.058411
0.453918 0.048370 0.048370
0.604004 0.037109 0.037109
0.764984 0.025665 0.025665
0.000000 0.144043 0.062469
0.054871 0.148865 0.054871
0.150543 0.150543 0.044403
0.267517 0.150330 0.032928
0.398499 0.147766 0.022308
0.529999 0.144165 0.015564
0.656464 0.141724 0.013031
0.783173 0.139374 0.010620
0.000000 0.270630 0.028717
0.019226 0.273407 0.019226
0.143280 0.271912 0.014648
0.269592 0.269592 0.012177
0.396088 0.267273 0.009705
0.523010 0.265259 0.007538
0.650452 0.263641 0.005768
0.778625 0.262604 0.004608
0.000000 0.397583 0.011322
0.008820 0.395264 0.008820
0.135712 0.393524 0.006836
0.263214 0.392212 0.005310
0.391418 0.391418 0.004303
0.520538 0.391449 0.004150
0.650848 0.392517 0.005035
0.782562 0.394897 0.007233
0.000000 0.520782 0.004822
0.004120 0.520264 0.004120
0.133423 0.520813 0.004333
0.264069 0.522461 0.005737
0.396179 0.525391 0.008423
0.530151 0.530151 0.012939
0.666962 0.537628 0.020172
0.807343 0.548553 0.030884
0.000000 0.652466 0.006409
0.009674 0.655975 0.009674
0.144501 0.661804 0.015198
0.282410 0.670563 0.023651
0.423950 0.682800 0.035645
0.569153 0.698608 0.051239
0.717438 0.717438 0.069916
0.867218 0.737732 0.090240
0.000000 0.803802 0.027435
0.040741 0.817444 0.040741
0.187134 0.834564 0.057648
0.336121 0.854156 0.077087
0.487335 0.873871 0.100830
0.649963 0.884216 0.182098
0.799164 0.884857 0.372223
0.891541 0.891541 0.626801
0.008850 0.008850 0.021942
0.035675 0.017731 0.053497
0.076691 0.020416 0.076691
0.124817 0.017517 0.089081
0.185822 0.011475 0.098663
0.292999 0.002411 0.118683
0.441803 0.000000 0.139313
0.594208 0.000000 0.147736
0.015533 0.054199 0.092651
0.057190 0.057190 0.105499
0.126526 0.062225 0.126526
0.224884 0.062714 0.143799
0.335541 0.055145 0.148621
0.467041 0.044708 0.150299
0.618744 0.033203 0.150330
0.775452 0.022186 0.147736
0.000000 0.146881 0.146881
0.051331 0.149292 0.149292
0.150757 0.150757 0.150757
0.270203 0.149750 0.149750
0.400513 0.146423 0.146423
0.529236 0.143311 0.143311
0.655762 0.140930 0.140930
0.782562 0.138641 0.138641
0.000000 0.272308 0.148590
0.016785 0.273254 0.145020
0.142487 0.271118 0.142487
0.268860 0.268860 0.140137
0.395416 0.266571 0.137756
0.522430 0.264618 0.135742
0.650116 0.263214 0.134277
0.778534 0.262421 0.133392
0.000000 0.396698 0.139130
0.008118 0.394653 0.136963
0.135193 0.393036 0.135193
0.262909 0.391907 0.133911
0.391296 0.391296 0.133179
0.520782 0.391663 0.133423
0.651581 0.393219 0.134857
0.783752 0.396057 0.137543
0.000000 0.520508 0.133484
0.004089 0.520325 0.133087
0.133789 0.521210 0.133789
0.264771 0.523193 0.135590
0.397491 0.526764 0.138947
0.532501 0.532501 0.144531
0.670471 0.541107 0.152954
0.811890 0.553040 0.164734
0.000000 0.653320 0.136414
0.011230 0.657654 0.140503
0.147064 0.664429 0.147064
0.286163 0.674347 0.156769
0.428986 0.687866 0.170074
0.575317 0.704803 0.186859
0.724213 0.724213 0.206177
0.873260 0.744598 0.229980
0.000000 0.807922 0.160858
0.046265 0.823029 0.175720
0.193634 0.841125 0.193634
0.342957 0.861023 0.213440
0.498688 0.878815 0.245361
0.667786 0.885071 0.342499
0.814117 0.885468 0.529999
0.897705 0.897705 0.733551
0.012512 0.012512 0.043457
0.041168 0.019409 0.084473
0.081543 0.019836 0.112305
0.130188 0.015747 0.130188
0.200653 0.008911 0.152740
0.317505 0.000214 0.189789
0.468567 0.000000 0.225281
0.613312 0.000000 0.241180
0.013428 0.054779 0.136963
0.059296 0.059296 0.166229
0.133240 0.063080 0.203247
0.232574 0.060944 0.232574
0.343872 0.051636 0.246460
0.479614 0.040833 0.260254
0.631622 0.029297 0.270264
0.783478 0.018921 0.273773
0.000000 0.148224 0.238251
0.047821 0.149933 0.251709
0.150635 0.150635 0.264282
0.272125 0.148834 0.272125
0.401581 0.145050 0.273285
0.528503 0.142517 0.271179
0.655121 0.140137 0.268890
0.781952 0.137878 0.266693
0.000000 0.273193 0.273193
0.015472 0.272675 0.272675
0.141663 0.270355 0.270355
0.268036 0.268036 0.268036
0.394714 0.265839 0.265839
0.521973 0.264130 0.264130
0.649872 0.262909 0.262909
0.778412 0.262207 0.262207
0.000000 0.395966 0.267151
0.007477 0.394073 0.265198
0.134735 0.392609 0.263672
0.262573 0.391602 0.262573
0.391327 0.391327 0.262238
0.521179 0.392059 0.262909
0.652374 0.393982 0.264771
0.785065 0.397308 0.268005
0.000000 0.520355 0.262268
0.004150 0.520569 0.262329
0.134308 0.521820 0.263489
0.265717 0.524200 0.265717
0.399048 0.528320 0.269745
0.535004 0.535004 0.276306
0.674225 0.544830 0.286011
0.817017 0.558136 0.299225
0.000000 0.654633 0.266876
0.013092 0.659607 0.271698
0.149872 0.667328 0.279236
0.290100 0.678345 0.290100
0.434387 0.693298 0.304901
0.581818 0.711304 0.322815
0.731049 0.731049 0.342499
0.878052 0.751556 0.372375
0.000000 0.812561 0.294830
0.051971 0.828827 0.310913
0.200165 0.847717 0.329681
0.350067 0.867859 0.350067
0.514008 0.882233 0.391357
0.689484 0.885071 0.494385
0.830597 0.887665 0.660400
0.905762 0.905762 0.812225
0.015533 0.015533 0.072266
0.045685 0.020355 0.121429
0.085724 0.018860 0.152496
0.135468 0.013641 0.176025
0.218048 0.005859 0.218048
0.343048 0.000000 0.273132
0.489288 0.000000 0.318054
0.634064 0.000000 0.342926
0.011017 0.055542 0.188019
0.061066 0.061066 0.237762
0.139343 0.063324 0.291107
0.237946 0.058228 0.327728
0.352997 0.048126 0.352997
0.491425 0.036896 0.377838
0.642365 0.025482 0.395660
0.787567 0.016541 0.402069
0.000000 0.148804 0.336578
0.044220 0.150543 0.362640
0.150330 0.150330 0.384918
0.273071 0.147675 0.398438
0.401337 0.144104 0.401337
0.527802 0.141724 0.399109
0.654388 0.139343 0.396881
0.781219 0.137024 0.394714
0.000000 0.273438 0.400635
0.014648 0.271912 0.400574
0.140869 0.269562 0.398315
0.267181 0.267181 0.395996
0.394104 0.265228 0.394104
0.521576 0.263672 0.392639
0.649628 0.262634 0.391663
0.778442 0.262146 0.391235
0.000000 0.395294 0.395294
0.006836 0.393524 0.393524
0.134277 0.392212 0.392212
0.262299 0.391357 0.391357
0.391510 0.391510 0.391510
0.521820 0.392670 0.392670
0.653442 0.395020 0.395020
0.786682 0.398865 0.398865
0.000000 0.520294 0.391235
0.004395 0.520874 0.391754
0.134888 0.522461 0.393280
0.266907 0.525421 0.396179
0.401062 0.530365 0.401062
0.537964 0.537964 0.408600
0.678162 0.548737 0.419342
0.822296 0.563385 0.433929
0.000000 0.656128 0.397614
0.015381 0.662018 0.403381
0.153168 0.670685 0.411926
0.294708 0.682983 0.424133
0.440094 0.699036 0.440094
0.588348 0.717834 0.458862
0.738037 0.738037 0.479187
0.881561 0.758881 0.513977
0.000000 0.817780 0.429474
0.058075 0.834991 0.446564
0.206818 0.854370 0.465851
0.359283 0.874237 0.488037
0.534576 0.884308 0.534576
0.715179 0.884918 0.630646
0.847870 0.891846 0.760529
0.914429 0.914429 0.865509
0.017853 0.017853 0.107971
0.048737 0.020416 0.161865
0.089294 0.017456 0.196899
0.142639 0.011322 0.230011
0.236115 0.002197 0.294464
0.367615 0.000000 0.367615
0.505859 0.000000 0.416382
0.656525 0.000000 0.453796
0.008392 0.057220 0.251099
0.062317 0.062317 0.320374
0.144012 0.062653 0.387878
0.242249 0.054932 0.429413
0.362091 0.044495 0.467834
0.502319 0.032990 0.502319
0.650238 0.021973 0.524597
0.787201 0.015594 0.529999
0.000000 0.149292 0.442902
0.040375 0.150757 0.481049
0.149689 0.149689 0.511383
0.273438 0.146301 0.527588
0.400604 0.143311 0.529236
0.527069 0.140930 0.527069
0.653656 0.138489 0.524872
0.780670 0.136353 0.522949
0.000000 0.273346 0.530121
0.013824 0.271118 0.528473
0.140045 0.268799 0.526276
0.266510 0.266510 0.524139
0.393555 0.264648 0.522430
0.521179 0.263245 0.521179
0.649384 0.262299 0.520386
0.778656 0.262268 0.520477
0.000000 0.394684 0.523499
0.006287 0.393036 0.521942
0.133820 0.391815 0.520782
0.262177 0.391266 0.520325
0.391754 0.391754 0.520874
0.522491 0.393311 0.522491
0.654510 0.396057 0.525299
0.788727 0.400848 0.530121
0.000000 0.520386 0.520386
0.004700 0.521271 0.521271
0.135529 0.523163 0.523163
0.268280 0.526855 0.526855
0.403381 0.532715 0.532715
0.541473 0.541473 0.541473
0.682770 0.553345 0.553345
0.828064 0.569122 0.569122
0.000000 0.657776 0.528503
0.017822 0.664551 0.535217
0.156891 0.674500 0.545105
0.299835 0.688202 0.558777
0.446289 0.705231 0.575745
0.595123 0.724640 0.595123
0.744934 0.744934 0.616547
0.883789 0.767059 0.650757
0.000000 0.823425 0.564514
0.064362 0.841339 0.582336
0.213715 0.861298 0.602295
0.373016 0.879120 0.626068
0.561096 0.885101 0.669067
0.744202 0.885559 0.744202
0.865723 0.898254 0.833405
0.923523 0.923523 0.901459
0.019562 0.019562 0.150970
0.050812 0.019836 0.205566
0.092194 0.015656 0.245087
0.153229 0.008759 0.297363
0.254883 0.000092 0.383118
0.388550 0.000000 0.469849
0.521118 0.000000 0.521118
0.678192 0.000000 0.572601
0.005707 0.059418 0.328033
0.063171 0.063171 0.415070
0.146881 0.060822 0.490753
0.246704 0.051453 0.539307
0.370483 0.040649 0.590179
0.511719 0.029083 0.632294
0.656158 0.018707 0.656158
0.786499 0.014740 0.657898
0.000000 0.149994 0.558319
0.036438 0.150665 0.606598
0.148712 0.148712 0.642151
0.273376 0.144989 0.658478
0.399841 0.142517 0.657166
0.526337 0.140106 0.655060
0.653015 0.137726 0.653015
0.780182 0.135773 0.651337
0.000000 0.272675 0.658508
0.012909 0.270264 0.656342
0.139191 0.267944 0.654266
0.265839 0.265839 0.652374
0.393097 0.264160 0.650909
0.520844 0.262848 0.649811
0.649323 0.262146 0.649323
0.778961 0.262512 0.649872
0.000000 0.394073 0.651794
0.005737 0.392578 0.650421
0.133484 0.391510 0.649536
0.262238 0.391327 0.649475
0.392120 0.392120 0.650391
0.523193 0.393982 0.652374
0.655914 0.397430 0.655945
0.791016 0.403076 0.661682
0.000000 0.520599 0.649689
0.005188 0.521851 0.651001
0.136505 0.524200 0.653412
0.269867 0.528442 0.657745
0.405823 0.535156 0.664490
0.545013 0.545013 0.674377
0.687927 0.558472 0.687927
0.834259 0.575287 0.704773
0.000000 0.659760 0.659760
0.020508 0.667328 0.667328
0.160980 0.678619 0.678619
0.305267 0.693665 0.693665
0.452728 0.711700 0.711700
0.601807 0.731323 0.731323
0.751984 0.751984 0.751984
0.884705 0.776367 0.776367
0.000000 0.829193 0.699738
0.070892 0.847931 0.718445
0.221039 0.868347 0.738892
0.392609 0.882477 0.760010
0.593781 0.885040 0.787903
0.775177 0.887848 0.831451
0.883118 0.906311 0.883118
0.933167 0.933167 0.926147
0.020447 0.020447 0.198761
0.052399 0.018799 0.253632
0.094910 0.013519 0.298065
0.165771 0.005707 0.378784
0.274323 0.000000 0.484955
0.404510 0.000000 0.576080
0.537964 0.000000 0.635162
0.699158 0.000000 0.699158
0.002594 0.061127 0.416260
0.063385 0.063385 0.520630
0.148102 0.058044 0.597992
0.251709 0.047974 0.658783
0.378326 0.036713 0.719666
0.519348 0.025269 0.766235
0.658875 0.016510 0.787354
0.785828 0.013885 0.785828
0.000000 0.150604 0.682281
0.032471 0.150269 0.738129
0.147583 0.147583 0.774872
0.272705 0.144104 0.787140
0.399078 0.141693 0.785126
0.525543 0.139221 0.783051
0.652374 0.137024 0.781219
0.779785 0.135223 0.779785
0.000000 0.271912 0.786469
0.012054 0.269470 0.784332
0.138397 0.267151 0.782349
0.265228 0.265228 0.780701
0.392548 0.263611 0.779358
0.520599 0.262543 0.778595
0.649445 0.262207 0.778503
0.779449 0.262878 0.779449
0.000000 0.393524 0.780182
0.005157 0.392059 0.778931
0.133270 0.391357 0.778442
0.262421 0.391541 0.778809
0.392639 0.392639 0.780090
0.524231 0.395020 0.782654
0.657593 0.399017 0.786865
0.793518 0.405548 0.793518
0.000000 0.520844 0.779083
0.005646 0.522400 0.780731
0.137726 0.525482 0.783966
0.271851 0.530457 0.789062
0.408661 0.538025 0.796722
0.548981 0.548981 0.807800
0.693268 0.563812 0.822723
0.840637 0.581665 0.840637
0.000000 0.662140 0.791443
0.023834 0.670746 0.800140
0.165558 0.683289 0.812714
0.310944 0.699402 0.828857
0.459076 0.718079 0.847565
0.608978 0.738403 0.867798
0.759430 0.759430 0.881531
0.884918 0.787048 0.884918
0.000000 0.835358 0.835358
0.077637 0.854736 0.854736
0.231110 0.874695 0.874695
0.419708 0.884460 0.884460
0.632202 0.884827 0.884827
0.805756 0.892151 0.892151
0.898895 0.914978 0.914978
0.942688 0.942688 0.942688
