assets/configs/ColorAnd3dLutPreset/lutDefault/60_lut_Dark_Film/Data/Dark Film.CUBE
#Created by: Adobe Photoshop Export Color Lookup Plugin
#Copyright: (C) Copyright 2016 Wondershare Inc.
TITLE "Dark Film"
#LUT size
LUT_3D_SIZE 32
#data domain
DOMAIN_MIN 0.0 0.0 0.0
DOMAIN_MAX 1.0 1.0 1.0
#LUT data points
0.000000 0.000000 0.000000
0.003784 0.003296 0.003296
0.008881 0.006561 0.006561
0.015228 0.009674 0.009674
0.022522 0.012360 0.012360
0.030884 0.014618 0.014618
0.040283 0.016541 0.016541
0.050781 0.018097 0.018097
0.062378 0.019348 0.019348
0.074768 0.020203 0.020203
0.087067 0.020477 0.020477
0.099335 0.020355 0.020355
0.111877 0.019897 0.019897
0.125061 0.019196 0.019196
0.138916 0.018311 0.018311
0.153198 0.017181 0.017181
0.167816 0.015869 0.015869
0.183167 0.014343 0.014343
0.200287 0.012695 0.012695
0.221466 0.010956 0.010956
0.247284 0.009064 0.009064
0.276703 0.006927 0.006927
0.308411 0.004425 0.004425
0.342346 0.001587 0.001587
0.379547 0.000183 0.000183
0.420105 0.000000 0.000000
0.462463 0.000000 0.000000
0.505646 0.000000 0.000000
0.548096 0.000000 0.000000
0.588470 0.000000 0.000000
0.627411 0.000000 0.000000
0.665802 0.000000 0.000000
0.010590 0.012695 0.010590
0.015930 0.015930 0.013062
0.022430 0.018921 0.015320
0.029816 0.021362 0.017090
0.038269 0.023499 0.018524
0.047729 0.025269 0.019592
0.057892 0.026581 0.020233
0.068481 0.027344 0.020447
0.079132 0.027588 0.020172
0.090271 0.027527 0.019623
0.102051 0.027222 0.018860
0.114441 0.026703 0.017883
0.127502 0.025970 0.016693
0.141205 0.025055 0.015320
0.155731 0.023956 0.013733
0.172211 0.022797 0.012024
0.192200 0.021698 0.010223
0.216278 0.020599 0.008301
0.243774 0.019287 0.006134
0.273254 0.017670 0.003662
0.304749 0.015717 0.000977
0.339050 0.013489 0.000000
0.375977 0.010925 0.000000
0.415009 0.008026 0.000000
0.454956 0.004761 0.000000
0.493774 0.001160 0.000000
0.530853 0.000183 0.000000
0.566864 0.000031 0.000000
0.603088 0.000000 0.000000
0.641052 0.000000 0.000000
0.681549 0.000000 0.000000
0.724335 0.000000 0.000000
0.017670 0.026703 0.017670
0.024170 0.029388 0.018951
0.031616 0.031616 0.019836
0.039825 0.033356 0.020294
0.048523 0.034454 0.020294
0.057678 0.035095 0.019958
0.067535 0.035461 0.019348
0.078003 0.035553 0.018494
0.089111 0.035431 0.017456
0.100922 0.035095 0.016174
0.113464 0.034576 0.014709
0.127075 0.033936 0.013092
0.142822 0.033417 0.011353
0.161621 0.033051 0.009491
0.183807 0.032776 0.007568
0.208618 0.032318 0.005402
0.235321 0.031586 0.002899
0.264557 0.030579 0.000763
0.296326 0.029297 0.000000
0.330109 0.027710 0.000000
0.365448 0.025757 0.000000
0.401367 0.023376 0.000000
0.437042 0.020599 0.000000
0.471405 0.017365 0.000000
0.505188 0.013794 0.000000
0.539612 0.010010 0.000000
0.575653 0.006073 0.000000
0.614258 0.002045 0.000000
0.655548 0.000671 0.000000
0.697815 0.000366 0.000000
0.740723 0.000153 0.000000
0.784821 0.000000 0.000000
0.020386 0.040588 0.020386
0.027496 0.041992 0.020233
0.035217 0.042969 0.019714
0.043671 0.043671 0.018982
0.052795 0.044159 0.018097
0.062775 0.044495 0.016998
0.073395 0.044617 0.015656
0.084808 0.044556 0.014099
0.097321 0.044434 0.012421
0.111786 0.044525 0.010620
0.129181 0.045044 0.008728
0.149323 0.045654 0.006866
0.171570 0.046112 0.004700
0.195618 0.046234 0.002197
0.221924 0.046143 0.000336
0.250702 0.045837 0.000000
0.281647 0.045258 0.000000
0.313599 0.044189 0.000000
0.346039 0.042633 0.000000
0.378143 0.040558 0.000000
0.409790 0.037964 0.000000
0.441772 0.035095 0.000000
0.474609 0.031952 0.000000
0.509003 0.028687 0.000000
0.545654 0.025391 0.000000
0.584412 0.022003 0.000000
0.624359 0.018524 0.000000
0.665619 0.014954 0.000000
0.707550 0.011292 0.000000
0.750305 0.007660 0.000000
0.793610 0.004089 0.000000
0.836975 0.001740 0.000000
0.018738 0.052277 0.018738
0.026581 0.053131 0.017731
0.035156 0.053802 0.016510
0.044617 0.054443 0.015106
0.054962 0.054962 0.013489
0.066223 0.055389 0.011719
0.079224 0.056244 0.009857
0.094635 0.057617 0.008057
0.112396 0.059174 0.006195
0.132202 0.060608 0.004028
0.153656 0.061646 0.001678
0.177124 0.062500 0.000000
0.202728 0.063110 0.000000
0.230133 0.063354 0.000000
0.258972 0.063202 0.000000
0.288513 0.062500 0.000000
0.317780 0.061096 0.000000
0.346985 0.059143 0.000000
0.376740 0.056854 0.000000
0.407623 0.054352 0.000000
0.440521 0.051849 0.000000
0.475494 0.049286 0.000000
0.512024 0.046661 0.000000
0.549652 0.043915 0.000000
0.588409 0.041016 0.000000
0.628479 0.038177 0.000000
0.669159 0.035278 0.000000
0.710266 0.032379 0.000000
0.751373 0.029449 0.000000
0.792267 0.026581 0.000000
0.832642 0.023834 0.000000
0.872345 0.021393 0.000000
0.014557 0.064362 0.014557
0.023438 0.065430 0.012909
0.033386 0.066711 0.011108
0.044861 0.068573 0.009155
0.058167 0.070953 0.007385
0.073486 0.073486 0.005554
0.090393 0.075714 0.003418
0.109070 0.077667 0.001099
0.129913 0.079590 0.000000
0.152496 0.081116 0.000000
0.176727 0.082245 0.000000
0.202332 0.082855 0.000000
0.228699 0.082825 0.000000
0.255493 0.082123 0.000000
0.282532 0.080811 0.000000
0.310303 0.079163 0.000000
0.339417 0.077362 0.000000
0.370300 0.075500 0.000000
0.403290 0.073730 0.000000
0.437836 0.071899 0.000000
0.473328 0.069855 0.000000
0.509857 0.067688 0.000000
0.547394 0.065460 0.000000
0.585907 0.063263 0.000000
0.625214 0.061066 0.000000
0.664429 0.058807 0.000000
0.703369 0.056458 0.000000
0.741638 0.054260 0.000000
0.779266 0.052185 0.000000
0.816376 0.050201 0.000000
0.852203 0.048767 0.000000
0.883942 0.048065 0.000000
0.008453 0.081421 0.008453
0.019348 0.084991 0.006500
0.031921 0.088440 0.004669
0.046173 0.091583 0.002594
0.062195 0.094513 0.000244
0.080017 0.097260 0.000000
0.099670 0.099670 0.000000
0.121033 0.101746 0.000000
0.143616 0.103149 0.000000
0.167175 0.103760 0.000000
0.191376 0.103638 0.000000
0.216278 0.102966 0.000000
0.242279 0.101990 0.000000
0.269592 0.100891 0.000000
0.298584 0.099792 0.000000
0.329346 0.098724 0.000000
0.361633 0.097595 0.000000
0.395081 0.096283 0.000000
0.429657 0.094879 0.000000
0.465179 0.093353 0.000000
0.501556 0.091797 0.000000
0.538513 0.090149 0.000000
0.575684 0.088379 0.000000
0.613129 0.086670 0.000000
0.649658 0.084991 0.000000
0.685822 0.083313 0.000000
0.721649 0.081696 0.000000
0.755371 0.080566 0.000000
0.787354 0.080017 0.000000
0.818970 0.079407 0.000000
0.850586 0.078735 0.000000
0.882202 0.078064 0.000000
0.001709 0.108246 0.001709
0.012787 0.112213 0.000000
0.027771 0.115936 0.000000
0.044525 0.119232 0.000000
0.062897 0.121948 0.000000
0.082733 0.123962 0.000000
0.103760 0.125275 0.000000
0.125702 0.125702 0.000000
0.148560 0.125641 0.000000
0.172577 0.125305 0.000000
0.197968 0.124878 0.000000
0.225189 0.124634 0.000000
0.253906 0.124329 0.000000
0.283966 0.123901 0.000000
0.315186 0.123260 0.000000
0.347626 0.122498 0.000000
0.381287 0.121704 0.000000
0.415771 0.120789 0.000000
0.450745 0.119690 0.000000
0.486084 0.118439 0.000000
0.521454 0.117157 0.000000
0.556549 0.115936 0.000000
0.591583 0.114655 0.000000
0.626312 0.113373 0.000000
0.658966 0.112488 0.000000
0.690582 0.111847 0.000000
0.722229 0.111237 0.000000
0.753937 0.110687 0.000000
0.785583 0.110077 0.000000
0.817200 0.109406 0.000000
0.848846 0.108765 0.000000
0.880524 0.108154 0.000000
0.000000 0.139587 0.000000
0.004242 0.142944 0.000000
0.019775 0.145477 0.000000
0.038300 0.147156 0.000000
0.058105 0.148224 0.000000
0.079010 0.148773 0.000000
0.101196 0.149109 0.000000
0.124725 0.149445 0.000000
0.149902 0.149902 0.000000
0.176575 0.150391 0.000000
0.204681 0.150757 0.000000
0.233795 0.150757 0.000000
0.264160 0.150604 0.000000
0.295746 0.150421 0.000000
0.328247 0.150055 0.000000
0.361572 0.149567 0.000000
0.395386 0.148865 0.000000
0.429047 0.148010 0.000000
0.462769 0.147064 0.000000
0.496582 0.146057 0.000000
0.530060 0.145142 0.000000
0.562408 0.144440 0.000000
0.593994 0.143829 0.000000
0.625580 0.143188 0.000000
0.657196 0.142548 0.000000
0.688812 0.141937 0.000000
0.720551 0.141388 0.000000
0.752197 0.140778 0.000000
0.783813 0.140137 0.000000
0.815491 0.139526 0.000000
0.847168 0.138916 0.000000
0.878998 0.138458 0.000000
0.000000 0.169525 0.000000
0.000000 0.171082 0.000000
0.008453 0.172272 0.000000
0.028076 0.173492 0.000000
0.049683 0.174591 0.000000
0.072815 0.175812 0.000000
0.097473 0.177032 0.000000
0.123413 0.177948 0.000000
0.150665 0.178650 0.000000
0.179291 0.179291 0.000000
0.208923 0.179626 0.000000
0.239624 0.179810 0.000000
0.271179 0.179779 0.000000
0.303314 0.179504 0.000000
0.335785 0.179108 0.000000
0.368408 0.178467 0.000000
0.401245 0.177704 0.000000
0.433838 0.176941 0.000000
0.465698 0.176331 0.000000
0.497345 0.175781 0.000000
0.528961 0.175171 0.000000
0.560547 0.174530 0.000000
0.592102 0.173889 0.000000
0.623718 0.173248 0.000000
0.655426 0.172699 0.000000
0.687134 0.172180 0.000000
0.718811 0.171570 0.000000
0.750458 0.170959 0.000000
0.782135 0.170349 0.000000
0.813934 0.169830 0.000000
0.845764 0.169373 0.000000
0.877594 0.168884 0.000000
0.000000 0.198242 0.000000
0.000000 0.200317 0.000000
0.000397 0.202332 0.000000
0.016541 0.204193 0.000000
0.040527 0.205750 0.000000
0.065857 0.207123 0.000000
0.092590 0.208282 0.000000
0.120667 0.209381 0.000000
0.149719 0.210022 0.000000
0.179688 0.210358 0.000000
0.210388 0.210388 0.000000
0.241699 0.210266 0.000000
0.273346 0.209900 0.000000
0.305450 0.209503 0.000000
0.337494 0.208893 0.000000
0.369019 0.208252 0.000000
0.400665 0.207703 0.000000
0.432190 0.207062 0.000000
0.463837 0.206482 0.000000
0.495483 0.205902 0.000000
0.527069 0.205261 0.000000
0.558655 0.204651 0.000000
0.590332 0.204071 0.000000
0.622009 0.203491 0.000000
0.653748 0.202972 0.000000
0.685455 0.202423 0.000000
0.717163 0.201874 0.000000
0.748901 0.201324 0.000000
0.780731 0.200836 0.000000
0.812653 0.200470 0.000000
0.844513 0.200012 0.000000
0.876373 0.199585 0.000000
0.000000 0.231903 0.000000
0.000000 0.234161 0.000000
0.000000 0.236115 0.000000
0.005920 0.237854 0.000000
0.030792 0.239380 0.000000
0.058319 0.240509 0.000000
0.087006 0.241394 0.000000
0.116638 0.241730 0.000000
0.147003 0.241730 0.000000
0.177948 0.241577 0.000000
0.209229 0.241272 0.000000
0.240753 0.240753 0.000000
0.272430 0.240265 0.000000
0.303925 0.239624 0.000000
0.335480 0.238983 0.000000
0.367096 0.238434 0.000000
0.398712 0.237823 0.000000
0.430389 0.237305 0.000000
0.461975 0.236664 0.000000
0.493591 0.236053 0.000000
0.525208 0.235443 0.000000
0.556946 0.234955 0.000000
0.588684 0.234436 0.000000
0.620453 0.233948 0.000000
0.652191 0.233398 0.000000
0.683929 0.232880 0.000000
0.715729 0.232422 0.000000
0.747650 0.232056 0.000000
0.779633 0.231720 0.000000
0.811554 0.231323 0.000000
0.843475 0.230957 0.000000
0.875488 0.230621 0.000000
0.000000 0.267975 0.000000
0.000000 0.269897 0.000000
0.000000 0.271423 0.000000
0.001251 0.272552 0.000000
0.021820 0.273285 0.000000
0.051605 0.273499 0.000000
0.081909 0.273438 0.000000
0.112671 0.273224 0.000000
0.144104 0.272705 0.000000
0.175659 0.272125 0.000000
0.207275 0.271606 0.000000
0.238831 0.270996 0.000000
0.270355 0.270355 0.000000
0.301910 0.269714 0.000000
0.333557 0.269196 0.000000
0.365143 0.268616 0.000000
0.396912 0.268127 0.000000
0.428528 0.267517 0.000000
0.460144 0.266937 0.000000
0.491882 0.266449 0.000000
0.523621 0.265900 0.000000
0.555389 0.265442 0.000000
0.587219 0.265015 0.000000
0.619019 0.264526 0.000000
0.650848 0.264099 0.000000
0.682800 0.263763 0.000000
0.714722 0.263397 0.000000
0.746735 0.263123 0.000000
0.778778 0.262848 0.000000
0.810852 0.262604 0.000000
0.842926 0.262360 0.000000
0.875153 0.262268 0.000000
0.000000 0.304169 0.000000
0.000000 0.304901 0.000000
0.000000 0.305267 0.000000
0.001038 0.305420 0.000000
0.015961 0.305298 0.000000
0.047455 0.304688 0.000000
0.078979 0.304077 0.000000
0.110535 0.303497 0.000000
0.142059 0.302887 0.000000
0.173676 0.302368 0.000000
0.205231 0.301758 0.000000
0.236786 0.301147 0.000000
0.268433 0.300598 0.000000
0.300049 0.300049 0.000000
0.331635 0.299438 0.000000
0.363403 0.299011 0.000000
0.395111 0.298462 0.000000
0.426819 0.297943 0.000000
0.458588 0.297485 0.000000
0.490387 0.297058 0.000000
0.522278 0.296692 0.000000
0.554108 0.296265 0.000000
0.585968 0.295868 0.000000
0.617889 0.295502 0.000000
0.649933 0.295258 0.000000
0.682007 0.295044 0.000000
0.714142 0.294861 0.000000
0.746216 0.294647 0.000000
0.778381 0.294495 0.000000
0.810577 0.294373 0.000000
0.843018 0.294434 0.000000
0.875488 0.294617 0.000000
0.000000 0.337402 0.000000
0.000000 0.337189 0.000000
0.000000 0.336700 0.000000
0.000854 0.336060 0.000000
0.013794 0.335449 0.000000
0.045319 0.334839 0.000000
0.076874 0.334259 0.000000
0.108490 0.333740 0.000000
0.140106 0.333191 0.000000
0.171661 0.332611 0.000000
0.203247 0.332001 0.000000
0.234894 0.331482 0.000000
0.266541 0.330963 0.000000
0.298309 0.330536 0.000000
0.330048 0.330048 0.000000
0.361755 0.329529 0.000000
0.393524 0.329041 0.000000
0.425415 0.328705 0.000000
0.457275 0.328339 0.000000
0.489258 0.328033 0.000000
0.521149 0.327698 0.000000
0.553101 0.327362 0.000000
0.585205 0.327179 0.000000
0.617279 0.326996 0.000000
0.649475 0.326904 0.000000
0.681671 0.326782 0.000000
0.713898 0.326721 0.000000
0.746216 0.326721 0.000000
0.778687 0.326874 0.000000
0.811127 0.326935 0.000000
0.843719 0.327240 0.000000
0.876343 0.327484 0.000000
0.000000 0.367981 0.000000
0.000000 0.367462 0.000000
0.000000 0.366852 0.000000
0.000641 0.366211 0.000000
0.011658 0.365631 0.000000
0.043274 0.365112 0.000000
0.074860 0.364594 0.000000
0.106506 0.364075 0.000000
0.138092 0.363495 0.000000
0.169739 0.362976 0.000000
0.201477 0.362518 0.000000
0.233185 0.362030 0.000000
0.264954 0.361603 0.000000
0.296753 0.361206 0.000000
0.328552 0.360779 0.000000
0.360443 0.360443 0.000000
0.392395 0.360138 0.000000
0.424316 0.359802 0.000000
0.456390 0.359619 0.000000
0.488403 0.359375 0.000000
0.520477 0.359161 0.000000
0.552643 0.359070 0.000000
0.584900 0.359039 0.000000
0.617218 0.359070 0.000000
0.649536 0.359100 0.000000
0.681915 0.359161 0.000000
0.714355 0.359253 0.000000
0.746948 0.359558 0.000000
0.779694 0.359955 0.000000
0.812408 0.360352 0.000000
0.845184 0.360779 0.000000
0.878021 0.361237 0.000000
0.000000 0.398285 0.000000
0.000000 0.397675 0.000000
0.000000 0.397095 0.000000
0.000488 0.396545 0.000000
0.009674 0.396057 0.000000
0.041351 0.395599 0.000000
0.072998 0.395081 0.000000
0.104645 0.394562 0.000000
0.136322 0.394073 0.000000
0.168091 0.393677 0.000000
0.199921 0.393280 0.000000
0.231812 0.392975 0.000000
0.263641 0.392609 0.000000
0.295502 0.392242 0.000000
0.327423 0.391937 0.000000
0.359497 0.391785 0.000000
0.391632 0.391632 0.000000
0.423767 0.391510 0.000000
0.455872 0.391357 0.000000
0.488037 0.391235 0.000000
0.520416 0.391357 0.000000
0.552795 0.391418 0.000000
0.585236 0.391602 0.000000
0.617676 0.391754 0.000000
0.650208 0.391937 0.000000
0.682922 0.392365 0.000000
0.715729 0.392822 0.000000
0.748566 0.393341 0.000000
0.781464 0.393890 0.000000
0.814453 0.394531 0.000000
0.847565 0.395294 0.000000
0.880890 0.396271 0.000000
0.000000 0.428589 0.000000
0.000000 0.428009 0.000000
0.000000 0.427490 0.000000
0.000305 0.427063 0.000000
0.007874 0.426666 0.000000
0.039551 0.426178 0.000000
0.071259 0.425720 0.000000
0.103058 0.425354 0.000000
0.134949 0.425049 0.000000
0.166779 0.424713 0.000000
0.198730 0.424438 0.000000
0.230652 0.424133 0.000000
0.262634 0.423889 0.000000
0.294769 0.423798 0.000000
0.326874 0.423676 0.000000
0.359039 0.423584 0.000000
0.391327 0.423584 0.000000
0.423615 0.423615 0.000000
0.455994 0.423737 0.000000
0.488495 0.423920 0.000000
0.520935 0.424103 0.000000
0.553589 0.424438 0.000000
0.586243 0.424805 0.000000
0.618988 0.425232 0.000000
0.651855 0.425781 0.000000
0.684845 0.426453 0.000000
0.717926 0.427216 0.000000
0.751099 0.428040 0.000000
0.784332 0.428925 0.000000
0.817657 0.429871 0.000000
0.851227 0.431091 0.000000
0.885040 0.432526 0.000000
0.000000 0.459045 0.000000
0.000000 0.458679 0.000000
0.000000 0.458221 0.000000
0.000153 0.457855 0.000000
0.006226 0.457458 0.000000
0.038055 0.457092 0.000000
0.069916 0.456787 0.000000
0.101868 0.456543 0.000000
0.133881 0.456360 0.000000
0.165863 0.456146 0.000000
0.197906 0.455963 0.000000
0.230011 0.455811 0.000000
0.262207 0.455811 0.000000
0.294464 0.455841 0.000000
0.326874 0.455963 0.000000
0.359222 0.456085 0.000000
0.391663 0.456207 0.000000
0.424164 0.456421 0.000000
0.456879 0.456879 0.000000
0.489594 0.457306 0.000000
0.522430 0.457825 0.000000
0.555206 0.458313 0.000000
0.588104 0.458893 0.000000
0.621338 0.459808 0.000000
0.654541 0.460693 0.000000
0.687866 0.461700 0.000000
0.721252 0.462708 0.000000
0.754761 0.463867 0.000000
0.788544 0.465302 0.000000
0.822571 0.466980 0.000000
0.856659 0.468689 0.000000
0.890900 0.470551 0.000000
0.000000 0.489899 0.000000
0.000000 0.489624 0.000000
0.000000 0.489258 0.000000
0.000061 0.488922 0.000000
0.004974 0.488617 0.000000
0.036926 0.488403 0.000000
0.069031 0.488312 0.000000
0.101166 0.488251 0.000000
0.133240 0.488129 0.000000
0.165375 0.488037 0.000000
0.197693 0.488098 0.000000
0.230072 0.488251 0.000000
0.262421 0.488403 0.000000
0.294952 0.488647 0.000000
0.327423 0.488861 0.000000
0.360016 0.489197 0.000000
0.392914 0.489777 0.000000
0.425720 0.490295 0.000000
0.458557 0.490845 0.000000
0.491577 0.491577 0.000000
0.524689 0.492371 0.000000
0.557922 0.493286 0.000000
0.591370 0.494415 0.000000
0.624756 0.495483 0.000000
0.658417 0.496796 0.000000
0.692200 0.498260 0.000000
0.726166 0.499878 0.000000
0.760284 0.501617 0.000000
0.794678 0.503662 0.000000
0.829315 0.505920 0.000000
0.864136 0.508362 0.000000
0.899139 0.510986 0.000000
0.000000 0.521118 0.000000
0.000000 0.520844 0.000000
0.000000 0.520599 0.000000
0.000000 0.520447 0.000000
0.004272 0.520416 0.000000
0.036407 0.520355 0.000000
0.068634 0.520386 0.000000
0.100891 0.520386 0.000000
0.133209 0.520508 0.000000
0.165619 0.520691 0.000000
0.198151 0.520966 0.000000
0.230743 0.521332 0.000000
0.263367 0.521729 0.000000
0.296112 0.522186 0.000000
0.328888 0.522705 0.000000
0.361877 0.523407 0.000000
0.394928 0.524139 0.000000
0.428162 0.525116 0.000000
0.461426 0.526062 0.000000
0.494720 0.527039 0.000000
0.528168 0.528168 0.000000
0.561981 0.529663 0.000000
0.595886 0.531250 0.000000
0.629974 0.532990 0.000000
0.664062 0.534698 0.000000
0.698334 0.536682 0.000000
0.733215 0.539185 0.000000
0.768158 0.541748 0.000000
0.803284 0.544495 0.000000
0.838531 0.547363 0.000000
0.873993 0.550476 0.000000
0.909882 0.553955 0.000000
0.000000 0.552704 0.000000
0.000000 0.552582 0.000000
0.000000 0.552521 0.000000
0.000000 0.552582 0.000000
0.004120 0.552734 0.000000
0.036499 0.552887 0.000000
0.068848 0.553070 0.000000
0.101288 0.553253 0.000000
0.133881 0.553650 0.000000
0.166656 0.554169 0.000000
0.199463 0.554718 0.000000
0.232269 0.555298 0.000000
0.265137 0.555908 0.000000
0.298248 0.556732 0.000000
0.331512 0.557709 0.000000
0.364807 0.558716 0.000000
0.398254 0.559814 0.000000
0.431732 0.561005 0.000000
0.465454 0.562439 0.000000
0.499573 0.564240 0.000000
0.533661 0.565979 0.000000
0.567780 0.567780 0.000000
0.602295 0.569946 0.000000
0.637024 0.572357 0.000000
0.672028 0.574982 0.000000
0.707367 0.577972 0.000000
0.742706 0.580963 0.000000
0.778351 0.584229 0.000000
0.814240 0.587738 0.000000
0.850372 0.591492 0.000000
0.886597 0.595337 0.000000
0.923309 0.599640 0.000000
0.000000 0.584839 0.000000
0.000000 0.584961 0.000000
0.000000 0.585236 0.000000
0.000061 0.585449 0.000000
0.004608 0.585724 0.000000
0.037170 0.586060 0.000000
0.069855 0.586548 0.000000
0.102722 0.587158 0.000000
0.135590 0.587799 0.000000
0.168579 0.588531 0.000000
0.201630 0.589325 0.000000
0.234833 0.590271 0.000000
0.268188 0.591370 0.000000
0.301636 0.592529 0.000000
0.335266 0.593872 0.000000
0.369080 0.595398 0.000000
0.403076 0.597076 0.000000
0.437164 0.598816 0.000000
0.471527 0.600891 0.000000
0.506104 0.603149 0.000000
0.541077 0.605774 0.000000
0.576141 0.608490 0.000000
0.611298 0.611298 0.000000
0.646637 0.614288 0.000000
0.682617 0.617889 0.000000
0.718658 0.621552 0.000000
0.754883 0.625458 0.000000
0.791168 0.629333 0.000000
0.827606 0.633423 0.000000
0.864655 0.638062 0.000000
0.901581 0.642639 0.000000
0.938751 0.647400 0.000000
0.000000 0.617737 0.000000
0.000000 0.618164 0.000000
0.000000 0.618591 0.000000
0.000214 0.619080 0.000000
0.005951 0.619629 0.000000
0.038788 0.620239 0.000000
0.071838 0.621033 0.000000
0.105042 0.622009 0.000000
0.138306 0.623016 0.000000
0.171600 0.624054 0.000000
0.205017 0.625183 0.000000
0.238708 0.626617 0.000000
0.272675 0.628296 0.000000
0.306732 0.630066 0.000000
0.340881 0.631897 0.000000
0.375153 0.633881 0.000000
0.409912 0.636292 0.000000
0.444977 0.639038 0.000000
0.480103 0.641846 0.000000
0.515411 0.644806 0.000000
0.550873 0.647949 0.000000
0.586700 0.651398 0.000000
0.623016 0.655365 0.000000
0.659332 0.659332 0.000000
0.695648 0.663269 0.000000
0.732269 0.667511 0.000000
0.769073 0.671967 0.000000
0.806061 0.676575 0.000000
0.843445 0.681549 0.000000
0.880707 0.686432 0.000000
0.917999 0.691376 0.000000
0.955414 0.696381 0.000000
0.000000 0.651611 0.000000
0.000000 0.652222 0.000000
0.000000 0.652832 0.000000
0.000458 0.653595 0.000000
0.008331 0.654541 0.000000
0.041748 0.655731 0.000000
0.075073 0.656830 0.000000
0.108551 0.658051 0.000000
0.142212 0.659424 0.000000
0.176147 0.661102 0.000000
0.210327 0.662994 0.000000
0.244568 0.664948 0.000000
0.279022 0.667114 0.000000
0.313721 0.669525 0.000000
0.348724 0.672211 0.000000
0.383972 0.675140 0.000000
0.419434 0.678253 0.000000
0.455109 0.681580 0.000000
0.491058 0.685181 0.000000
0.527191 0.688995 0.000000
0.563477 0.692902 0.000000
0.600037 0.697144 0.000000
0.636810 0.701538 0.000000
0.673767 0.706146 0.000000
0.710846 0.710846 0.000000
0.747955 0.715576 0.000000
0.785126 0.720367 0.000000
0.822784 0.725647 0.000000
0.860229 0.730713 0.000000
0.897766 0.735870 0.000000
0.934906 0.740936 0.000000
0.970856 0.745972 0.000000
0.000000 0.686279 0.000000
0.000000 0.687225 0.000000
0.000000 0.688293 0.000000
0.000824 0.689423 0.000000
0.012085 0.690887 0.000000
0.045868 0.692413 0.000000
0.079803 0.694092 0.000000
0.113892 0.695923 0.000000
0.148132 0.697876 0.000000
0.182709 0.700165 0.000000
0.217651 0.702820 0.000000
0.252747 0.705658 0.000000
0.287964 0.708557 0.000000
0.323334 0.711609 0.000000
0.359161 0.715118 0.000000
0.395294 0.718933 0.000000
0.431580 0.722839 0.000000
0.467926 0.726837 0.000000
0.504395 0.730957 0.000000
0.541199 0.735443 0.000000
0.578369 0.740234 0.000000
0.615509 0.744995 0.000000
0.652679 0.749817 0.000000
0.689941 0.754700 0.000000
0.727295 0.759674 0.000000
0.764954 0.764954 0.000000
0.802582 0.770203 0.000000
0.839691 0.775177 0.000000
0.875946 0.779968 0.000000
0.910706 0.784576 0.004608
0.943451 0.789185 0.025391
0.973328 0.794128 0.053314
0.000000 0.722229 0.000000
0.000000 0.723541 0.000000
0.000000 0.725342 0.000000
0.001373 0.727112 0.000000
0.017670 0.729034 0.000000
0.051910 0.731049 0.000000
0.086456 0.733307 0.000000
0.121399 0.735992 0.000000
0.156769 0.739075 0.000000
0.192047 0.742065 0.000000
0.227539 0.745239 0.000000
0.263306 0.748688 0.000000
0.299377 0.752472 0.000000
0.335815 0.756561 0.000000
0.372314 0.760742 0.000000
0.408936 0.765015 0.000000
0.445770 0.769470 0.000000
0.482758 0.774109 0.000000
0.519958 0.778961 0.000000
0.557343 0.783966 0.000000
0.594727 0.788971 0.000000
0.632141 0.794037 0.000000
0.669617 0.799133 0.000000
0.707123 0.804169 0.000000
0.744690 0.809082 0.000000
0.781738 0.813568 0.000000
0.817596 0.817596 0.012329
0.851929 0.821442 0.036255
0.883942 0.825134 0.066864
0.912781 0.828796 0.105103
0.937622 0.832794 0.155426
0.957703 0.836823 0.213226
0.000000 0.759918 0.000000
0.000000 0.762115 0.000000
0.000000 0.764252 0.000000
0.002106 0.766632 0.000000
0.025360 0.769348 0.000000
0.060547 0.772278 0.000000
0.095947 0.775360 0.000000
0.131714 0.778870 0.000000
0.167633 0.782471 0.000000
0.203766 0.786316 0.000000
0.240082 0.790314 0.000000
0.276520 0.794403 0.000000
0.313293 0.798828 0.000000
0.350342 0.803558 0.000000
0.387451 0.808319 0.000000
0.424591 0.813110 0.000000
