assets/configs/ColorAnd3dLutPreset/lutDefault/60_lut_Cyberpunk_1/Data/Cyberpunk 1.CUBE
#Created by: Adobe Photoshop Export Color Lookup Plugin
#Copyright: (C) Copyright 2020 Wondershare Inc.
TITLE "Cyberpunk 1"
#LUT size
LUT_3D_SIZE 8
#data domain
#LUT data points
DOMAIN_MIN 0.000000 0.000000 0.000000
DOMAIN_MAX 0.903226 0.903226 0.903226
0.000000 0.000000 0.000000
0.022339 0.000000 0.016174
0.066925 0.000000 0.045380
0.154907 0.000000 0.094177
0.320831 0.000000 0.179626
0.547302 0.000000 0.318024
0.768585 0.000000 0.496155
0.919006 0.000000 0.682526
0.000000 0.023224 0.000000
0.022339 0.023224 0.000000
0.066925 0.000427 0.006622
0.154907 0.000000 0.055817
0.320831 0.000000 0.119598
0.547302 0.000000 0.230988
0.768585 0.000000 0.396210
0.919006 0.000031 0.588989
0.000000 0.069183 0.000000
0.022339 0.069183 0.000000
0.066925 0.069183 0.000000
0.154907 0.036652 0.000000
0.320831 0.000214 0.018524
0.547302 0.000000 0.100861
0.768585 0.000000 0.251404
0.919006 0.000031 0.433929
0.000000 0.159729 0.000000
0.022339 0.159729 0.000000
0.066956 0.159729 0.000000
0.154907 0.159729 0.000000
0.320831 0.123871 0.000000
0.547302 0.030273 0.000000
0.768585 0.000000 0.035797
0.919006 0.000031 0.158020
0.000000 0.328217 0.000000
0.022339 0.328217 0.000000
0.066956 0.328217 0.000000
0.154907 0.328217 0.000000
0.320801 0.328217 0.000000
0.547302 0.315277 0.000000
0.768585 0.120392 0.000000
0.919006 0.020203 0.001221
0.000000 0.554352 0.000000
0.022339 0.554352 0.000000
0.066925 0.554352 0.000000
0.154938 0.554352 0.000000
0.320862 0.554352 0.000000
0.547333 0.554352 0.000000
0.768585 0.552704 0.000000
0.919006 0.321289 0.000000
0.000000 0.772491 0.000000
0.022308 0.772491 0.000000
0.066925 0.772491 0.000000
0.154877 0.772491 0.000000
0.320770 0.772491 0.000000
0.547363 0.772491 0.000000
0.768646 0.772491 0.000000
0.919006 0.772491 0.000000
0.000000 0.920135 0.000000
0.022339 0.920135 0.000000
0.066925 0.920135 0.000000
0.154968 0.920135 0.000000
0.320740 0.920135 0.000000
0.547455 0.920135 0.000000
0.768585 0.920135 0.000000
0.918945 0.920135 0.000000
0.000000 0.048798 0.110291
0.000000 0.019714 0.110291
0.108948 0.000000 0.071320
0.154907 0.000000 0.011658
0.320831 0.000000 0.066467
0.547302 0.000000 0.255463
0.768585 0.000000 0.589569
0.919006 0.000000 0.868683
0.000000 0.082214 0.110291
0.019073 0.062622 0.111298
0.094666 0.019897 0.108368
0.156158 0.019501 0.027496
0.321991 0.019196 0.121796
0.548065 0.018951 0.372833
0.768890 0.018829 0.705719
0.919067 0.018768 0.880768
0.000000 0.110291 0.089386
0.019073 0.110901 0.102844
0.062958 0.091095 0.112457
0.157623 0.065155 0.095703
0.324280 0.062653 0.286957
0.549927 0.060608 0.484100
0.769745 0.059418 0.660492
0.919281 0.058716 0.812012
0.000000 0.159729 0.044189
0.018372 0.160980 0.054749
0.060089 0.163208 0.085846
0.157501 0.163208 0.104523
0.324677 0.104980 0.160919
0.551117 0.099670 0.312134
0.770447 0.096313 0.486542
0.919464 0.094269 0.671051
0.000000 0.328217 0.052094
0.018097 0.329346 0.067688
0.057648 0.332214 0.100220
0.145874 0.334320 0.097290
0.326324 0.334320 0.097290
0.551147 0.208771 0.099609
0.770447 0.097382 0.149200
0.919464 0.094269 0.379578
0.000000 0.554352 0.067902
0.018005 0.555084 0.085541
0.056702 0.557159 0.101868
0.140869 0.559052 0.094177
0.314850 0.559052 0.094177
0.551758 0.559052 0.094177
0.770477 0.481049 0.095612
0.919464 0.210785 0.094269
0.000000 0.772491 0.087463
0.017944 0.772766 0.106720
0.056244 0.773651 0.100952
0.138489 0.774567 0.092682
0.309265 0.774567 0.092682
0.543762 0.774567 0.092682
0.770630 0.774567 0.092682
0.919464 0.765411 0.093231
0.000000 0.920135 0.108734
0.017914 0.920197 0.108002
0.055969 0.920410 0.100494
0.137207 0.920624 0.091858
0.306274 0.920624 0.091858
0.539368 0.920624 0.091858
0.766449 0.920624 0.091858
0.919464 0.920624 0.091858
0.000000 0.096283 0.270630
0.000000 0.059174 0.270630
0.040375 0.000000 0.270630
0.270630 0.000000 0.119781
0.320831 0.000000 0.032776
0.547302 0.000000 0.031433
0.768585 0.000000 0.185730
0.919006 0.000000 0.522583
0.000000 0.148438 0.270630
0.018127 0.115479 0.271820
0.019501 0.031433 0.271912
0.269348 0.018921 0.185486
0.322021 0.018951 0.049194
0.548065 0.018890 0.069244
0.768890 0.018799 0.284363
0.919067 0.018738 0.642914
0.000000 0.234314 0.270630
0.018127 0.211914 0.271820
0.058136 0.154877 0.274750
0.191010 0.060242 0.271149
0.324829 0.060516 0.085846
0.550018 0.059998 0.184021
0.769775 0.059204 0.500031
0.919281 0.058624 0.819855
0.000000 0.270630 0.198486
0.018127 0.271820 0.221191
0.058136 0.273438 0.264496
0.143341 0.217285 0.276917
0.326813 0.149628 0.165466
0.552307 0.146271 0.441345
0.771118 0.141327 0.740662
0.919647 0.137634 0.870728
0.000000 0.328217 0.098236
0.018097 0.329346 0.113220
0.057648 0.332214 0.144470
0.140198 0.335358 0.199585
0.323975 0.332855 0.263275
0.551575 0.263336 0.399567
0.771729 0.252136 0.581146
0.919952 0.242401 0.748993
0.000000 0.554352 0.085938
0.018005 0.555084 0.106628
0.056702 0.557159 0.151611
0.133698 0.560638 0.225189
0.301086 0.562714 0.244171
0.555023 0.562714 0.244171
0.771759 0.388367 0.252014
0.919952 0.242706 0.376709
0.000000 0.772491 0.108582
0.017944 0.772766 0.132446
0.056244 0.773651 0.183655
0.130463 0.775391 0.249420
0.288879 0.776947 0.234039
0.536438 0.776947 0.234039
0.772888 0.776947 0.234039
0.920013 0.696930 0.239105
0.000000 0.920135 0.136749
0.017914 0.920197 0.164581
0.055969 0.920410 0.223022
0.128723 0.920837 0.247070
0.282074 0.921295 0.228333
0.526031 0.921295 0.228333
0.762878 0.921295 0.228333
0.920105 0.921295 0.228333
0.000000 0.155640 0.465759
0.000000 0.103485 0.465759
0.000458 0.019684 0.465759
0.252899 0.000000 0.465759
0.465759 0.000000 0.127960
0.547302 0.000000 0.044830
0.768585 0.000000 0.024139
0.919006 0.000000 0.178070
0.000000 0.227203 0.465759
0.018036 0.182098 0.466614
0.018799 0.091278 0.466675
0.166290 0.018799 0.466675
0.466675 0.018768 0.164917
0.548065 0.018799 0.063049
0.768921 0.018768 0.057251
0.919067 0.018738 0.273132
0.000000 0.346771 0.465759
0.018036 0.318573 0.466614
0.056976 0.233643 0.469086
0.063019 0.061890 0.469238
0.469238 0.058960 0.281311
0.550171 0.059143 0.103485
0.769775 0.058899 0.156464
0.919281 0.058502 0.480621
0.000000 0.465057 0.455170
0.018036 0.449097 0.466614
0.056976 0.399841 0.469086
0.135559 0.307465 0.472870
0.406952 0.139984 0.465240
0.553345 0.141022 0.176453
0.771271 0.139465 0.387146
0.919678 0.136841 0.740051
0.000000 0.465759 0.295563
0.018036 0.466614 0.325623
0.056976 0.469086 0.383301
0.135559 0.471832 0.449921
0.303925 0.404663 0.473602
0.553864 0.314392 0.370880
0.772247 0.307861 0.704620
0.920074 0.298248 0.894196
0.000000 0.554352 0.158447
0.018005 0.555084 0.179199
0.056702 0.557159 0.220581
0.133698 0.560638 0.280426
0.296173 0.562897 0.382996
0.551880 0.560120 0.455322
0.771393 0.457306 0.597900
0.920135 0.443939 0.774017
0.000000 0.772491 0.129456
0.017944 0.772766 0.156586
0.056244 0.773651 0.214417
0.130463 0.775391 0.301422
0.282501 0.777435 0.417389
0.526123 0.778290 0.431976
0.774078 0.778290 0.431976
0.920166 0.625153 0.443512
0.000000 0.920135 0.161194
0.017914 0.920197 0.192688
0.055969 0.920410 0.257263
0.128723 0.920837 0.348175
0.274719 0.921478 0.432312
0.509918 0.921906 0.417450
0.758392 0.921906 0.417450
0.920746 0.921906 0.417450
0.000000 0.229034 0.648987
0.000000 0.159546 0.648987
0.000000 0.079498 0.648987
0.106812 0.000000 0.648987
0.648987 0.000000 0.557892
0.648987 0.000000 0.134125
0.768585 0.000000 0.048828
0.919006 0.000000 0.028931
0.000000 0.315979 0.648987
0.017975 0.262115 0.649506
0.018738 0.143402 0.649506
0.059601 0.018860 0.649506
0.625153 0.018738 0.641083
0.649506 0.018738 0.169403
0.768921 0.018738 0.067627
0.919067 0.018738 0.064270
0.000000 0.460388 0.648987
0.017975 0.418121 0.649506
0.056458 0.322296 0.651093
0.058411 0.157684 0.651154
0.436523 0.058411 0.651154
0.651154 0.058411 0.245880
0.769806 0.058533 0.108978
0.919281 0.058350 0.167664
0.000000 0.590820 0.648987
0.017975 0.564545 0.649506
0.056458 0.513580 0.651093
0.132111 0.401886 0.653961
0.198029 0.138153 0.654053
0.654053 0.136322 0.365967
0.771454 0.137024 0.181152
0.919678 0.135925 0.396027
0.000000 0.648987 0.566101
0.017975 0.649506 0.592468
0.056458 0.650391 0.639526
0.132111 0.603943 0.653961
0.289581 0.500336 0.656708
0.649567 0.297119 0.584595
0.773010 0.299408 0.349060
0.920166 0.294586 0.707703
0.000000 0.648987 0.360504
0.017975 0.649506 0.391724
0.056458 0.651093 0.449585
0.132111 0.653961 0.525208
0.289581 0.656708 0.612305
0.535797 0.610504 0.654663
0.772186 0.544769 0.696045
0.920258 0.535400 0.901611
0.000000 0.772491 0.221130
0.017944 0.772766 0.246399
0.056244 0.773651 0.294128
0.130463 0.775391 0.358521
0.282501 0.777435 0.460083
0.521210 0.778229 0.603119
0.772797 0.777161 0.635345
0.920013 0.641266 0.713806
0.000000 0.920135 0.186340
0.017914 0.920197 0.220978
0.055969 0.920410 0.290222
0.128723 0.920837 0.385712
0.274719 0.921478 0.504700
0.503265 0.922089 0.619171
0.754120 0.922211 0.614899
0.921021 0.922211 0.614899
0.000000 0.312103 0.791748
0.000000 0.228668 0.791748
0.000000 0.126617 0.791748
0.032684 0.000458 0.791748
0.536682 0.000000 0.791748
0.791748 0.000000 0.321747
0.792389 0.000000 0.122986
0.919006 0.000000 0.045868
0.000000 0.408264 0.791748
0.017914 0.349304 0.791992
0.018707 0.208038 0.791992
0.020416 0.039307 0.791992
0.425781 0.018707 0.791992
0.791992 0.018707 0.421509
0.792603 0.018707 0.155792
0.919067 0.018707 0.064056
0.000000 0.562836 0.791748
0.017914 0.514038 0.791992
0.056213 0.414215 0.792725
0.058105 0.230743 0.792816
0.239532 0.058105 0.792816
0.792816 0.058105 0.612915
0.793427 0.058105 0.227112
0.919281 0.058167 0.103729
0.000000 0.691772 0.791748
0.017914 0.667267 0.791992
0.056213 0.614807 0.792725
0.130249 0.495392 0.794250
0.135101 0.220276 0.794373
0.763428 0.134308 0.789459
0.794983 0.134308 0.336029
0.919708 0.134735 0.173584
0.000000 0.791199 0.776917
0.017914 0.785645 0.790222
0.056213 0.752106 0.792725
0.130249 0.700226 0.794250
0.281464 0.590393 0.796173
0.492523 0.288666 0.796265
0.796844 0.288696 0.481964
0.920258 0.290009 0.374817
0.000000 0.791748 0.636047
0.017914 0.791992 0.665253
0.056213 0.792725 0.708893
0.130249 0.794250 0.759186
0.281464 0.778381 0.796112
0.518890 0.692505 0.797089
0.797668 0.526733 0.652954
0.920563 0.527527 0.720490
0.000000 0.792572 0.393677
0.017914 0.792816 0.424896
0.056183 0.793549 0.481537
0.130219 0.795074 0.552948
0.281433 0.796997 0.636078
0.518799 0.797882 0.724426
0.766754 0.786163 0.793030
0.919891 0.768158 0.899292
0.000000 0.920135 0.279785
0.017914 0.920197 0.307709
0.055969 0.920410 0.358917
0.128723 0.920837 0.426880
0.274719 0.921478 0.541718
0.503265 0.922089 0.675201
0.751831 0.922150 0.778442
0.920807 0.922058 0.778534
0.000000 0.399200 0.888367
0.000000 0.307129 0.888367
0.000000 0.182587 0.888367
0.002380 0.019073 0.888367
0.342682 0.000000 0.888367
0.887115 0.000000 0.797577
0.888367 0.000000 0.275116
0.919006 0.000000 0.108429
0.000000 0.499268 0.888367
0.017914 0.438477 0.888458
0.018677 0.282959 0.888458
0.018677 0.109741 0.888458
0.244476 0.018677 0.888458
0.881439 0.018677 0.859528
0.888458 0.018677 0.327148
0.919067 0.018677 0.138397
0.000000 0.650879 0.888367
0.017914 0.603638 0.888458
0.056000 0.504883 0.888824
0.057922 0.309296 0.888824
0.111420 0.059052 0.888824
0.795380 0.057922 0.888031
0.888824 0.057922 0.424988
0.919281 0.057983 0.203583
0.000000 0.774353 0.888367
0.017914 0.753845 0.888458
0.056000 0.697723 0.888824
0.129089 0.584106 0.889465
0.133118 0.353333 0.889526
0.585724 0.133118 0.889526
0.889526 0.133087 0.552490
0.919739 0.133331 0.305389
0.000000 0.866425 0.888367
0.017914 0.851898 0.888458
0.056000 0.823181 0.888824
0.129089 0.779358 0.889465
0.276306 0.672333 0.890411
0.297028 0.297485 0.890472
0.890472 0.283325 0.764252
0.920349 0.284332 0.443787
0.000000 0.888367 0.822662
0.017914 0.888458 0.838531
0.056000 0.888824 0.865540
0.129089 0.881104 0.888916
0.276306 0.841736 0.890411
0.507141 0.761627 0.891235
0.820740 0.514771 0.891052
0.920868 0.516571 0.608978
0.000000 0.888367 0.653595
0.017914 0.888458 0.682465
0.056000 0.888824 0.731354
0.129089 0.889465 0.786407
0.276306 0.890411 0.840057
0.507141 0.890900 0.884857
0.756165 0.841309 0.890930
0.920654 0.761505 0.775787
0.000000 0.920135 0.437714
0.017914 0.920197 0.468811
0.055969 0.920410 0.524597
0.128723 0.920837 0.592285
0.274719 0.921478 0.668335
0.503265 0.922089 0.747711
0.751831 0.922150 0.825470
0.919800 0.920959 0.886688
0.000000 0.486267 0.957062
0.000000 0.390015 0.957062
0.000000 0.249695 0.957062
0.000000 0.073975 0.957062
0.187042 0.000000 0.957062
0.862946 0.000000 0.956665
0.957062 0.000000 0.492554
0.957062 0.000000 0.226593
0.000000 0.585876 0.957062
0.017914 0.525757 0.957092
0.018677 0.363800 0.957092
0.018677 0.195801 0.957092
0.119324 0.018677 0.957092
0.797028 0.018677 0.957092
0.957092 0.018677 0.593719
0.957092 0.018677 0.274445
0.000000 0.727173 0.957062
0.017914 0.684387 0.957092
0.055908 0.590790 0.957214
0.057831 0.391968 0.957214
0.061523 0.089630 0.957214
0.640167 0.057800 0.957214
0.957214 0.057800 0.754395
0.957214 0.057800 0.366425
0.000000 0.839020 0.957062
0.017914 0.821777 0.957092
0.055908 0.767456 0.957214
0.128326 0.665253 0.957428
0.132263 0.441681 0.957428
0.392822 0.132263 0.957428
0.956085 0.132263 0.897858
0.957428 0.132263 0.487823
0.000000 0.914490 0.957062
0.017914 0.902374 0.957092
0.055908 0.878357 0.957214
0.128326 0.838409 0.957428
0.272858 0.743622 0.957764
0.280182 0.465302 0.957764
0.887299 0.279755 0.957184
0.957764 0.279755 0.629608
0.000000 0.957062 0.933472
0.017914 0.956848 0.944061
0.055908 0.950531 0.956421
0.128326 0.926270 0.957428
0.272858 0.891998 0.957764
0.498810 0.818146 0.958069
0.655029 0.507294 0.958069
0.958069 0.506348 0.771240
0.000000 0.957062 0.844299
0.017883 0.957092 0.861938
0.055908 0.957214 0.887695
0.128326 0.957428 0.915497
0.272858 0.957672 0.945374
0.498810 0.937469 0.958069
0.746490 0.884796 0.958221
0.958160 0.751068 0.896545
0.000000 0.957062 0.646729
0.017883 0.957092 0.675385
0.055908 0.957214 0.723724
0.128326 0.957428 0.777924
0.272858 0.957764 0.832642
0.498810 0.958069 0.885498
0.746490 0.958221 0.934601
0.917236 0.941223 0.957672
