assets/configs/ColorAnd3dLutPreset/lutDefault/60_lut_Cyberpunk_1/Data/Cyberpunk 1.CUBE
#Created by: Adobe Photoshop Export Color Lookup Plugin
#Copyright: (C) Copyright 2020 Wondershare Inc.
TITLE "Cyberpunk 1"
#LUT size
LUT_3D_SIZE 32
#data domain
DOMAIN_MIN 0.0 0.0 0.0
DOMAIN_MAX 1.0 1.0 1.0
#LUT data points
0.000000 0.000000 0.000000
0.003265 0.000000 0.002411
0.008484 0.000000 0.006195
0.014832 0.000000 0.010803
0.022339 0.000000 0.016174
0.031006 0.000000 0.022186
0.041168 0.000000 0.029022
0.052979 0.000000 0.036713
0.066925 0.000000 0.045380
0.083496 0.000000 0.055206
0.103241 0.000000 0.066498
0.126801 0.000000 0.079346
0.154907 0.000000 0.094177
0.188385 0.000000 0.111237
0.227448 0.000000 0.130890
0.271759 0.000000 0.153564
0.320831 0.000000 0.179626
0.373749 0.000000 0.209229
0.429871 0.000000 0.242401
0.488068 0.000000 0.278748
0.547302 0.000000 0.318024
0.606415 0.000000 0.359833
0.664001 0.000000 0.403809
0.718536 0.000000 0.449402
0.768585 0.000000 0.496155
0.813171 0.000000 0.543488
0.852661 0.000000 0.590790
0.887634 0.000000 0.637390
0.919006 0.000000 0.682526
0.947510 0.000000 0.725433
0.974213 0.000000 0.765350
1.000000 0.000000 0.801666
0.000000 0.003510 0.000000
0.003265 0.003510 0.000000
0.008484 0.000153 0.000824
0.014832 0.000000 0.007141
0.022339 0.000000 0.012512
0.031006 0.000000 0.018463
0.041168 0.000000 0.025085
0.052979 0.000000 0.032532
0.066925 0.000000 0.040894
0.083496 0.000000 0.050323
0.103241 0.000000 0.061096
0.126801 0.000000 0.073395
0.154907 0.000000 0.087555
0.188385 0.000000 0.103790
0.227448 0.000000 0.122559
0.271759 0.000000 0.144196
0.320831 0.000000 0.169159
0.373749 0.000000 0.197662
0.429871 0.000000 0.229828
0.488068 0.000000 0.265320
0.547302 0.000000 0.303833
0.606415 0.000000 0.345154
0.664001 0.000000 0.388672
0.718536 0.000000 0.434052
0.768585 0.000000 0.480652
0.813171 0.000000 0.528076
0.852661 0.000031 0.575745
0.887634 0.000031 0.622742
0.919006 0.000031 0.668762
0.947510 0.000031 0.712616
0.974213 0.000031 0.753723
1.000000 0.000031 0.791260
0.000000 0.008881 0.000000
0.003265 0.008881 0.000000
0.008484 0.008881 0.000000
0.014832 0.005707 0.000061
0.022339 0.000336 0.002441
0.031006 0.000031 0.010529
0.041168 0.000000 0.019012
0.052979 0.000000 0.026306
0.066925 0.000000 0.034302
0.083496 0.000000 0.043213
0.103241 0.000000 0.053314
0.126801 0.000000 0.064789
0.154907 0.000000 0.077972
0.188385 0.000000 0.093079
0.227448 0.000000 0.110535
0.271759 0.000000 0.130646
0.320831 0.000000 0.153900
0.373749 0.000000 0.180634
0.429871 0.000000 0.211151
0.488068 0.000000 0.245148
0.547302 0.000000 0.282379
0.606415 0.000000 0.322601
0.664001 0.000000 0.365448
0.718536 0.000000 0.410156
0.768585 0.000000 0.456696
0.813171 0.000000 0.504272
0.852661 0.000031 0.552185
0.887634 0.000031 0.599854
0.919006 0.000031 0.646759
0.947510 0.000031 0.692078
0.974213 0.000031 0.734894
1.000000 0.000031 0.774139
0.000000 0.015533 0.000000
0.003265 0.015533 0.000000
0.008484 0.015533 0.000000
0.014832 0.015533 0.000000
0.022339 0.013763 0.000000
0.031006 0.005493 0.000214
0.041168 0.000427 0.004364
0.052979 0.000031 0.013824
0.066925 0.000000 0.024475
0.083496 0.000000 0.034760
0.103241 0.000000 0.044464
0.126801 0.000000 0.055206
0.154907 0.000000 0.067322
0.188385 0.000000 0.081146
0.227448 0.000000 0.097198
0.271759 0.000000 0.115631
0.320831 0.000000 0.137024
0.373749 0.000000 0.161621
0.429871 0.000000 0.189972
0.488068 0.000000 0.222015
0.547302 0.000000 0.257599
0.606415 0.000000 0.296448
0.664001 0.000000 0.338074
0.718536 0.000000 0.382172
0.768585 0.000000 0.427979
0.813171 0.000000 0.475433
0.852661 0.000031 0.523590
0.887634 0.000031 0.571930
0.919006 0.000031 0.619995
0.947510 0.000031 0.666443
0.974213 0.000031 0.711151
1.000000 0.000031 0.752808
0.000000 0.023224 0.000000
0.003265 0.023224 0.000000
0.008484 0.023224 0.000000
0.014832 0.023224 0.000000
0.022339 0.023224 0.000000
0.031006 0.023010 0.000000
0.041168 0.014008 0.000031
0.052979 0.004669 0.000519
0.066925 0.000427 0.006622
0.083496 0.000031 0.017273
0.103241 0.000000 0.029480
0.126801 0.000000 0.042999
0.154907 0.000000 0.055817
0.188385 0.000000 0.068848
0.227448 0.000000 0.083496
0.271759 0.000000 0.100250
0.320831 0.000000 0.119598
0.373749 0.000000 0.141968
0.429871 0.000000 0.167908
0.488068 0.000000 0.197510
0.547302 0.000000 0.230988
0.606415 0.000000 0.268036
0.664001 0.000000 0.308197
0.718536 0.000000 0.351013
0.768585 0.000000 0.396210
0.813171 0.000000 0.443207
0.852661 0.000031 0.491364
0.887634 0.000031 0.540070
0.919006 0.000031 0.588989
0.947510 0.000031 0.636627
0.974213 0.000031 0.683044
1.000000 0.000031 0.727020
0.000000 0.032196 0.000000
0.003265 0.032196 0.000000
0.008484 0.032196 0.000000
0.014832 0.032196 0.000000
0.022339 0.032196 0.000000
0.031006 0.032196 0.000000
0.041168 0.032074 0.000000
0.052979 0.024323 0.000000
0.066925 0.013550 0.000061
0.083496 0.003479 0.000916
0.103241 0.000305 0.009094
0.126801 0.000000 0.020935
0.154907 0.000000 0.034515
0.188385 0.000000 0.050140
0.227448 0.000000 0.068024
0.271759 0.000000 0.084351
0.320831 0.000000 0.102234
0.373749 0.000000 0.122589
0.429871 0.000000 0.145844
0.488068 0.000000 0.172791
0.547302 0.000000 0.203644
0.606415 0.000000 0.238342
0.664001 0.000000 0.276581
0.718536 0.000000 0.317749
0.768585 0.000000 0.361816
0.813171 0.000000 0.408081
0.852661 0.000031 0.455872
0.887634 0.000031 0.504883
0.919006 0.000031 0.554108
0.947510 0.000031 0.603149
0.974213 0.000031 0.651001
1.000000 0.000031 0.697083
0.000000 0.042664 0.000000
0.003265 0.042664 0.000000
0.008484 0.042664 0.000000
0.014832 0.042664 0.000000
0.022339 0.042664 0.000000
0.031006 0.042664 0.000000
0.041168 0.042664 0.000000
0.052979 0.042572 0.000000
0.066925 0.036560 0.000000
0.083496 0.024384 0.000000
0.103241 0.012543 0.000092
0.126801 0.002045 0.001434
0.154907 0.000244 0.011841
0.188385 0.000000 0.024811
0.227448 0.000000 0.039917
0.271759 0.000000 0.057465
0.320831 0.000000 0.078217
0.373749 0.000000 0.101868
0.429871 0.000000 0.123749
0.488068 0.000000 0.148376
0.547302 0.000000 0.176544
0.606415 0.000000 0.208466
0.664001 0.000000 0.244263
0.718536 0.000000 0.283539
0.768585 0.000000 0.325958
0.813171 0.000000 0.370941
0.852661 0.000031 0.418243
0.887634 0.000031 0.466797
0.919006 0.000031 0.516296
0.947510 0.000031 0.566071
0.974213 0.000031 0.615326
1.000000 0.000031 0.663452
0.000000 0.054810 0.000000
0.003265 0.054810 0.000000
0.008484 0.054810 0.000000
0.014832 0.054810 0.000000
0.022339 0.054810 0.000000
0.031006 0.054810 0.000000
0.041168 0.054810 0.000000
0.052979 0.054810 0.000000
0.066925 0.054749 0.000000
0.083496 0.051117 0.000000
0.103241 0.037048 0.000000
0.126801 0.023590 0.000000
0.154907 0.011169 0.000305
0.188385 0.001648 0.003357
0.227448 0.000214 0.015015
0.271759 0.000000 0.029205
0.320831 0.000000 0.045685
0.373749 0.000000 0.065460
0.429871 0.000000 0.089233
0.488068 0.000000 0.117493
0.547302 0.000000 0.148346
0.606415 0.000000 0.178406
0.664001 0.000000 0.211975
0.718536 0.000000 0.249084
0.768585 0.000000 0.289398
0.813171 0.000000 0.332733
0.852661 0.000031 0.378845
0.887634 0.000031 0.426849
0.919006 0.000031 0.476196
0.947510 0.000031 0.526489
0.974213 0.000031 0.576691
1.000000 0.000031 0.626221
0.000000 0.069183 0.000000
0.003296 0.069183 0.000000
0.008484 0.069183 0.000000
0.014832 0.069183 0.000000
0.022339 0.069183 0.000000
0.031006 0.069183 0.000000
0.041168 0.069183 0.000000
0.052979 0.069183 0.000000
0.066925 0.069183 0.000000
0.083496 0.069153 0.000000
0.103241 0.068359 0.000000
0.126801 0.052216 0.000000
0.154907 0.036652 0.000000
0.188385 0.022430 0.000031
0.227448 0.009644 0.000702
0.271759 0.001526 0.005890
0.320831 0.000214 0.018524
0.373749 0.000000 0.033813
0.429871 0.000000 0.051971
0.488068 0.000000 0.074005
0.547302 0.000000 0.100861
0.606415 0.000000 0.133484
0.664001 0.000000 0.172546
0.718536 0.000000 0.212128
0.768585 0.000000 0.251404
0.813171 0.000000 0.293640
0.852661 0.000000 0.338196
0.887634 0.000031 0.385254
0.919006 0.000031 0.433929
0.947510 0.000031 0.484161
0.974213 0.000031 0.534821
1.000000 0.000031 0.585724
0.000000 0.086212 0.000000
0.003265 0.086212 0.000000
0.008453 0.086212 0.000000
0.014832 0.086212 0.000000
0.022339 0.086212 0.000000
0.031006 0.086212 0.000000
0.041138 0.086212 0.000000
0.052979 0.086212 0.000000
0.066925 0.086212 0.000000
0.083496 0.086212 0.000000
0.103241 0.086212 0.000000
0.126801 0.085754 0.000000
0.154907 0.070587 0.000000
0.188385 0.052216 0.000000
0.227448 0.035706 0.000000
0.271759 0.020874 0.000122
0.320831 0.007904 0.001282
0.373749 0.001312 0.008606
0.429871 0.000183 0.022369
0.488068 0.000000 0.038910
0.547302 0.000000 0.058899
0.606415 0.000000 0.083191
0.664001 0.000000 0.113434
0.718536 0.000000 0.150482
0.768585 0.000000 0.195343
0.813171 0.000000 0.247284
0.852661 0.000000 0.293884
0.887634 0.000031 0.341095
0.919006 0.000031 0.390381
0.947510 0.000031 0.440033
0.974213 0.000031 0.490845
1.000000 0.000031 0.542053
0.000000 0.106567 0.000000
0.003265 0.106567 0.000000
0.008453 0.106567 0.000000
0.014832 0.106567 0.000000
0.022339 0.106567 0.000000
0.031006 0.106567 0.000000
0.041138 0.106567 0.000000
0.052979 0.106567 0.000000
0.066925 0.106567 0.000000
0.083496 0.106567 0.000000
0.103210 0.106567 0.000000
0.126801 0.106598 0.000000
0.154907 0.106140 0.000000
0.188385 0.093292 0.000000
0.227448 0.071259 0.000000
0.271759 0.051575 0.000000
0.320831 0.034271 0.000000
0.373749 0.019043 0.000275
0.429871 0.006104 0.001953
0.488068 0.001038 0.011536
0.547302 0.000061 0.026398
0.606415 0.000000 0.044434
0.664001 0.000000 0.066345
0.718536 0.000000 0.093292
0.768585 0.000000 0.126892
0.813171 0.000000 0.169006
0.852661 0.000000 0.219025
0.887634 0.000031 0.276733
0.919006 0.000031 0.339569
0.947510 0.000031 0.390350
0.974213 0.000031 0.443176
1.000000 0.000031 0.496124
0.000000 0.130798 0.000000
0.003296 0.130798 0.000000
0.008484 0.130798 0.000000
0.014832 0.130798 0.000000
0.022339 0.130798 0.000000
0.031006 0.130798 0.000000
0.041138 0.130798 0.000000
0.052948 0.130798 0.000000
0.066925 0.130798 0.000000
0.083496 0.130798 0.000000
0.103271 0.130798 0.000000
0.126770 0.130798 0.000000
0.154907 0.130798 0.000000
0.188385 0.130493 0.000000
0.227448 0.121460 0.000000
0.271759 0.094788 0.000000
0.320831 0.070862 0.000000
0.373749 0.050354 0.000000
0.429871 0.032532 0.000000
0.488068 0.016937 0.000458
0.547302 0.003998 0.002655
0.606415 0.000824 0.014862
0.664001 0.000000 0.030914
0.718536 0.000000 0.050507
0.768585 0.000000 0.074493
0.813171 0.000000 0.104309
0.852661 0.000000 0.141815
0.887634 0.000031 0.188690
0.919006 0.000031 0.244690
0.947510 0.000031 0.307434
0.974213 0.000031 0.375366
1.000000 0.000031 0.441620
0.000000 0.159729 0.000000
0.003265 0.159729 0.000000
0.008453 0.159729 0.000000
0.014862 0.159729 0.000000
0.022339 0.159729 0.000000
0.031006 0.159729 0.000000
0.041138 0.159729 0.000000
0.052948 0.159729 0.000000
0.066956 0.159729 0.000000
0.083496 0.159729 0.000000
0.103210 0.159729 0.000000
0.126831 0.159729 0.000000
0.154907 0.159729 0.000000
0.188385 0.159698 0.000000
0.227448 0.159576 0.000000
0.271759 0.155762 0.000000
0.320831 0.123871 0.000000
0.373749 0.094727 0.000000
0.429871 0.069794 0.000000
0.488068 0.048645 0.000000
0.547302 0.030273 0.000000
0.606415 0.014679 0.000854
0.664001 0.002869 0.004669
0.718536 0.000732 0.018585
0.768585 0.000000 0.035797
0.813171 0.000000 0.057190
0.852661 0.000000 0.083496
0.887634 0.000000 0.116669
0.919006 0.000031 0.158020
0.947510 0.000031 0.209808
0.974213 0.000031 0.270630
1.000000 0.000031 0.338715
0.000000 0.194000 0.000000
0.003265 0.194000 0.000000
0.008453 0.194000 0.000000
0.014832 0.194000 0.000000
0.022339 0.194000 0.000000
0.031006 0.194000 0.000000
0.041138 0.194000 0.000000
0.052979 0.194000 0.000000
0.066925 0.194000 0.000000
0.083527 0.194000 0.000000
0.103241 0.194000 0.000000
0.126770 0.194000 0.000000
0.154938 0.194000 0.000000
0.188385 0.194000 0.000000
0.227448 0.194031 0.000000
0.271759 0.193939 0.000000
0.320831 0.192261 0.000000
0.373749 0.159576 0.000000
0.429871 0.124390 0.000000
0.488068 0.093903 0.000000
0.547302 0.068176 0.000000
0.606415 0.046509 0.000000
0.664001 0.027893 0.000122
0.718536 0.012512 0.001465
0.768585 0.002563 0.007690
0.813171 0.000610 0.022705
0.852661 0.000000 0.041351
0.887634 0.000000 0.064514
0.919006 0.000031 0.093201
0.947510 0.000031 0.129608
0.974213 0.000031 0.175720
1.000000 0.000031 0.232269
0.000000 0.233826 0.000000
0.003296 0.233826 0.000000
0.008453 0.233826 0.000000
0.014832 0.233826 0.000000
0.022339 0.233826 0.000000
0.031006 0.233826 0.000000
0.041138 0.233826 0.000000
0.052979 0.233826 0.000000
0.066925 0.233826 0.000000
0.083496 0.233826 0.000000
0.103271 0.233826 0.000000
0.126831 0.233826 0.000000
0.154938 0.233826 0.000000
0.188416 0.233826 0.000000
0.227448 0.233826 0.000000
0.271759 0.233856 0.000000
0.320831 0.233856 0.000000
0.373749 0.232422 0.000000
0.429871 0.203674 0.000000
0.488068 0.161499 0.000000
0.547302 0.123901 0.000000
0.606415 0.092377 0.000000
0.664001 0.066101 0.000000
0.718536 0.044128 0.000000
0.768585 0.025452 0.000366
0.813171 0.010193 0.002197
0.852661 0.002228 0.011017
0.887634 0.000427 0.027039
0.919006 0.000031 0.047180
0.947510 0.000031 0.072266
0.974213 0.000031 0.104156
1.000000 0.000031 0.144287
0.000000 0.278748 0.000000
0.003296 0.278748 0.000000
0.008453 0.278748 0.000000
0.014862 0.278748 0.000000
0.022339 0.278748 0.000000
0.031006 0.278748 0.000000
0.041168 0.278748 0.000000
0.052979 0.278748 0.000000
0.066925 0.278748 0.000000
0.083466 0.278748 0.000000
0.103210 0.278748 0.000000
0.126831 0.278748 0.000000
0.154907 0.278748 0.000000
0.188385 0.278748 0.000000
0.227448 0.278748 0.000000
0.271729 0.278748 0.000000
0.320831 0.278748 0.000000
0.373749 0.278748 0.000000
0.429871 0.277618 0.000000
0.488068 0.256104 0.000000
0.547302 0.206818 0.000000
0.606415 0.161163 0.000000
0.664001 0.122437 0.000000
0.718536 0.090210 0.000000
0.768585 0.063568 0.000000
0.813171 0.041382 0.000000
0.852661 0.022888 0.000732
0.887634 0.007629 0.002960
0.919006 0.001923 0.014587
0.947510 0.000153 0.031616
0.974213 0.000031 0.053680
1.000000 0.000031 0.081207
0.000000 0.328217 0.000000
0.003296 0.328217 0.000000
0.008453 0.328217 0.000000
0.014862 0.328217 0.000000
0.022339 0.328217 0.000000
0.031006 0.328217 0.000000
0.041168 0.328217 0.000000
0.052979 0.328217 0.000000
0.066956 0.328217 0.000000
0.083496 0.328217 0.000000
0.103210 0.328217 0.000000
0.126801 0.328217 0.000000
0.154907 0.328217 0.000000
0.188354 0.328217 0.000000
0.227417 0.328217 0.000000
0.271729 0.328217 0.000000
0.320801 0.328217 0.000000
0.373749 0.328186 0.000000
0.429871 0.328247 0.000000
0.488068 0.327545 0.000000
0.547302 0.315277 0.000000
0.606415 0.260681 0.000000
0.664001 0.207245 0.000000
0.718536 0.159943 0.000000
0.768585 0.120392 0.000000
0.813171 0.087738 0.000000
0.852661 0.060760 0.000000
0.887634 0.038391 0.000000
0.919006 0.020203 0.001221
0.947510 0.004913 0.003693
0.974213 0.001740 0.018433
1.000000 0.000031 0.036682
0.000000 0.381378 0.000000
0.003296 0.381378 0.000000
0.008453 0.381378 0.000000
0.014832 0.381378 0.000000
0.022369 0.381378 0.000000
0.031006 0.381378 0.000000
0.041138 0.381378 0.000000
0.052948 0.381378 0.000000
0.066895 0.381378 0.000000
0.083496 0.381378 0.000000
0.103210 0.381378 0.000000
0.126770 0.381378 0.000000
0.154938 0.381378 0.000000
0.188385 0.381378 0.000000
0.227509 0.381378 0.000000
0.271729 0.381378 0.000000
0.320831 0.381378 0.000000
0.373779 0.381378 0.000000
0.429871 0.381378 0.000000
0.488068 0.381317 0.000000
0.547302 0.381104 0.000000
0.606415 0.376923 0.000000
0.664001 0.321045 0.000000
0.718536 0.261292 0.000000
0.768585 0.206024 0.000000
0.813171 0.157990 0.000000
0.852661 0.117584 0.000000
0.887634 0.084747 0.000000
0.919006 0.057617 0.000000
0.947510 0.035156 0.000000
0.974213 0.017487 0.001862
1.000000 0.003723 0.006165
0.000000 0.437500 0.000000
0.003265 0.437500 0.000000
0.008484 0.437500 0.000000
0.014832 0.437500 0.000000
0.022369 0.437500 0.000000
0.031006 0.437500 0.000000
0.041138 0.437500 0.000000
0.052979 0.437500 0.000000
0.066925 0.437500 0.000000
0.083496 0.437500 0.000000
0.103271 0.437500 0.000000
0.126770 0.437500 0.000000
0.154938 0.437500 0.000000
0.188354 0.437500 0.000000
0.227478 0.437500 0.000000
0.271729 0.437500 0.000000
0.320862 0.437500 0.000000
0.373688 0.437500 0.000000
0.429871 0.437500 0.000000
0.488068 0.437500 0.000000
0.547302 0.437469 0.000000
0.606415 0.437531 0.000000
0.664001 0.434387 0.000000
0.718536 0.387482 0.000000
0.768585 0.323578 0.000000
0.813171 0.260925 0.000000
0.852661 0.204132 0.000000
0.887634 0.155151 0.000000
0.919006 0.114502 0.000000
0.947510 0.081268 0.000000
0.974213 0.054199 0.000000
1.000000 0.032135 0.000336
0.000000 0.495514 0.000000
0.003265 0.495514 0.000000
0.008453 0.495514 0.000000
0.014862 0.495514 0.000000
0.022369 0.495514 0.000000
0.031006 0.495514 0.000000
0.041138 0.495514 0.000000
0.053009 0.495514 0.000000
0.066925 0.495514 0.000000
0.083496 0.495514 0.000000
0.103241 0.495514 0.000000
0.126831 0.495514 0.000000
0.154938 0.495514 0.000000
0.188324 0.495514 0.000000
0.227448 0.495514 0.000000
0.271820 0.495514 0.000000
0.320923 0.495514 0.000000
0.373718 0.495514 0.000000
0.429840 0.495514 0.000000
0.488068 0.495514 0.000000
0.547302 0.495514 0.000000
0.606415 0.495544 0.000000
0.664001 0.495453 0.000000
0.718536 0.493164 0.000000
0.768585 0.458008 0.000000
0.813171 0.391266 0.000000
0.852661 0.323395 0.000000
0.887634 0.259033 0.000000
0.919006 0.201141 0.000000
0.947510 0.151550 0.000000
0.974213 0.110748 0.000000
1.000000 0.077545 0.000031
0.000000 0.554352 0.000000
0.003265 0.554352 0.000000
0.008453 0.554352 0.000000
0.014832 0.554352 0.000000
0.022339 0.554352 0.000000
0.031006 0.554352 0.000000
0.041168 0.554352 0.000000
0.052979 0.554352 0.000000
0.066925 0.554352 0.000000
0.083496 0.554352 0.000000
0.103241 0.554352 0.000000
0.126770 0.554352 0.000000
0.154938 0.554352 0.000000
0.188416 0.554352 0.000000
0.227417 0.554352 0.000000
0.271759 0.554352 0.000000
0.320862 0.554352 0.000000
0.373749 0.554352 0.000000
0.429871 0.554352 0.000000
0.488068 0.554352 0.000000
0.547333 0.554352 0.000000
0.606415 0.554321 0.000000
0.664001 0.554352 0.000000
0.718536 0.554382 0.000000
0.768585 0.552704 0.000000
0.813171 0.530884 0.000000
0.852661 0.463531 0.000000
0.887634 0.391205 0.000000
0.919006 0.321289 0.000000
0.947510 0.256012 0.000000
0.974213 0.197601 0.000000
1.000000 0.147156 0.000000
0.000000 0.612885 0.000000
0.003296 0.612885 0.000000
0.008453 0.612885 0.000000
0.014862 0.612885 0.000000
0.022339 0.612885 0.000000
0.031006 0.612885 0.000000
0.041138 0.612885 0.000000
0.052979 0.612885 0.000000
0.066925 0.612885 0.000000
0.083496 0.612885 0.000000
0.103271 0.612885 0.000000
0.126801 0.612885 0.000000
0.154907 0.612885 0.000000
0.188385 0.612885 0.000000
0.227448 0.612885 0.000000
0.271729 0.612885 0.000000
0.320862 0.612885 0.000000
0.373718 0.612885 0.000000
0.429810 0.612885 0.000000
0.488007 0.612885 0.000000
0.547394 0.612885 0.000000
0.606476 0.612885 0.000000
0.664001 0.612915 0.000000
0.718536 0.612823 0.000000
0.768585 0.612854 0.000000
0.813171 0.611969 0.000000
0.852661 0.602997 0.000000
0.887634 0.536591 0.000000
0.919006 0.464020 0.000000
0.947510 0.390076 0.000000
0.974213 0.318726 0.000000
1.000000 0.252289 0.000000
0.000000 0.669708 0.000000
0.003265 0.669708 0.000000
0.008453 0.669708 0.000000
0.014862 0.669708 0.000000
0.022339 0.669708 0.000000
0.030975 0.669708 0.000000
0.041138 0.669708 0.000000
0.052979 0.669708 0.000000
0.066925 0.669708 0.000000
0.083466 0.669708 0.000000
0.103241 0.669708 0.000000
0.126831 0.669708 0.000000
0.154907 0.669708 0.000000
0.188416 0.669708 0.000000
0.227448 0.669708 0.000000
0.271698 0.669708 0.000000
0.320770 0.669708 0.000000
0.373749 0.669708 0.000000
0.429871 0.669708 0.000000
0.488159 0.669708 0.000000
0.547302 0.669708 0.000000
0.606415 0.669708 0.000000
0.664001 0.669708 0.000000
0.718536 0.669800 0.000000
0.768585 0.669739 0.000000
0.813171 0.669739 0.000000
0.852661 0.669556 0.000000
0.887634 0.664795 0.000000
0.919006 0.609467 0.000000
0.947510 0.538177 0.000000
0.974213 0.463104 0.000000
1.000000 0.387970 0.000000
0.000000 0.723358 0.000000
0.003296 0.723358 0.000000
0.008484 0.723358 0.000000
0.014832 0.723358 0.000000
0.022339 0.723358 0.000000
0.030975 0.723358 0.000000
0.041138 0.723358 0.000000
0.052948 0.723358 0.000000
0.066956 0.723358 0.000000
0.083496 0.723358 0.000000
0.103271 0.723358 0.000000
0.126801 0.723358 0.000000
0.154938 0.723358 0.000000
0.188324 0.723358 0.000000
0.227417 0.723358 0.000000
0.271759 0.723358 0.000000
0.320862 0.723358 0.000000
0.373688 0.723358 0.000000
0.429932 0.723358 0.000000
0.488159 0.723358 0.000000
0.547363 0.723358 0.000000
0.606354 0.723358 0.000000
0.664001 0.723358 0.000000
0.718597 0.723358 0.000000
0.768585 0.723328 0.000000
0.813171 0.723419 0.000000
0.852661 0.723419 0.000000
0.887634 0.723328 0.000000
0.919006 0.719757 0.000000
0.947510 0.679626 0.000000
0.974213 0.612488 0.000000
1.000000 0.537933 0.000000
0.000000 0.772491 0.000000
0.003235 0.772491 0.000000
0.008453 0.772491 0.000000
0.014832 0.772491 0.000000
0.022308 0.772491 0.000000
0.031006 0.772491 0.000000
0.041138 0.772491 0.000000
0.052979 0.772491 0.000000
0.066925 0.772491 0.000000
0.083496 0.772491 0.000000
0.103241 0.772491 0.000000
0.126770 0.772491 0.000000
0.154877 0.772491 0.000000
0.188324 0.772491 0.000000
0.227417 0.772491 0.000000
0.271729 0.772491 0.000000
0.320770 0.772491 0.000000
0.373749 0.772491 0.000000
0.429871 0.772491 0.000000
0.488007 0.772491 0.000000
0.547363 0.772491 0.000000
0.606354 0.772491 0.000000
0.664063 0.772491 0.000000
0.718597 0.772491 0.000000
0.768646 0.772491 0.000000
0.813171 0.772430 0.000000
0.852661 0.772491 0.000000
0.887634 0.772461 0.000000
0.919006 0.772491 0.000000
0.947510 0.770020 0.000000
0.974213 0.744965 0.000000
1.000000 0.683502 0.000000
0.000000 0.816223 0.000000
0.003235 0.816223 0.000000
0.008453 0.816223 0.000000
0.014801 0.816223 0.000000
0.022308 0.816223 0.000000
0.031036 0.816223 0.000000
0.041168 0.816223 0.000000
0.052948 0.816223 0.000000
0.066895 0.816223 0.000000
0.083435 0.816223 0.000000
0.103271 0.816223 0.000000
0.126801 0.816223 0.000000
0.154968 0.816223 0.000000
0.188446 0.816223 0.000000
0.227386 0.816223 0.000000
0.271729 0.816223 0.000000
0.320892 0.816223 0.000000
0.373688 0.816223 0.000000
0.429810 0.816223 0.000000
0.487976 0.816223 0.000000
0.547241 0.816223 0.000000
0.606415 0.816223 0.000000
0.663940 0.816223 0.000000
0.718475 0.816223 0.000000
0.768616 0.816223 0.000000
0.813202 0.816223 0.000000
0.852661 0.816162 0.000000
0.887634 0.816254 0.000000
0.919006 0.816223 0.000000
0.947510 0.816254 0.000000
0.974213 0.814850 0.000000
1.000000 0.801880 0.000000
0.000000 0.854950 0.000000
0.003265 0.854950 0.000000
0.008423 0.854950 0.000000
0.014832 0.854950 0.000000
0.022308 0.854950 0.000000
0.030975 0.854950 0.000000
0.041168 0.854950 0.000000
0.052948 0.854950 0.000000
0.066895 0.854950 0.000000
0.083496 0.854950 0.000000
0.103271 0.854950 0.000000
0.126862 0.854950 0.000000
0.154999 0.854950 0.000000
0.188446 0.854950 0.000000
0.227417 0.854950 0.000000
0.271820 0.854950 0.000000
0.320923 0.854950 0.000000
0.373718 0.854950 0.000000
0.429840 0.854950 0.000000
0.488098 0.854950 0.000000
0.547302 0.854950 0.000000
0.606354 0.854950 0.000000
0.664063 0.854950 0.000000
0.718628 0.854950 0.000000
0.768616 0.854950 0.000000
0.813141 0.854950 0.000000
0.852722 0.854950 0.000000
0.887634 0.854919 0.000000
0.919006 0.855011 0.000000
0.947510 0.854889 0.000000
0.974213 0.854980 0.000000
1.000000 0.854431 0.000000
0.000000 0.889343 0.000000
0.003296 0.889343 0.000000
0.008423 0.889343 0.000000
0.014801 0.889343 0.000000
0.022339 0.889343 0.000000
0.030975 0.889343 0.000000
0.041168 0.889343 0.000000
0.052979 0.889343 0.000000
0.066925 0.889343 0.000000
0.083496 0.889343 0.000000
0.103210 0.889343 0.000000
0.126770 0.889343 0.000000
0.154877 0.889343 0.000000
0.188354 0.889343 0.000000
0.227356 0.889343 0.000000
0.271729 0.889343 0.000000
