assets/configs/ColorAnd3dLutPreset/lutDefault/60_lut_Cyberpunk_1/Data/Cyberpunk 1.CUBE
#Created by: Adobe Photoshop Export Color Lookup Plugin
#Copyright: (C) Copyright 2020 Wondershare Inc.
TITLE "Cyberpunk 1"
#LUT size
LUT_3D_SIZE 5
#data domain
#LUT data points
DOMAIN_MIN 0.000000 0.000000 0.000000
DOMAIN_MAX 0.903226 0.903226 0.903226
0.000000 0.000000 0.000000
0.052979 0.000000 0.036713
0.227448 0.000000 0.130890
0.606415 0.000000 0.359833
0.919006 0.000000 0.682526
0.000000 0.054810 0.000000
0.052979 0.054810 0.000000
0.227448 0.000214 0.015015
0.606415 0.000000 0.178406
0.919006 0.000031 0.476196
0.000000 0.233826 0.000000
0.052979 0.233826 0.000000
0.227448 0.233826 0.000000
0.606415 0.092377 0.000000
0.919006 0.000031 0.047180
0.000000 0.612885 0.000000
0.052979 0.612885 0.000000
0.227448 0.612885 0.000000
0.606476 0.612885 0.000000
0.919006 0.464020 0.000000
0.000000 0.920135 0.000000
0.052979 0.920135 0.000000
0.227539 0.920135 0.000000
0.606445 0.920135 0.000000
0.918945 0.920135 0.000000
0.000000 0.083496 0.224884
0.019623 0.000000 0.224884
0.230774 0.000000 0.038696
0.606415 0.000000 0.095184
0.919006 0.000000 0.622345
0.000000 0.185944 0.224884
0.045837 0.126587 0.228149
0.234161 0.047577 0.084045
0.608215 0.047028 0.286438
0.919220 0.046234 0.845459
0.000000 0.236664 0.093994
0.045746 0.239960 0.131317
0.226776 0.236938 0.223633
0.610901 0.209869 0.487061
0.919830 0.195374 0.779572
0.000000 0.612885 0.086517
0.044617 0.614685 0.138489
0.199829 0.619904 0.197021
0.613037 0.619965 0.196594
0.919861 0.272522 0.200684
0.000000 0.920135 0.130524
0.044281 0.920319 0.197449
0.191071 0.921112 0.188324
0.592438 0.921112 0.187775
0.919952 0.921112 0.187775
0.000000 0.190674 0.560883
0.000000 0.077911 0.560883
0.480652 0.000000 0.560486
0.606903 0.000000 0.061584
0.919006 0.000000 0.083221
0.000000 0.374359 0.560883
0.044678 0.261139 0.562927
0.236725 0.046265 0.563019
0.608795 0.046295 0.115631
0.919220 0.046143 0.253143
0.000000 0.560883 0.515442
0.044678 0.545929 0.562714
0.200989 0.401306 0.568726
0.613831 0.208405 0.273346
0.919922 0.203766 0.717621
0.000000 0.613129 0.207947
0.044617 0.614899 0.266876
0.199036 0.620239 0.385437
0.608978 0.616852 0.555267
0.920135 0.545258 0.818237
0.000000 0.920135 0.173676
0.044281 0.920319 0.254547
0.190063 0.921143 0.423248
0.570465 0.922119 0.517822
0.920929 0.922119 0.517792
0.000000 0.333679 0.819580
0.000000 0.164886 0.819580
0.160980 0.000000 0.819580
0.819580 0.000000 0.300446
0.919006 0.000000 0.059021
0.000000 0.544647 0.819580
0.044373 0.419067 0.820221
0.051117 0.056580 0.820251
0.820251 0.045929 0.484253
0.919220 0.045959 0.111084
0.000000 0.770691 0.819580
0.044373 0.721954 0.820221
0.192719 0.563690 0.822479
0.783447 0.198456 0.819855
0.919983 0.199402 0.256805
0.000000 0.819580 0.643158
0.044373 0.820221 0.708954
0.192719 0.822479 0.795380
0.581238 0.735229 0.824158
0.920624 0.589844 0.729126
0.000000 0.920135 0.318054
0.044281 0.920319 0.385590
0.190063 0.921143 0.505615
0.567566 0.922180 0.716339
0.920654 0.921875 0.810333
0.000000 0.486267 0.957062
0.000000 0.285553 0.957062
0.026184 0.002136 0.957062
0.948425 0.000000 0.943268
0.957062 0.000000 0.226593
0.000000 0.691437 0.957062
0.044250 0.573334 0.957153
0.045776 0.224365 0.957153
0.842224 0.045776 0.957153
0.957153 0.045776 0.340546
0.000000 0.878510 0.957062
0.044250 0.843781 0.957153
0.189148 0.704468 0.957550
0.463013 0.194672 0.957581
0.957581 0.194672 0.557007
0.000000 0.957062 0.915344
0.044250 0.957123 0.940918
0.189148 0.929840 0.957550
0.562531 0.835693 0.958130
0.958130 0.569641 0.802826
0.000000 0.957062 0.646729
0.044250 0.957153 0.710815
0.189148 0.957550 0.805328
0.562531 0.958130 0.898224
0.917236 0.941223 0.957672
