assets/resources/wfx_effect/nle_default/BaseFilter/PQCube/Data/HDR_PQ.cube
#Copyright: (C)Copyright 2022 Wondershare Inc.
#Created by: BIAOZHOU.
LUT_3D_SIZE 8
DOMAIN_MIN 0.000000 0.000000 0.000000
DOMAIN_MAX 0.903226 0.903226 0.903226
0.000000 0.000000 0.000000
0.092622 0.000000 0.000000
0.229845 0.000000 0.000000
0.436331 0.000000 0.000000
0.706727 0.000000 0.000000
0.974388 0.000000 0.000000
1.150766 0.000000 0.000000
1.230671 0.000000 0.000000
0.000000 0.078981 0.000000
0.077210 0.075241 0.000000
0.225982 0.016451 0.000000
0.434829 0.000000 0.000000
0.706083 0.000000 0.000000
0.974120 0.000000 0.000000
1.150667 0.000000 0.000000
1.230638 0.000000 0.000000
0.000000 0.196029 0.000000
0.000000 0.195011 0.000000
0.191572 0.186686 0.000000
0.422736 0.139522 0.000000
0.700972 0.000000 0.000000
0.972009 0.000000 0.000000
1.149885 0.000000 0.000000
1.230379 0.000000 0.000000
0.000000 0.372686 0.000000
0.000000 0.372275 0.000000
0.000000 0.369011 0.000000
0.363240 0.353977 0.000000
0.678066 0.272895 0.000000
0.962723 0.000000 0.000000
1.146463 0.000000 0.000000
1.229246 0.000000 0.000000
0.000000 0.606210 0.000000
0.000000 0.606017 0.000000
0.000000 0.604494 0.000000
0.000000 0.597805 0.000000
0.586370 0.571417 0.000000
0.928591 0.405738 0.000000
1.134114 0.000000 0.000000
1.225176 0.000000 0.000000
0.000000 0.841763 0.000000
0.000000 0.841672 0.000000
0.000000 0.840955 0.000000
0.000000 0.837824 0.000000
0.000000 0.826580 0.000000
0.804016 0.783513 0.000000
1.092360 0.493320 0.000000
1.211646 0.000000 0.000000
0.000000 1.000671 0.000000
0.000000 1.000634 0.000000
0.000000 1.000340 0.000000
0.000000 0.999056 0.000000
0.000000 0.994456 0.000000
0.000000 0.979298 0.000000
0.944889 0.920794 0.000000
1.167050 0.528274 0.000000
0.000000 1.073925 0.000000
0.000000 1.073912 0.000000
0.000000 1.073810 0.000000
0.000000 1.073362 0.000000
0.000000 1.071758 0.000000
0.000000 1.066467 0.000000
0.000000 1.049481 0.000000
1.007887 0.982185 0.000000
0.000000 0.000000 0.078566
0.090907 0.000000 0.078035
0.229372 0.000000 0.073542
0.436148 0.000000 0.046388
0.706653 0.000000 0.000000
0.974359 0.000000 0.000000
1.150756 0.000000 0.000000
1.230668 0.000000 0.000000
0.000000 0.078738 0.075544
0.074981 0.074981 0.074981
0.225497 0.014034 0.070217
0.434646 0.000000 0.039907
0.706008 0.000000 0.000000
0.974092 0.000000 0.000000
1.150657 0.000000 0.000000
1.230635 0.000000 0.000000
0.000000 0.195960 0.040227
0.000000 0.194941 0.038840
0.190961 0.186614 0.023768
0.422546 0.139419 0.000000
0.700897 0.000000 0.000000
0.971980 0.000000 0.000000
1.149875 0.000000 0.000000
1.230376 0.000000 0.000000
0.000000 0.372653 0.000000
0.000000 0.372242 0.000000
0.000000 0.368978 0.000000
0.363005 0.353951 0.000000
0.677987 0.272863 0.000000
0.962694 0.000000 0.000000
1.146453 0.000000 0.000000
1.229243 0.000000 0.000000
0.000000 0.606189 0.000000
0.000000 0.605996 0.000000
0.000000 0.604473 0.000000
0.000000 0.597784 0.000000
0.586273 0.571408 0.000000
0.928560 0.405727 0.000000
1.134104 0.000000 0.000000
1.225173 0.000000 0.000000
0.000000 0.841749 0.000000
0.000000 0.841659 0.000000
0.000000 0.840942 0.000000
0.000000 0.837810 0.000000
0.000000 0.826567 0.000000
0.803979 0.783511 0.000000
1.092349 0.493316 0.000000
1.211643 0.000000 0.000000
0.000000 1.000665 0.000000
0.000000 1.000628 0.000000
0.000000 1.000334 0.000000
0.000000 0.999050 0.000000
0.000000 0.994450 0.000000
0.000000 0.979292 0.000000
0.944876 0.920793 0.000000
1.167047 0.528272 0.000000
0.000000 1.073923 0.000000
0.000000 1.073910 0.000000
0.000000 1.073808 0.000000
0.000000 1.073360 0.000000
0.000000 1.071756 0.000000
0.000000 1.066464 0.000000
0.000000 1.049478 0.000000
1.007883 0.982185 0.000000
0.000000 0.000000 0.195155
0.075369 0.000000 0.195001
0.225594 0.000000 0.193653
0.434709 0.000000 0.184783
0.706066 0.000000 0.151807
0.974136 0.000000 0.000000
1.150679 0.000000 0.000000
1.230644 0.000000 0.000000
0.000000 0.076755 0.194318
0.052507 0.072853 0.194163
0.221626 0.000000 0.192817
0.433200 0.000000 0.183929
0.705420 0.000000 0.150878
0.973868 0.000000 0.000000
1.150580 0.000000 0.000000
1.230611 0.000000 0.000000
0.000000 0.195412 0.187484
0.000000 0.194388 0.187323
0.186045 0.186045 0.186045
0.421041 0.138600 0.176991
0.700303 0.000000 0.143259
0.971756 0.000000 0.000000
1.149799 0.000000 0.000000
1.230352 0.000000 0.000000
0.000000 0.372394 0.150565
0.000000 0.371983 0.150353
0.000000 0.368717 0.148674
0.361140 0.353741 0.140930
0.677364 0.272607 0.100084
0.962466 0.000000 0.000000
1.146376 0.000000 0.000000
1.229219 0.000000 0.000000
0.000000 0.606024 0.000000
0.000000 0.605831 0.000000
0.000000 0.604308 0.000000
0.000000 0.597619 0.000000
0.585508 0.571333 0.000000
0.928320 0.405640 0.000000
1.134026 0.000000 0.000000
1.225149 0.000000 0.000000
0.000000 0.841645 0.000000
0.000000 0.841554 0.000000
0.000000 0.840838 0.000000
0.000000 0.837706 0.000000
0.000000 0.826464 0.000000
0.803684 0.783490 0.000000
1.092266 0.493288 0.000000
1.211618 0.000000 0.000000
0.000000 1.000614 0.000000
0.000000 1.000577 0.000000
0.000000 1.000283 0.000000
0.000000 0.998999 0.000000
0.000000 0.994399 0.000000
0.000000 0.979243 0.000000
0.944774 0.920788 0.000000
1.167021 0.528264 0.000000
0.000000 1.073904 0.000000
0.000000 1.073891 0.000000
0.000000 1.073789 0.000000
0.000000 1.073341 0.000000
0.000000 1.071737 0.000000
0.000000 1.066446 0.000000
0.000000 1.049460 0.000000
1.007850 0.982184 0.000000
0.000000 0.000000 0.374065
0.000000 0.000000 0.373978
0.205946 0.000000 0.373294
0.428336 0.000000 0.367690
0.703490 0.000000 0.332853
0.973157 0.000000 0.254483
1.150344 0.000000 0.121217
1.230537 0.000000 0.000000
0.000000 0.066598 0.373675
0.000000 0.061880 0.373588
0.201494 0.000000 0.372903
0.426795 0.000000 0.367355
0.702841 0.000000 0.332537
0.972889 0.000000 0.254198
1.150245 0.000000 0.120857
1.230504 0.000000 0.000000
0.000000 0.191034 0.370581
0.000000 0.189994 0.370493
0.160243 0.181510 0.369802
0.414370 0.134936 0.364704
0.697697 0.000000 0.330028
0.970774 0.000000 0.251935
1.149463 0.000000 0.117960
1.230245 0.000000 0.000000
0.000000 0.371262 0.356201
0.000000 0.370849 0.356124
0.000000 0.367574 0.355511
0.352824 0.352824 0.352824
0.674632 0.271486 0.318769
0.961470 0.000000 0.241713
1.146039 0.000000 0.103947
1.229112 0.000000 0.000000
0.000000 0.605303 0.287875
0.000000 0.605110 0.287794
0.000000 0.603587 0.287153
0.000000 0.596898 0.284339
0.582145 0.571008 0.273412
0.927270 0.405263 0.199099
1.133683 0.000000 0.000000
1.225042 0.000000 0.000000
0.000000 0.841188 0.000000
0.000000 0.841097 0.000000
0.000000 0.840381 0.000000
0.000000 0.837251 0.000000
0.000000 0.826013 0.000000
0.802390 0.783398 0.000000
1.091904 0.493166 0.000000
1.211509 0.000000 0.000000
0.000000 1.000393 0.000000
0.000000 1.000355 0.000000
0.000000 1.000061 0.000000
0.000000 0.998778 0.000000
0.000000 0.994179 0.000000
0.000000 0.979027 0.000000
0.944324 0.920768 0.000000
1.166905 0.528225 0.000000
0.000000 1.073821 0.000000
0.000000 1.073808 0.000000
0.000000 1.073706 0.000000
0.000000 1.073258 0.000000
0.000000 1.071654 0.000000
0.000000 1.066364 0.000000
0.000000 1.049380 0.000000
1.007706 0.982179 0.000000
0.000000 0.000000 0.624282
0.000000 0.000000 0.624205
0.105074 0.000000 0.623599
0.387140 0.000000 0.620960
0.694131 0.000000 0.595851
0.969634 0.000000 0.482170
1.149141 0.000000 0.326246
1.230155 0.000000 0.157573
0.000000 0.000000 0.624020
0.000000 0.000000 0.623943
0.094406 0.000000 0.623337
0.385475 0.000000 0.620699
0.693469 0.000000 0.595698
0.969364 0.000000 0.482047
1.149042 0.000000 0.326154
1.230122 0.000000 0.157484
0.000000 0.173465 0.621955
0.000000 0.172408 0.621879
0.000000 0.163754 0.621275
0.372042 0.115182 0.618647
0.688225 0.000000 0.594492
0.967238 0.000000 0.481073
1.148259 0.000000 0.325424
1.229863 0.000000 0.156775
0.000000 0.350629 0.612987
0.000000 0.350219 0.612912
0.000000 0.346967 0.612318
0.304678 0.332345 0.609732
0.664689 0.267408 0.589194
0.957884 0.000000 0.476793
1.144829 0.000000 0.322209
1.228729 0.000000 0.153625
0.000000 0.602724 0.578273
0.000000 0.602531 0.578223
0.000000 0.601008 0.577822
0.000000 0.594320 0.576072
0.569839 0.569839 0.569839
0.923489 0.403905 0.461097
1.132453 0.000000 0.310336
1.224657 0.000000 0.141521
0.000000 0.839552 0.427769
0.000000 0.839462 0.427731
0.000000 0.838747 0.427439
0.000000 0.835622 0.426159
0.000000 0.824402 0.421575
0.797725 0.783071 0.404388
1.090602 0.492729 0.266152
1.211118 0.000000 0.083704
0.000000 0.999598 0.000000
0.000000 0.999561 0.000000
0.000000 0.999268 0.000000
0.000000 0.997985 0.000000
0.000000 0.993391 0.000000
0.000000 0.978253 0.000000
0.942711 0.920694 0.000000
1.166490 0.528088 0.000000
0.000000 1.073525 0.000000
0.000000 1.073512 0.000000
0.000000 1.073410 0.000000
0.000000 1.072962 0.000000
0.000000 1.071359 0.000000
0.000000 1.066071 0.000000
0.000000 1.049093 0.000000
1.007190 0.982162 0.000000
0.000000 0.000000 0.908905
0.000000 0.000000 0.908839
0.000000 0.000000 0.908320
0.253067 0.000000 0.906058
0.591722 0.000000 0.898069
0.957824 0.000000 0.822209
1.145148 0.000000 0.581382
1.228891 0.000000 0.357848
0.000000 0.000000 0.908715
0.000000 0.000000 0.908649
0.000000 0.000000 0.908130
0.250961 0.000000 0.905870
0.591022 0.000000 0.897884
0.957550 0.000000 0.822140
1.145048 0.000000 0.581338
1.228858 0.000000 0.357818
0.000000 0.122576 0.907222
0.000000 0.121352 0.907156
0.000000 0.111040 0.906639
0.233455 0.000000 0.904387
0.585484 0.000000 0.896430
0.955385 0.000000 0.821594
1.144260 0.000000 0.580985
1.228598 0.000000 0.357587
0.000000 0.296275 0.900750
0.000000 0.295910 0.900685
0.000000 0.293013 0.900176
0.115209 0.279935 0.897959
0.560734 0.225329 0.890127
0.945859 0.000000 0.819205
1.140813 0.000000 0.579439
1.227463 0.000000 0.356575
0.000000 0.527424 0.878233
0.000000 0.527245 0.878172
0.000000 0.525833 0.877690
0.000000 0.519636 0.875593
0.461969 0.497026 0.868179
0.910795 0.399356 0.810620
1.128370 0.000000 0.573870
1.223384 0.000000 0.352915
0.000000 0.834190 0.800350
0.000000 0.834100 0.800317
0.000000 0.833389 0.800060
0.000000 0.830279 0.798938
0.000000 0.819115 0.794938
0.781983 0.781983 0.781983
1.086280 0.491279 0.555107
1.209822 0.000000 0.340478
0.000000 0.996985 0.522313
0.000000 0.996948 0.522298
0.000000 0.996656 0.522176
0.000000 0.995377 0.521642
0.000000 0.990798 0.519734
0.000000 0.975707 0.513463
0.937346 0.920449 0.489898
1.165118 0.527632 0.295797
0.000000 1.072548 0.092551
0.000000 1.072535 0.092515
0.000000 1.072433 0.092229
0.000000 1.071986 0.090967
0.000000 1.070385 0.086235
0.000000 1.065103 0.067258
0.000000 1.048146 0.000000
1.005480 0.982107 0.000000
0.000000 0.000000 1.135571
0.000000 0.000000 1.135531
0.000000 0.000000 1.135216
0.000000 0.000000 1.133842
0.363674 0.000000 1.128955
0.750418 0.000000 1.113235
1.132068 0.000000 0.971782
1.224794 0.000000 0.622733
0.000000 0.000000 1.135464
0.000000 0.000000 1.135424
0.000000 0.000000 1.135109
0.000000 0.000000 1.133735
0.363007 0.000000 1.128849
0.750140 0.000000 1.113133
1.131966 0.000000 0.971755
1.224761 0.000000 0.622719
0.000000 0.000000 1.134618
0.000000 0.000000 1.134578
0.000000 0.000000 1.134264
0.000000 0.000000 1.132893
0.357699 0.000000 1.128017
0.747941 0.000000 1.112331
1.131165 0.000000 0.971538
1.224500 0.000000 0.622601
0.000000 0.200750 1.130941
0.000000 0.200431 1.130901
0.000000 0.197889 1.130589
0.000000 0.186242 1.129230
0.333274 0.132885 1.124395
0.738294 0.000000 1.108840
1.127656 0.000000 0.970589
1.223358 0.000000 0.622089
0.000000 0.395434 1.117987
0.000000 0.395303 1.117948
0.000000 0.394272 1.117646
0.000000 0.389734 1.116327
0.216426 0.373025 1.111636
0.703150 0.311220 1.096533
1.114990 0.000000 0.967189
1.219258 0.000000 0.620251
0.000000 0.660457 1.077554
0.000000 0.660384 1.077519
0.000000 0.659810 1.077244
0.000000 0.657298 1.076046
0.000000 0.648279 1.071780
0.577664 0.618287 1.058022
1.072102 0.486538 0.955954
1.205625 0.000000 0.614146
0.000000 0.988658 0.948551
0.000000 0.988621 0.948535
0.000000 0.988331 0.948411
0.000000 0.987066 0.947866
0.000000 0.982533 0.945919
0.000000 0.967590 0.939552
0.919655 0.919655 0.919655
1.160670 0.526158 0.594101
0.000000 1.069411 0.561352
0.000000 1.069398 0.561347
0.000000 1.069297 0.561304
0.000000 1.068852 0.561115
0.000000 1.067257 0.560440
0.000000 1.061996 0.558216
0.000000 1.045107 0.551094
0.999928 0.981928 0.523726
0.000000 0.000000 1.255425
0.000000 0.000000 1.255408
0.000000 0.000000 1.255275
0.000000 0.000000 1.254697
0.000000 0.000000 1.252632
0.417847 0.000000 1.245882
0.826978 0.000000 1.224832
1.211165 0.000000 1.039681
0.000000 0.000000 1.255381
0.000000 0.000000 1.255364
0.000000 0.000000 1.255231
0.000000 0.000000 1.254654
0.000000 0.000000 1.252589
0.417632 0.000000 1.245839
0.826880 0.000000 1.224791
1.211132 0.000000 1.039671
0.000000 0.000000 1.255034
0.000000 0.000000 1.255017
0.000000 0.000000 1.254885
0.000000 0.000000 1.254307
0.000000 0.000000 1.252244
0.415930 0.000000 1.245499
0.826106 0.000000 1.224467
1.210866 0.000000 1.039597
0.000000 0.000000 1.253521
0.000000 0.000000 1.253504
0.000000 0.000000 1.253372
0.000000 0.000000 1.252797
0.000000 0.000000 1.250740
0.408396 0.000000 1.244018
0.822725 0.000000 1.223055
1.209704 0.000000 1.039272
0.000000 0.243752 1.248136
0.000000 0.243657 1.248119
0.000000 0.242906 1.247989
0.000000 0.239586 1.247420
0.000000 0.227180 1.245388
0.379957 0.178048 1.238745
0.810568 0.000000 1.218023
1.205532 0.000000 1.038106
0.000000 0.445338 1.230758
0.000000 0.445295 1.230742
0.000000 0.444949 1.230617
0.000000 0.443436 1.230070
0.000000 0.437979 1.228115
0.258575 0.419518 1.221723
0.769939 0.353970 1.201764
1.191655 0.000000 1.034255
0.000000 0.723453 1.178625
0.000000 0.723427 1.178611
0.000000 0.723223 1.178499
0.000000 0.722334 1.178014
0.000000 0.719146 1.176277
0.000000 0.708620 1.170591
0.630550 0.674653 1.152793
1.145851 0.521261 1.021851
0.000000 1.059291 1.016319
0.000000 1.059278 1.016313
0.000000 1.059177 1.016267
0.000000 1.058738 1.016064
0.000000 1.057164 1.015338
0.000000 1.051972 1.012949
0.000000 1.035295 1.005337
0.981338 0.981338 0.981338
