assets/resources/wfx_effect/nle_default/BaseFilter/PQCube/Data/HDR_PQ.cube
#Copyright: (C)Copyright 2022 Wondershare Inc.
#Created by: BIAOZHOU.
LUT_3D_SIZE 32
DOMAIN_MIN 0.0 0.0 0.0
DOMAIN_MAX 1.0 1.0 1.0
0.000000 0.000000 0.000000
0.023035 0.000000 0.000000
0.043950 0.000000 0.000000
0.066944 0.000000 0.000000
0.092622 0.000000 0.000000
0.121389 0.000000 0.000000
0.153615 0.000000 0.000000
0.189655 0.000000 0.000000
0.229845 0.000000 0.000000
0.274470 0.000000 0.000000
0.323732 0.000000 0.000000
0.377714 0.000000 0.000000
0.436331 0.000000 0.000000
0.499281 0.000000 0.000000
0.565990 0.000000 0.000000
0.635555 0.000000 0.000000
0.706727 0.000000 0.000000
0.777948 0.000000 0.000000
0.847456 0.000000 0.000000
0.913466 0.000000 0.000000
0.974388 0.000000 0.000000
1.029017 0.000000 0.000000
1.076660 0.000000 0.000000
1.117148 0.000000 0.000000
1.150766 0.000000 0.000000
1.178119 0.000000 0.000000
1.199995 0.000000 0.000000
1.217239 0.000000 0.000000
1.230671 0.000000 0.000000
1.241030 0.000000 0.000000
1.248953 0.000000 0.000000
1.254968 0.000000 0.000000
0.000000 0.019643 0.000000
0.019202 0.018712 0.000000
0.042544 0.014490 0.000000
0.066175 0.000000 0.000000
0.092136 0.000000 0.000000
0.121057 0.000000 0.000000
0.153376 0.000000 0.000000
0.189478 0.000000 0.000000
0.229710 0.000000 0.000000
0.274365 0.000000 0.000000
0.323650 0.000000 0.000000
0.377648 0.000000 0.000000
0.436277 0.000000 0.000000
0.499238 0.000000 0.000000
0.565955 0.000000 0.000000
0.635526 0.000000 0.000000
0.706704 0.000000 0.000000
0.777930 0.000000 0.000000
0.847441 0.000000 0.000000
0.913454 0.000000 0.000000
0.974378 0.000000 0.000000
1.029010 0.000000 0.000000
1.076654 0.000000 0.000000
1.117144 0.000000 0.000000
1.150762 0.000000 0.000000
1.178116 0.000000 0.000000
1.199993 0.000000 0.000000
1.217238 0.000000 0.000000
1.230670 0.000000 0.000000
1.241029 0.000000 0.000000
1.248952 0.000000 0.000000
1.254968 0.000000 0.000000
0.000000 0.037478 0.000000
0.000000 0.037111 0.000000
0.036637 0.035702 0.000000
0.063203 0.032269 0.000000
0.090298 0.023977 0.000000
0.119812 0.000000 0.000000
0.152485 0.000000 0.000000
0.188816 0.000000 0.000000
0.229206 0.000000 0.000000
0.273973 0.000000 0.000000
0.323341 0.000000 0.000000
0.377402 0.000000 0.000000
0.436080 0.000000 0.000000
0.499079 0.000000 0.000000
0.565826 0.000000 0.000000
0.635422 0.000000 0.000000
0.706620 0.000000 0.000000
0.777861 0.000000 0.000000
0.847386 0.000000 0.000000
0.913410 0.000000 0.000000
0.974343 0.000000 0.000000
1.028982 0.000000 0.000000
1.076632 0.000000 0.000000
1.117127 0.000000 0.000000
1.150749 0.000000 0.000000
1.178106 0.000000 0.000000
1.199985 0.000000 0.000000
1.217232 0.000000 0.000000
1.230666 0.000000 0.000000
1.241026 0.000000 0.000000
1.248950 0.000000 0.000000
1.254966 0.000000 0.000000
0.000000 0.057085 0.000000
0.000000 0.056883 0.000000
0.009978 0.056121 0.000000
0.055805 0.054382 0.000000
0.086030 0.050931 0.000000
0.116986 0.044214 0.000000
0.150484 0.028769 0.000000
0.187339 0.000000 0.000000
0.228084 0.000000 0.000000
0.273103 0.000000 0.000000
0.322656 0.000000 0.000000
0.376857 0.000000 0.000000
0.435643 0.000000 0.000000
0.498726 0.000000 0.000000
0.565540 0.000000 0.000000
0.635190 0.000000 0.000000
0.706432 0.000000 0.000000
0.777709 0.000000 0.000000
0.847263 0.000000 0.000000
0.913312 0.000000 0.000000
0.974265 0.000000 0.000000
1.028920 0.000000 0.000000
1.076584 0.000000 0.000000
1.117089 0.000000 0.000000
1.150720 0.000000 0.000000
1.178084 0.000000 0.000000
1.199968 0.000000 0.000000
1.217219 0.000000 0.000000
1.230656 0.000000 0.000000
1.241019 0.000000 0.000000
1.248944 0.000000 0.000000
1.254962 0.000000 0.000000
0.000000 0.078981 0.000000
0.000000 0.078853 0.000000
0.000000 0.078373 0.000000
0.036204 0.077296 0.000000
0.077210 0.075241 0.000000
0.111475 0.071581 0.000000
0.146670 0.065138 0.000000
0.184555 0.053073 0.000000
0.225982 0.016451 0.000000
0.271479 0.000000 0.000000
0.321381 0.000000 0.000000
0.375843 0.000000 0.000000
0.434829 0.000000 0.000000
0.498070 0.000000 0.000000
0.565009 0.000000 0.000000
0.634759 0.000000 0.000000
0.706083 0.000000 0.000000
0.777427 0.000000 0.000000
0.847036 0.000000 0.000000
0.913130 0.000000 0.000000
0.974120 0.000000 0.000000
1.028806 0.000000 0.000000
1.076495 0.000000 0.000000
1.117020 0.000000 0.000000
1.150667 0.000000 0.000000
1.178043 0.000000 0.000000
1.199937 0.000000 0.000000
1.217195 0.000000 0.000000
1.230638 0.000000 0.000000
1.241006 0.000000 0.000000
1.248934 0.000000 0.000000
1.254955 0.000000 0.000000
0.000000 0.103513 0.000000
0.000000 0.103425 0.000000
0.000000 0.103097 0.000000
0.000000 0.102367 0.000000
0.057820 0.100992 0.000000
0.101190 0.098610 0.000000
0.139895 0.094636 0.000000
0.179715 0.088050 0.000000
0.222369 0.076769 0.000000
0.268706 0.054389 0.000000
0.319211 0.000000 0.000000
0.374122 0.000000 0.000000
0.433451 0.000000 0.000000
0.496959 0.000000 0.000000
0.564110 0.000000 0.000000
0.634031 0.000000 0.000000
0.705493 0.000000 0.000000
0.776950 0.000000 0.000000
0.846652 0.000000 0.000000
0.912823 0.000000 0.000000
0.973876 0.000000 0.000000
1.028613 0.000000 0.000000
1.076344 0.000000 0.000000
1.116902 0.000000 0.000000
1.150576 0.000000 0.000000
1.177974 0.000000 0.000000
1.199884 0.000000 0.000000
1.217156 0.000000 0.000000
1.230608 0.000000 0.000000
1.240983 0.000000 0.000000
1.248918 0.000000 0.000000
1.254942 0.000000 0.000000
0.000000 0.130995 0.000000
0.000000 0.130932 0.000000
0.000000 0.130696 0.000000
0.000000 0.130173 0.000000
0.000000 0.129195 0.000000
0.080858 0.127519 0.000000
0.128051 0.124786 0.000000
0.171614 0.120401 0.000000
0.216445 0.113424 0.000000
0.264209 0.102089 0.000000
0.315715 0.082163 0.000000
0.371360 0.024976 0.000000
0.431246 0.000000 0.000000
0.495185 0.000000 0.000000
0.562677 0.000000 0.000000
0.632870 0.000000 0.000000
0.704553 0.000000 0.000000
0.776191 0.000000 0.000000
0.846041 0.000000 0.000000
0.912333 0.000000 0.000000
0.973487 0.000000 0.000000
1.028306 0.000000 0.000000
1.076103 0.000000 0.000000
1.116716 0.000000 0.000000
1.150432 0.000000 0.000000
1.177863 0.000000 0.000000
1.199800 0.000000 0.000000
1.217092 0.000000 0.000000
1.230561 0.000000 0.000000
1.240947 0.000000 0.000000
1.248891 0.000000 0.000000
1.254923 0.000000 0.000000
0.000000 0.161736 0.000000
0.000000 0.161689 0.000000
0.000000 0.161514 0.000000
0.000000 0.161125 0.000000
0.000000 0.160401 0.000000
0.000000 0.159167 0.000000
0.106197 0.157175 0.000000
0.158088 0.154056 0.000000
0.206929 0.149140 0.000000
0.257124 0.141540 0.000000
0.310267 0.129651 0.000000
0.367086 0.110116 0.000000
0.427847 0.071376 0.000000
0.492458 0.000000 0.000000
0.560477 0.000000 0.000000
0.631091 0.000000 0.000000
0.703114 0.000000 0.000000
0.775029 0.000000 0.000000
0.845106 0.000000 0.000000
0.911585 0.000000 0.000000
0.972892 0.000000 0.000000
1.027837 0.000000 0.000000
1.075736 0.000000 0.000000
1.116430 0.000000 0.000000
1.150212 0.000000 0.000000
1.177695 0.000000 0.000000
1.199672 0.000000 0.000000
1.216995 0.000000 0.000000
1.230488 0.000000 0.000000
1.240893 0.000000 0.000000
1.248850 0.000000 0.000000
1.254893 0.000000 0.000000
0.000000 0.196029 0.000000
0.000000 0.195993 0.000000
0.000000 0.195860 0.000000
0.000000 0.195563 0.000000
0.000000 0.195011 0.000000
0.000000 0.194073 0.000000
0.049552 0.192569 0.000000
0.134271 0.190237 0.000000
0.191572 0.186686 0.000000
0.246086 0.181064 0.000000
0.301935 0.172576 0.000000
0.360617 0.159697 0.000000
0.422736 0.139522 0.000000
0.488375 0.104208 0.000000
0.557193 0.000000 0.000000
0.628441 0.000000 0.000000
0.700972 0.000000 0.000000
0.773301 0.000000 0.000000
0.843717 0.000000 0.000000
0.910474 0.000000 0.000000
0.972009 0.000000 0.000000
1.027140 0.000000 0.000000
1.075190 0.000000 0.000000
1.116006 0.000000 0.000000
1.149885 0.000000 0.000000
1.177444 0.000000 0.000000
1.199481 0.000000 0.000000
1.216851 0.000000 0.000000
1.230379 0.000000 0.000000
1.240812 0.000000 0.000000
1.248790 0.000000 0.000000
1.254848 0.000000 0.000000
0.000000 0.234132 0.000000
0.000000 0.234104 0.000000
0.000000 0.234000 0.000000
0.000000 0.233768 0.000000
0.000000 0.233338 0.000000
0.000000 0.232609 0.000000
0.000000 0.231443 0.000000
0.082098 0.229645 0.000000
0.165367 0.226943 0.000000
0.228731 0.222898 0.000000
0.289253 0.216321 0.000000
0.350943 0.206611 0.000000
0.415172 0.192280 0.000000
0.482372 0.170694 0.000000
0.552385 0.135677 0.000000
0.624571 0.049363 0.000000
0.697852 0.000000 0.000000
0.770787 0.000000 0.000000
0.841698 0.000000 0.000000
0.908860 0.000000 0.000000
0.970727 0.000000 0.000000
1.026129 0.000000 0.000000
1.074399 0.000000 0.000000
1.115392 0.000000 0.000000
1.149411 0.000000 0.000000
1.177081 0.000000 0.000000
1.199205 0.000000 0.000000
1.216642 0.000000 0.000000
1.230222 0.000000 0.000000
1.240694 0.000000 0.000000
1.248703 0.000000 0.000000
1.254783 0.000000 0.000000
0.000000 0.276235 0.000000
0.000000 0.276213 0.000000
0.000000 0.276130 0.000000
0.000000 0.275947 0.000000
0.000000 0.275606 0.000000
0.000000 0.275029 0.000000
0.000000 0.274107 0.000000
0.000000 0.272691 0.000000
0.113091 0.270573 0.000000
0.199675 0.267461 0.000000
0.269720 0.262842 0.000000
0.336486 0.254965 0.000000
0.404057 0.243602 0.000000
0.473640 0.227287 0.000000
0.545437 0.203564 0.000000
0.619003 0.167214 0.000000
0.693376 0.097806 0.000000
0.767188 0.000000 0.000000
0.838811 0.000000 0.000000
0.906555 0.000000 0.000000
0.968897 0.000000 0.000000
1.024686 0.000000 0.000000
1.073270 0.000000 0.000000
1.114515 0.000000 0.000000
1.148735 0.000000 0.000000
1.176564 0.000000 0.000000
1.198812 0.000000 0.000000
1.216344 0.000000 0.000000
1.229998 0.000000 0.000000
1.240527 0.000000 0.000000
1.248578 0.000000 0.000000
1.254691 0.000000 0.000000
0.000000 0.322433 0.000000
0.000000 0.322415 0.000000
0.000000 0.322349 0.000000
0.000000 0.322201 0.000000
0.000000 0.321927 0.000000
0.000000 0.321464 0.000000
0.000000 0.320725 0.000000
0.000000 0.319591 0.000000
0.000000 0.317900 0.000000
0.145311 0.315428 0.000000
0.237284 0.311860 0.000000
0.314588 0.306566 0.000000
0.387692 0.296926 0.000000
0.460989 0.283365 0.000000
0.535470 0.264430 0.000000
0.611066 0.237812 0.000000
0.687022 0.198942 0.000000
0.762095 0.133170 0.000000
0.834734 0.000000 0.000000
0.903304 0.000000 0.000000
0.966319 0.000000 0.000000
1.022655 0.000000 0.000000
1.071682 0.000000 0.000000
1.113282 0.000000 0.000000
1.147785 0.000000 0.000000
1.175837 0.000000 0.000000
1.198258 0.000000 0.000000
1.215926 0.000000 0.000000
1.229684 0.000000 0.000000
1.240291 0.000000 0.000000
1.248403 0.000000 0.000000
1.254561 0.000000 0.000000
0.000000 0.372686 0.000000
0.000000 0.372671 0.000000
0.000000 0.372617 0.000000
0.000000 0.372497 0.000000
0.000000 0.372275 0.000000
0.000000 0.371898 0.000000
0.000000 0.371298 0.000000
0.000000 0.370379 0.000000
0.000000 0.369011 0.000000
0.000000 0.367015 0.000000
0.179496 0.364149 0.000000
0.278156 0.360074 0.000000
0.363240 0.353977 0.000000
0.442586 0.341973 0.000000
0.521194 0.325530 0.000000
0.599808 0.303223 0.000000
0.678066 0.272895 0.000000
0.754945 0.230504 0.000000
0.829028 0.164476 0.000000
0.898763 0.000000 0.000000
0.962723 0.000000 0.000000
1.019825 0.000000 0.000000
1.069470 0.000000 0.000000
1.111566 0.000000 0.000000
1.146463 0.000000 0.000000
1.174825 0.000000 0.000000
1.197489 0.000000 0.000000
1.215344 0.000000 0.000000
1.229246 0.000000 0.000000
1.239964 0.000000 0.000000
1.248159 0.000000 0.000000
1.254381 0.000000 0.000000
0.000000 0.426776 0.000000
0.000000 0.426764 0.000000
0.000000 0.426719 0.000000
0.000000 0.426621 0.000000
0.000000 0.426438 0.000000
0.000000 0.426129 0.000000
0.000000 0.425638 0.000000
0.000000 0.424885 0.000000
0.000000 0.423766 0.000000
0.000000 0.422137 0.000000
0.000000 0.419804 0.000000
0.215818 0.416499 0.000000
0.322098 0.411856 0.000000
0.415396 0.404803 0.000000
0.500634 0.389673 0.000000
0.583835 0.369516 0.000000
0.665479 0.342976 0.000000
0.744960 0.308088 0.000000
0.821091 0.261300 0.000000
0.892465 0.193036 0.000000
0.957745 0.000000 0.000000
1.015914 0.000000 0.000000
1.066416 0.000000 0.000000
1.109198 0.000000 0.000000
1.144640 0.000000 0.000000
1.173430 0.000000 0.000000
1.196428 0.000000 0.000000
1.214543 0.000000 0.000000
1.228643 0.000000 0.000000
1.239513 0.000000 0.000000
1.247823 0.000000 0.000000
1.254132 0.000000 0.000000
0.000000 0.484256 0.000000
0.000000 0.484247 0.000000
0.000000 0.484210 0.000000
0.000000 0.484128 0.000000
0.000000 0.483978 0.000000
0.000000 0.483723 0.000000
0.000000 0.483316 0.000000
0.000000 0.482695 0.000000
0.000000 0.481773 0.000000
0.000000 0.480431 0.000000
0.000000 0.478513 0.000000
0.000000 0.475804 0.000000
0.254137 0.472013 0.000000
0.368717 0.466738 0.000000
0.470542 0.458543 0.000000
0.561020 0.439354 0.000000
0.647760 0.414519 0.000000
0.731031 0.382815 0.000000
0.810088 0.342540 0.000000
0.883769 0.290631 0.000000
0.950892 0.218962 0.000000
1.010538 0.062737 0.000000
1.062225 0.000000 0.000000
1.105952 0.000000 0.000000
1.142141 0.000000 0.000000
1.171520 0.000000 0.000000
1.194977 0.000000 0.000000
1.213445 0.000000 0.000000
1.227818 0.000000 0.000000
1.238896 0.000000 0.000000
1.247364 0.000000 0.000000
1.253792 0.000000 0.000000
0.000000 0.544408 0.000000
0.000000 0.544400 0.000000
0.000000 0.544369 0.000000
0.000000 0.544302 0.000000
0.000000 0.544176 0.000000
0.000000 0.543965 0.000000
0.000000 0.543627 0.000000
0.000000 0.543112 0.000000
0.000000 0.542347 0.000000
0.000000 0.541235 0.000000
0.000000 0.539648 0.000000
0.000000 0.537410 0.000000
0.069790 0.534286 0.000000
0.294053 0.529955 0.000000
0.417393 0.523979 0.000000
0.527891 0.514429 0.000000
0.622626 0.490095 0.000000
0.711550 0.459533 0.000000
0.794835 0.421745 0.000000
0.871787 0.375363 0.000000
0.941487 0.317816 0.000000
1.003182 0.242074 0.000000
1.056500 0.105411 0.000000
1.101523 0.000000 0.000000
1.138737 0.000000 0.000000
1.168918 0.000000 0.000000
1.193000 0.000000 0.000000
1.211952 0.000000 0.000000
1.226696 0.000000 0.000000
1.238057 0.000000 0.000000
1.246740 0.000000 0.000000
1.253330 0.000000 0.000000
0.000000 0.606210 0.000000
0.000000 0.606203 0.000000
0.000000 0.606177 0.000000
0.000000 0.606121 0.000000
0.000000 0.606017 0.000000
0.000000 0.605840 0.000000
0.000000 0.605560 0.000000
0.000000 0.605131 0.000000
0.000000 0.604494 0.000000
0.000000 0.603570 0.000000
0.000000 0.602251 0.000000
0.000000 0.600393 0.000000
0.000000 0.597805 0.000000
0.125326 0.594225 0.000000
0.334931 0.589302 0.000000
0.467256 0.582557 0.000000
0.586370 0.571417 0.000000
0.684076 0.540757 0.000000
0.773617 0.503427 0.000000
0.855262 0.458747 0.000000
0.928591 0.405738 0.000000
0.993134 0.342288 0.000000
1.048702 0.262181 0.000000
1.095502 0.131626 0.000000
1.134114 0.000000 0.000000
1.165390 0.000000 0.000000
1.190321 0.000000 0.000000
1.209929 0.000000 0.000000
1.225176 0.000000 0.000000
1.236921 0.000000 0.000000
1.245895 0.000000 0.000000
1.252704 0.000000 0.000000
0.000000 0.668359 0.000000
0.000000 0.668354 0.000000
0.000000 0.668332 0.000000
0.000000 0.668286 0.000000
0.000000 0.668199 0.000000
0.000000 0.668052 0.000000
0.000000 0.667818 0.000000
0.000000 0.667460 0.000000
0.000000 0.666930 0.000000
0.000000 0.666161 0.000000
0.000000 0.665063 0.000000
0.000000 0.663519 0.000000
0.000000 0.661369 0.000000
0.000000 0.658401 0.000000
0.167228 0.654329 0.000000
0.375924 0.648767 0.000000
0.517213 0.641191 0.000000
0.644662 0.628223 0.000000
0.743834 0.590065 0.000000
0.832374 0.545054 0.000000
0.910879 0.492899 0.000000
0.979412 0.433015 0.000000
1.038093 0.363666 0.000000
1.087332 0.279183 0.000000
1.127853 0.150548 0.000000
1.160616 0.000000 0.000000
1.186700 0.000000 0.000000
1.207197 0.000000 0.000000
1.223125 0.000000 0.000000
1.235387 0.000000 0.000000
1.244754 0.000000 0.000000
1.251860 0.000000 0.000000
0.000000 0.729354 0.000000
0.000000 0.729349 0.000000
0.000000 0.729332 0.000000
0.000000 0.729293 0.000000
0.000000 0.729220 0.000000
0.000000 0.729098 0.000000
0.000000 0.728904 0.000000
0.000000 0.728607 0.000000
0.000000 0.728166 0.000000
0.000000 0.727526 0.000000
0.000000 0.726615 0.000000
0.000000 0.725333 0.000000
0.000000 0.723550 0.000000
0.000000 0.721090 0.000000
0.000000 0.717720 0.000000
0.204242 0.713126 0.000000
0.416041 0.706887 0.000000
0.566022 0.698431 0.000000
0.701305 0.683421 0.000000
0.800372 0.636741 0.000000
0.886432 0.583392 0.000000
0.960626 0.523489 0.000000
1.023648 0.456780 0.000000
1.076249 0.381773 0.000000
1.119381 0.293100 0.000000
1.154168 0.164409 0.000000
1.181816 0.000000 0.000000
1.203514 0.000000 0.000000
1.220361 0.000000 0.000000
1.233323 0.000000 0.000000
1.243219 0.000000 0.000000
1.250725 0.000000 0.000000
0.000000 0.787633 0.000000
0.000000 0.787629 0.000000
0.000000 0.787615 0.000000
0.000000 0.787583 0.000000
0.000000 0.787523 0.000000
0.000000 0.787422 0.000000
0.000000 0.787261 0.000000
0.000000 0.787015 0.000000
0.000000 0.786650 0.000000
0.000000 0.786122 0.000000
0.000000 0.785368 0.000000
0.000000 0.784308 0.000000
0.000000 0.782835 0.000000
0.000000 0.780804 0.000000
0.000000 0.778024 0.000000
0.000000 0.774239 0.000000
0.237782 0.769108 0.000000
0.454245 0.762172 0.000000
0.612411 0.752810 0.000000
0.754845 0.735596 0.000000
0.852355 0.679660 0.000000
0.934766 0.617666 0.000000
1.003922 0.550079 0.000000
1.061194 0.476864 0.000000
1.107913 0.396619 0.000000
1.145462 0.304054 0.000000
1.175233 0.174174 0.000000
1.198557 0.000000 0.000000
1.216644 0.000000 0.000000
1.230548 0.000000 0.000000
1.241157 0.000000 0.000000
1.249199 0.000000 0.000000
0.000000 0.841763 0.000000
0.000000 0.841760 0.000000
0.000000 0.841748 0.000000
0.000000 0.841721 0.000000
0.000000 0.841672 0.000000
0.000000 0.841589 0.000000
0.000000 0.841457 0.000000
0.000000 0.841255 0.000000
0.000000 0.840955 0.000000
0.000000 0.840521 0.000000
0.000000 0.839902 0.000000
0.000000 0.839033 0.000000
0.000000 0.837824 0.000000
0.000000 0.836158 0.000000
0.000000 0.833879 0.000000
0.000000 0.830779 0.000000
0.000000 0.826580 0.000000
0.267959 0.820914 0.000000
0.489574 0.813282 0.000000
0.655236 0.803017 0.000000
0.804016 0.783513 0.000000
0.898803 0.717983 0.000000
0.976819 0.647419 0.000000
1.040669 0.572521 0.000000
1.092360 0.493320 0.000000
1.133695 0.408356 0.000000
1.166356 0.312235 0.000000
1.191884 0.180377 0.000000
1.211646 0.000000 0.000000
1.226821 0.000000 0.000000
1.238389 0.000000 0.000000
1.247153 0.000000 0.000000
0.000000 0.890611 0.000000
0.000000 0.890609 0.000000
0.000000 0.890599 0.000000
0.000000 0.890578 0.000000
0.000000 0.890538 0.000000
0.000000 0.890470 0.000000
0.000000 0.890363 0.000000
0.000000 0.890198 0.000000
0.000000 0.889955 0.000000
0.000000 0.889601 0.000000
0.000000 0.889098 0.000000
0.000000 0.888391 0.000000
0.000000 0.887407 0.000000
0.000000 0.886053 0.000000
0.000000 0.884201 0.000000
0.000000 0.881682 0.000000
0.000000 0.878274 0.000000
0.000000 0.873678 0.000000
0.294546 0.867496 0.000000
0.521262 0.859195 0.000000
0.693616 0.848058 0.000000
0.847897 0.826275 0.000000
0.939187 0.751238 0.000000
1.012503 0.672526 0.000000
1.071177 0.590915 0.000000
1.117750 0.506362 0.000000
1.154368 0.417225 0.000000
1.182893 0.317859 0.000000
1.204925 0.183343 0.000000
1.221813 0.000000 0.000000
1.234673 0.000000 0.000000
1.244407 0.000000 0.000000
0.000000 0.933473 0.000000
0.000000 0.933471 0.000000
0.000000 0.933464 0.000000
0.000000 0.933446 0.000000
0.000000 0.933414 0.000000
0.000000 0.933360 0.000000
0.000000 0.933273 0.000000
0.000000 0.933141 0.000000
0.000000 0.932945 0.000000
0.000000 0.932661 0.000000
0.000000 0.932255 0.000000
0.000000 0.931686 0.000000
0.000000 0.930895 0.000000
0.000000 0.929805 0.000000
0.000000 0.928315 0.000000
0.000000 0.926290 0.000000
0.000000 0.923549 0.000000
0.000000 0.919855 0.000000
0.000000 0.914891 0.000000
0.317312 0.908230 0.000000
0.548814 0.899307 0.000000
0.727021 0.887358 0.000000
0.885989 0.863395 0.000000
0.973429 0.779326 0.000000
1.042125 0.693141 0.000000
1.096042 0.605544 0.000000
1.138128 0.516302 0.000000
1.170754 0.423504 0.000000
1.195870 0.321146 0.000000
1.215079 0.183244 0.000000
1.229682 0.000000 0.000000
1.240722 0.000000 0.000000
0.000000 0.970104 0.000000
0.000000 0.970103 0.000000
0.000000 0.970096 0.000000
0.000000 0.970083 0.000000
0.000000 0.970057 0.000000
0.000000 0.970014 0.000000
0.000000 0.969945 0.000000
0.000000 0.969840 0.000000
0.000000 0.969684 0.000000
0.000000 0.969457 0.000000
0.000000 0.969135 0.000000
0.000000 0.968682 0.000000
0.000000 0.968052 0.000000
0.000000 0.967185 0.000000
0.000000 0.965999 0.000000
0.000000 0.964388 0.000000
0.000000 0.962208 0.000000
0.000000 0.959270 0.000000
0.000000 0.955322 0.000000
0.000000 0.950029 0.000000
0.336129 0.942942 0.000000
0.572030 0.933461 0.000000
0.755287 0.920779 0.000000
0.918224 0.894808 0.000000
1.001829 0.802460 0.000000
1.066268 0.709618 0.000000
1.116013 0.616796 0.000000
1.154303 0.523491 0.000000
1.183639 0.427473 0.000000
1.206003 0.322289 0.000000
1.222966 0.180118 0.000000
1.235770 0.000000 0.000000
0.000000 1.000671 0.000000
0.000000 1.000670 0.000000
0.000000 1.000665 0.000000
0.000000 1.000654 0.000000
0.000000 1.000634 0.000000
0.000000 1.000600 0.000000
0.000000 1.000546 0.000000
0.000000 1.000463 0.000000
0.000000 1.000340 0.000000
0.000000 1.000162 0.000000
0.000000 0.999908 0.000000
0.000000 0.999552 0.000000
0.000000 0.999056 0.000000
0.000000 0.998374 0.000000
0.000000 0.997440 0.000000
0.000000 0.996172 0.000000
0.000000 0.994456 0.000000
0.000000 0.992144 0.000000
0.000000 0.989038 0.000000
0.000000 0.984873 0.000000
0.000000 0.979298 0.000000
0.351018 0.971843 0.000000
0.590972 0.961878 0.000000
0.778572 0.948554 0.000000
0.944889 0.920794 0.000000
1.024950 0.821072 0.000000
1.085661 0.722425 0.000000
1.131884 0.625095 0.000000
1.167050 0.528274 0.000000
1.193733 0.429387 0.000000
1.213907 0.321447 0.000000
1.229101 0.173828 0.000000
0.000000 1.025650 0.000000
0.000000 1.025649 0.000000
0.000000 1.025645 0.000000
0.000000 1.025637 0.000000
0.000000 1.025621 0.000000
0.000000 1.025594 0.000000
0.000000 1.025552 0.000000
0.000000 1.025488 0.000000
0.000000 1.025392 0.000000
0.000000 1.025253 0.000000
0.000000 1.025056 0.000000
0.000000 1.024778 0.000000
0.000000 1.024392 0.000000
0.000000 1.023860 0.000000
0.000000 1.023133 0.000000
0.000000 1.022145 0.000000
0.000000 1.020809 0.000000
0.000000 1.019008 0.000000
0.000000 1.016588 0.000000
0.000000 1.013344 0.000000
0.000000 1.009001 0.000000
0.000000 1.003194 0.000000
0.362108 0.995432 0.000000
0.605895 0.985057 0.000000
0.797262 0.971182 0.000000
0.966517 0.941870 0.000000
1.043494 0.835715 0.000000
1.101075 0.732064 0.000000
1.144413 0.630855 0.000000
1.177068 0.530965 0.000000
1.201642 0.429464 0.000000
1.220092 0.318736 0.000000
0.000000 1.045699 0.000000
0.000000 1.045698 0.000000
0.000000 1.045695 0.000000
0.000000 1.045688 0.000000
0.000000 1.045676 0.000000
0.000000 1.045656 0.000000
0.000000 1.045623 0.000000
0.000000 1.045573 0.000000
0.000000 1.045500 0.000000
0.000000 1.045393 0.000000
0.000000 1.045240 0.000000
0.000000 1.045026 0.000000
0.000000 1.044728 0.000000
0.000000 1.044318 0.000000
0.000000 1.043757 0.000000
0.000000 1.042995 0.000000
0.000000 1.041964 0.000000
0.000000 1.040574 0.000000
0.000000 1.038707 0.000000
0.000000 1.036203 0.000000
0.000000 1.032852 0.000000
0.000000 1.028369 0.000000
0.000000 1.022377 0.000000
0.369607 1.014367 0.000000
0.617171 1.003654 0.000000
0.811878 0.989314 0.000000
0.983767 0.958680 0.000000
1.058201 0.846975 0.000000
1.113248 0.739022 0.000000
1.154283 0.634452 0.000000
1.184952 0.531834 0.000000
1.207870 0.427877 0.000000
0.000000 1.061549 0.000000
0.000000 1.061549 0.000000
0.000000 1.061547 0.000000
0.000000 1.061542 0.000000
0.000000 1.061532 0.000000
0.000000 1.061517 0.000000
0.000000 1.061492 0.000000
0.000000 1.061454 0.000000
0.000000 1.061397 0.000000
0.000000 1.061316 0.000000
0.000000 1.061199 0.000000
0.000000 1.061035 0.000000
0.000000 1.060807 0.000000
0.000000 1.060494 0.000000
0.000000 1.060065 0.000000
0.000000 1.059482 0.000000
0.000000 1.058693 0.000000
0.000000 1.057630 0.000000
0.000000 1.056202 0.000000
0.000000 1.054287 0.000000
