assets/resources/wfx_effect/nle_default/BaseFilter/PQCube/Data/HDR_PQ.cube
#Copyright: (C)Copyright 2022 Wondershare Inc.
#Created by: BIAOZHOU.
LUT_3D_SIZE 5
DOMAIN_MIN 0.000000 0.000000 0.000000
DOMAIN_MAX 0.903226 0.903226 0.903226
0.000000 0.000000 0.000000
0.189655 0.000000 0.000000
0.565990 0.000000 0.000000
1.029017 0.000000 0.000000
1.230671 0.000000 0.000000
0.000000 0.161736 0.000000
0.158088 0.154056 0.000000
0.560477 0.000000 0.000000
1.027837 0.000000 0.000000
1.230488 0.000000 0.000000
0.000000 0.484256 0.000000
0.000000 0.482695 0.000000
0.470542 0.458543 0.000000
1.010538 0.062737 0.000000
1.227818 0.000000 0.000000
0.000000 0.890611 0.000000
0.000000 0.890198 0.000000
0.000000 0.884201 0.000000
0.847897 0.826275 0.000000
1.204925 0.183343 0.000000
0.000000 1.073925 0.000000
0.000000 1.073853 0.000000
0.000000 1.072799 0.000000
0.000000 1.063862 0.000000
1.007887 0.982185 0.000000
0.000000 0.000000 0.160934
0.186145 0.000000 0.159789
0.565337 0.000000 0.135747
1.028895 0.000000 0.000000
1.230654 0.000000 0.000000
0.000000 0.161234 0.154693
0.153525 0.153525 0.153525
0.559815 0.000000 0.128673
1.027714 0.000000 0.000000
1.230470 0.000000 0.000000
0.000000 0.484113 0.000000
0.000000 0.482552 0.000000
0.469695 0.458453 0.000000
1.010413 0.061954 0.000000
1.227801 0.000000 0.000000
0.000000 0.890548 0.000000
0.000000 0.890135 0.000000
0.000000 0.884137 0.000000
0.847734 0.826264 0.000000
1.204907 0.183310 0.000000
0.000000 1.073912 0.000000
0.000000 1.073839 0.000000
0.000000 1.072785 0.000000
0.000000 1.063849 0.000000
1.007864 0.982184 0.000000
0.000000 0.000000 0.490968
0.114722 0.000000 0.490523
0.555733 0.000000 0.477049
1.027115 0.000000 0.328126
1.230403 0.000000 0.000000
0.000000 0.149530 0.489235
0.000000 0.141429 0.488790
0.550074 0.000000 0.475793
1.025931 0.000000 0.327169
1.230219 0.000000 0.000000
0.000000 0.482032 0.462478
0.000000 0.480468 0.462133
0.457141 0.457141 0.457141
1.008584 0.048496 0.312865
1.227549 0.000000 0.000000
0.000000 0.889623 0.179802
0.000000 0.889211 0.179376
0.000000 0.883219 0.173056
0.845372 0.826114 0.099306
1.204648 0.182833 0.000000
0.000000 1.073717 0.000000
0.000000 1.073645 0.000000
0.000000 1.072591 0.000000
0.000000 1.063657 0.000000
1.007525 0.982173 0.000000
0.000000 0.000000 0.974669
0.000000 0.000000 0.974331
0.372804 0.000000 0.969462
1.011745 0.000000 0.868496
1.228266 0.000000 0.414693
0.000000 0.000000 0.973720
0.000000 0.000000 0.973383
0.366650 0.000000 0.968526
1.010535 0.000000 0.868184
1.228082 0.000000 0.414558
0.000000 0.377999 0.960166
0.000000 0.376692 0.959840
0.256274 0.357177 0.955140
0.992789 0.000000 0.863651
1.225405 0.000000 0.412588
0.000000 0.881840 0.846067
0.000000 0.881431 0.845910
0.000000 0.875488 0.843641
0.824830 0.824830 0.824830
1.202440 0.178704 0.395379
0.000000 1.072067 0.264831
0.000000 1.071995 0.264778
0.000000 1.070943 0.264012
0.000000 1.062028 0.257432
1.004634 0.982080 0.197037
0.000000 0.000000 1.255425
0.000000 0.000000 1.255331
0.000000 0.000000 1.253971
0.515374 0.000000 1.242593
1.211165 0.000000 1.039681
0.000000 0.000000 1.255179
0.000000 0.000000 1.255085
0.000000 0.000000 1.253726
0.514450 0.000000 1.242354
1.210977 0.000000 1.039628
0.000000 0.155595 1.251623
0.000000 0.154609 1.251530
0.000000 0.139218 1.250182
0.500836 0.000000 1.238898
1.208241 0.000000 1.038862
0.000000 0.506499 1.222412
0.000000 0.506289 1.222325
0.000000 0.503226 1.221062
0.363419 0.476667 1.210485
1.184758 0.139711 1.032358
0.000000 1.059291 1.016319
0.000000 1.059219 1.016286
0.000000 1.058185 1.015809
0.000000 1.049415 1.011777
0.981338 0.981338 0.981338
