assets/resources/wfx_effect/nle_default/BaseFilter/PQD65Cube/Data/HDR_PQD65.cube
#Copyright: (C)Copyright 2024 Wondershare Inc.
#Created by: BIAOZHOU.
LUT_3D_SIZE 32
DOMAIN_MIN 0.0 0.0 0.0
DOMAIN_MAX 1.0 1.0 1.0
0.000000 0.000000 0.000000
0.001227 0.000000 0.000003
0.005786 0.000000 0.000012
0.015885 0.000000 0.000033
0.034624 0.000000 0.000073
0.062248 0.000000 0.000139
0.093382 0.000000 0.000245
0.128220 0.000000 0.000406
0.167113 0.000000 0.000645
0.210381 0.000000 0.000989
0.258286 0.000000 0.001472
0.310995 0.000000 0.002139
0.368538 0.000000 0.003036
0.430765 0.000000 0.004219
0.497284 0.000000 0.005741
0.567404 0.000000 0.007648
0.640091 0.000000 0.009970
0.713960 0.000000 0.012704
0.787335 0.000000 0.015810
0.858380 0.000000 0.019202
0.925300 0.000000 0.022753
0.986558 0.000000 0.026316
1.041061 0.000000 0.029743
1.088249 0.000000 0.032909
1.128088 0.000000 0.035729
1.160975 0.000000 0.038159
1.187600 0.000000 0.040195
1.208800 0.000000 0.041823
1.225446 0.000000 0.043099
1.238367 0.000000 0.044089
1.248298 0.000000 0.044849
1.255868 0.000000 0.045429
0.000000 0.000983 0.000000
0.000970 0.000923 0.000000
0.005528 0.000702 0.000000
0.015627 0.000211 0.000015
0.034367 0.000000 0.000055
0.062058 0.000000 0.000121
0.093245 0.000000 0.000227
0.128118 0.000000 0.000388
0.167035 0.000000 0.000627
0.210320 0.000000 0.000971
0.258237 0.000000 0.001455
0.310955 0.000000 0.002121
0.368506 0.000000 0.003019
0.430738 0.000000 0.004202
0.497262 0.000000 0.005724
0.567385 0.000000 0.007632
0.640075 0.000000 0.009955
0.713947 0.000000 0.012691
0.787323 0.000000 0.015798
0.858370 0.000000 0.019191
0.925291 0.000000 0.022743
0.986551 0.000000 0.026308
1.041055 0.000000 0.029736
1.088244 0.000000 0.032903
1.128084 0.000000 0.035724
1.160972 0.000000 0.038156
1.187598 0.000000 0.040192
1.208798 0.000000 0.041821
1.225445 0.000000 0.043097
1.238366 0.000000 0.044087
1.248297 0.000000 0.044849
1.255867 0.000000 0.045429
0.000000 0.004633 0.000000
0.000012 0.004573 0.000000
0.004571 0.004352 0.000000
0.014670 0.003861 0.000000
0.033409 0.002951 0.000000
0.061347 0.001414 0.000055
0.092735 0.000000 0.000161
0.127739 0.000000 0.000322
0.166744 0.000000 0.000561
0.210093 0.000000 0.000905
0.258056 0.000000 0.001389
0.310809 0.000000 0.002056
0.368386 0.000000 0.002955
0.430638 0.000000 0.004139
0.497177 0.000000 0.005664
0.567314 0.000000 0.007574
0.640014 0.000000 0.009900
0.713895 0.000000 0.012639
0.787279 0.000000 0.015751
0.858332 0.000000 0.019149
0.925259 0.000000 0.022706
0.986525 0.000000 0.026276
1.041034 0.000000 0.029709
1.088226 0.000000 0.032881
1.128070 0.000000 0.035707
1.160961 0.000000 0.038141
1.187589 0.000000 0.040181
1.208791 0.000000 0.041813
1.225440 0.000000 0.043091
1.238362 0.000000 0.044083
1.248294 0.000000 0.044845
1.255865 0.000000 0.045426
0.000000 0.012719 0.000000
0.000000 0.012659 0.000000
0.002450 0.012438 0.000000
0.012549 0.011947 0.000000
0.031288 0.011038 0.000000
0.059751 0.009501 0.000000
0.091597 0.007054 0.000013
0.126894 0.003314 0.000175
0.166099 0.000000 0.000414
0.209589 0.000000 0.000758
0.257655 0.000000 0.001243
0.310483 0.000000 0.001911
0.368119 0.000000 0.002812
0.430416 0.000000 0.004000
0.496991 0.000000 0.005529
0.567156 0.000000 0.007445
0.639880 0.000000 0.009778
0.713780 0.000000 0.012526
0.787181 0.000000 0.015647
0.858249 0.000000 0.019056
0.925189 0.000000 0.022625
0.986466 0.000000 0.026206
1.040985 0.000000 0.029650
1.088187 0.000000 0.032833
1.128038 0.000000 0.035667
1.160937 0.000000 0.038110
1.187570 0.000000 0.040157
1.208776 0.000000 0.041795
1.225428 0.000000 0.043077
1.238353 0.000000 0.044072
1.248287 0.000000 0.044837
1.255860 0.000000 0.045420
0.000000 0.027724 0.000000
0.000000 0.027664 0.000000
0.000000 0.027443 0.000000
0.008615 0.026952 0.000000
0.027354 0.026042 0.000000
0.056705 0.024506 0.000000
0.089452 0.022058 0.000000
0.125313 0.018309 0.000000
0.164896 0.012748 0.000141
0.208650 0.004707 0.000486
0.256908 0.000000 0.000973
0.309879 0.000000 0.001644
0.367623 0.000000 0.002549
0.430004 0.000000 0.003742
0.496645 0.000000 0.005279
0.566863 0.000000 0.007206
0.639631 0.000000 0.009552
0.713567 0.000000 0.012315
0.786999 0.000000 0.015455
0.858094 0.000000 0.018883
0.925059 0.000000 0.022473
0.986358 0.000000 0.026076
1.040896 0.000000 0.029541
1.088115 0.000000 0.032743
1.127980 0.000000 0.035594
1.160891 0.000000 0.038052
1.187534 0.000000 0.040111
1.208749 0.000000 0.041760
1.225407 0.000000 0.043051
1.238337 0.000000 0.044053
1.248275 0.000000 0.044823
1.255851 0.000000 0.045410
0.000000 0.051877 0.000000
0.000000 0.051827 0.000000
0.000000 0.051641 0.000000
0.001971 0.051226 0.000000
0.020710 0.050452 0.000000
0.051279 0.049125 0.000000
0.085725 0.046959 0.000000
0.122598 0.043503 0.000000
0.162843 0.038024 0.000000
0.207055 0.029900 0.000027
0.255642 0.018389 0.000516
0.308857 0.002447 0.001192
0.366784 0.000000 0.002104
0.429308 0.000000 0.003307
0.496061 0.000000 0.004858
0.566369 0.000000 0.006802
0.639210 0.000000 0.009170
0.713208 0.000000 0.011960
0.786693 0.000000 0.015130
0.857834 0.000000 0.018592
0.924839 0.000000 0.022218
0.986175 0.000000 0.025856
1.040745 0.000000 0.029356
1.087992 0.000000 0.032590
1.127882 0.000000 0.035471
1.160813 0.000000 0.037954
1.187473 0.000000 0.040034
1.208702 0.000000 0.041703
1.225372 0.000000 0.043008
1.238310 0.000000 0.044021
1.248255 0.000000 0.044799
1.255836 0.000000 0.045392
0.000000 0.080253 0.000000
0.000000 0.080217 0.000000
0.000000 0.080083 0.000000
0.000000 0.079786 0.000000
0.010134 0.079231 0.000000
0.041736 0.078288 0.000000
0.079492 0.076766 0.000000
0.118154 0.074360 0.000000
0.159520 0.070643 0.000000
0.204489 0.064934 0.000000
0.253613 0.056082 0.000000
0.307221 0.041823 0.000473
0.365445 0.019656 0.001396
0.428197 0.000000 0.002616
0.495129 0.000000 0.004187
0.565581 0.000000 0.006160
0.638539 0.000000 0.008563
0.712636 0.000000 0.011395
0.786204 0.000000 0.014613
0.857419 0.000000 0.018129
0.924490 0.000000 0.021811
0.985883 0.000000 0.025507
1.040505 0.000000 0.029062
1.087797 0.000000 0.032348
1.127726 0.000000 0.035275
1.160690 0.000000 0.037797
1.187377 0.000000 0.039911
1.208627 0.000000 0.041611
1.225315 0.000000 0.042939
1.238267 0.000000 0.043969
1.248223 0.000000 0.044760
1.255812 0.000000 0.045363
0.000000 0.111996 0.000000
0.000000 0.111969 0.000000
0.000000 0.111869 0.000000
0.000000 0.111647 0.000000
0.000000 0.111235 0.000000
0.025596 0.110535 0.000000
0.069071 0.109414 0.000000
0.111039 0.107674 0.000000
0.154299 0.104944 0.000000
0.200500 0.100819 0.000000
0.250479 0.094633 0.000000
0.304705 0.085333 0.000000
0.363391 0.071056 0.000316
0.426496 0.047562 0.001560
0.493704 0.008208 0.003165
0.564376 0.000000 0.005180
0.637515 0.000000 0.007636
0.711761 0.000000 0.010533
0.785459 0.000000 0.013825
0.856786 0.000000 0.017422
0.923956 0.000000 0.021190
0.985438 0.000000 0.024973
1.040138 0.000000 0.028613
1.087499 0.000000 0.031978
1.127487 0.000000 0.034975
1.160501 0.000000 0.037559
1.187230 0.000000 0.039724
1.208514 0.000000 0.041470
1.225228 0.000000 0.042833
1.238201 0.000000 0.043890
1.248173 0.000000 0.044702
1.255775 0.000000 0.045320
0.000000 0.147409 0.000000
0.000000 0.147389 0.000000
0.000000 0.147312 0.000000
0.000000 0.147142 0.000000
0.000000 0.146826 0.000000
0.001647 0.146292 0.000000
0.050860 0.145437 0.000000
0.099530 0.144120 0.000000
0.146208 0.142130 0.000000
0.194424 0.138944 0.000000
0.245751 0.134216 0.000000
0.300933 0.127273 0.000000
0.360322 0.117107 0.000000
0.423961 0.102066 0.000000
0.491584 0.078865 0.001651
0.562587 0.037384 0.003729
0.635994 0.000000 0.006265
0.710464 0.000000 0.009256
0.784353 0.000000 0.012657
0.855846 0.000000 0.016375
0.923164 0.000000 0.020271
0.984777 0.000000 0.024183
1.039594 0.000000 0.027948
1.087058 0.000000 0.031429
1.127134 0.000000 0.034530
1.160221 0.000000 0.037205
1.187011 0.000000 0.039446
1.208345 0.000000 0.041262
1.225099 0.000000 0.042676
1.238104 0.000000 0.043773
1.248100 0.000000 0.044614
1.255720 0.000000 0.045255
0.000000 0.186763 0.000000
0.000000 0.186746 0.000000
0.000000 0.186686 0.000000
0.000000 0.186553 0.000000
0.000000 0.186305 0.000000
0.000000 0.185886 0.000000
0.017132 0.185217 0.000000
0.080342 0.184190 0.000000
0.133363 0.182657 0.000000
0.185239 0.180369 0.000000
0.238717 0.176527 0.000000
0.295373 0.170930 0.000000
0.355826 0.162882 0.000000
0.420261 0.151395 0.000000
0.488498 0.134942 0.000000
0.559986 0.110756 0.001631
0.633786 0.071902 0.004281
0.708583 0.000000 0.007409
0.782749 0.000000 0.010968
0.854485 0.000000 0.014860
0.922016 0.000000 0.018940
0.983820 0.000000 0.023038
1.038806 0.000000 0.026985
1.086417 0.000000 0.030634
1.126621 0.000000 0.033887
1.159816 0.000000 0.036692
1.186695 0.000000 0.039044
1.208101 0.000000 0.040958
1.224912 0.000000 0.042448
1.237962 0.000000 0.043602
1.247993 0.000000 0.044488
1.255641 0.000000 0.045162
0.000000 0.230258 0.000000
0.000000 0.230245 0.000000
0.000000 0.230197 0.000000
0.000000 0.230090 0.000000
0.000000 0.229892 0.000000
0.000000 0.229556 0.000000
0.000000 0.229022 0.000000
0.043868 0.228203 0.000000
0.112689 0.226982 0.000000
0.170743 0.225200 0.000000
0.228294 0.222552 0.000000
0.287255 0.217768 0.000000
0.349320 0.210942 0.000000
0.414939 0.201351 0.000000
0.484076 0.188009 0.000000
0.556267 0.169476 0.000000
0.630634 0.143326 0.001465
0.705899 0.104203 0.004786
0.780463 0.028755 0.008568
0.852545 0.000000 0.012707
0.920382 0.000000 0.017048
0.982457 0.000000 0.021411
1.037684 0.000000 0.025614
1.085506 0.000000 0.029503
1.125890 0.000000 0.032970
1.159239 0.000000 0.035962
1.186244 0.000000 0.038471
1.207753 0.000000 0.040523
1.224646 0.000000 0.042122
1.237760 0.000000 0.043359
1.247842 0.000000 0.044307
1.255528 0.000000 0.045028
0.000000 0.277999 0.000000
0.000000 0.277989 0.000000
0.000000 0.277949 0.000000
0.000000 0.277862 0.000000
0.000000 0.277701 0.000000
0.000000 0.277427 0.000000
0.000000 0.276992 0.000000
0.000000 0.276326 0.000000
0.076183 0.275335 0.000000
0.148074 0.273892 0.000000
0.211748 0.271822 0.000000
0.275426 0.268728 0.000000
0.339970 0.262613 0.000000
0.407354 0.254087 0.000000
0.477807 0.242397 0.000000
0.551016 0.226561 0.000000
0.626194 0.205219 0.000000
0.702125 0.176223 0.001119
0.777251 0.135203 0.005212
0.849820 0.067028 0.009694
0.918086 0.000000 0.014399
0.980543 0.000000 0.019132
1.036107 0.000000 0.023694
1.084225 0.000000 0.027917
1.124865 0.000000 0.031685
1.158428 0.000000 0.034937
1.185611 0.000000 0.037666
1.207264 0.000000 0.039900
1.224272 0.000000 0.041662
1.237477 0.000000 0.043015
1.247629 0.000000 0.044052
1.255369 0.000000 0.044839
0.000000 0.329953 0.000000
0.000000 0.329944 0.000000
0.000000 0.329911 0.000000
0.000000 0.329839 0.000000
0.000000 0.329706 0.000000
0.000000 0.329480 0.000000
0.000000 0.329120 0.000000
0.000000 0.328569 0.000000
0.000000 0.327751 0.000000
0.110117 0.326561 0.000000
0.186516 0.324859 0.000000
0.256325 0.322454 0.000000
0.326537 0.318804 0.000000
0.396598 0.310841 0.000000
0.468990 0.300012 0.000000
0.543668 0.285537 0.000000
0.620001 0.266457 0.000000
0.696872 0.241519 0.000000
0.772787 0.208840 0.000576
0.846035 0.164792 0.005530
0.914899 0.098330 0.010736
0.977886 0.000000 0.015977
1.033919 0.000000 0.021034
1.082447 0.000000 0.025719
1.123440 0.000000 0.029903
1.157302 0.000000 0.033516
1.184731 0.000000 0.036549
1.206585 0.000000 0.039034
1.223753 0.000000 0.041017
1.237083 0.000000 0.042536
1.247333 0.000000 0.043696
1.255148 0.000000 0.044577
0.000000 0.385904 0.000000
0.000000 0.385896 0.000000
0.000000 0.385869 0.000000
0.000000 0.385809 0.000000
0.000000 0.385696 0.000000
0.000000 0.385507 0.000000
0.000000 0.385205 0.000000
0.000000 0.384743 0.000000
0.000000 0.384058 0.000000
0.022903 0.383063 0.000000
0.146050 0.381641 0.000000
0.227871 0.379637 0.000000
0.304254 0.376837 0.000000
0.381335 0.372491 0.000000
0.456629 0.362020 0.000000
0.533444 0.348137 0.000000
0.611426 0.330062 0.000000
0.689621 0.306901 0.000000
0.766637 0.277552 0.000000
0.840828 0.240433 0.000000
0.910516 0.192536 0.005725
0.974232 0.125191 0.011658
1.030910 0.000000 0.017388
1.080003 0.000000 0.022705
1.121481 0.000000 0.027456
1.155752 0.000000 0.031564
1.183521 0.000000 0.035014
1.205650 0.000000 0.037843
1.223038 0.000000 0.040115
1.236541 0.000000 0.041870
1.246925 0.000000 0.043204
1.254844 0.000000 0.044214
0.000000 0.445404 0.000000
0.000000 0.445397 0.000000
0.000000 0.445374 0.000000
0.000000 0.445323 0.000000
0.000000 0.445228 0.000000
0.000000 0.445067 0.000000
0.000000 0.444811 0.000000
0.000000 0.444420 0.000000
0.000000 0.443839 0.000000
0.000000 0.442996 0.000000
0.064934 0.441793 0.000000
0.183934 0.440100 0.000000
0.271801 0.437741 0.000000
0.355105 0.434479 0.000000
0.439281 0.429262 0.000000
0.519259 0.415465 0.000000
0.599613 0.397638 0.000000
0.679675 0.375050 0.000000
0.758223 0.346932 0.000000
0.833715 0.312407 0.000000
0.904534 0.270228 0.000000
0.969248 0.217934 0.005799
1.026805 0.148404 0.012438
1.076666 0.011756 0.018606
1.118806 0.000000 0.024126
1.153636 0.000000 0.028904
1.181868 0.000000 0.032921
1.204372 0.000000 0.036217
1.222060 0.000000 0.038867
1.235801 0.000000 0.040950
1.246368 0.000000 0.042525
1.254428 0.000000 0.043714
0.000000 0.507721 0.000000
0.000000 0.507716 0.000000
0.000000 0.507696 0.000000
0.000000 0.507652 0.000000
0.000000 0.507571 0.000000
0.000000 0.507433 0.000000
0.000000 0.507214 0.000000
0.000000 0.506879 0.000000
0.000000 0.506383 0.000000
0.000000 0.505662 0.000000
0.000000 0.504635 0.000000
0.103980 0.503190 0.000000
0.223429 0.501180 0.000000
0.317745 0.498405 0.000000
0.408194 0.494602 0.000000
0.499550 0.488310 0.000000
0.583373 0.470223 0.000000
0.666091 0.447461 0.000000
0.746776 0.419412 0.000000
0.824059 0.385515 0.000000
0.896424 0.345184 0.000000
0.962492 0.297532 0.000000
1.021242 0.240560 0.005770
1.072144 0.168195 0.013076
1.115179 0.042597 0.019626
1.150766 0.000000 0.025305
1.179624 0.000000 0.030087
1.202638 0.000000 0.034014
1.220733 0.000000 0.037174
1.234794 0.000000 0.039673
1.245611 0.000000 0.041593
1.253863 0.000000 0.043031
0.000000 0.571815 0.000000
0.000000 0.571810 0.000000
0.000000 0.571793 0.000000
0.000000 0.571755 0.000000
0.000000 0.571685 0.000000
0.000000 0.571567 0.000000
0.000000 0.571378 0.000000
0.000000 0.571090 0.000000
0.000000 0.570663 0.000000
0.000000 0.570044 0.000000
0.000000 0.569161 0.000000
0.000000 0.567920 0.000000
0.141416 0.566194 0.000000
0.263939 0.563816 0.000000
0.364906 0.560561 0.000000
0.462572 0.556131 0.000000
0.561019 0.548533 0.000000
0.647572 0.525095 0.000000
0.731261 0.496381 0.000000
0.811014 0.461990 0.000000
0.885485 0.421649 0.000000
0.953387 0.375105 0.000000
1.013744 0.321813 0.000000
1.066047 0.260135 0.005670
1.110288 0.184679 0.013588
1.146893 0.065768 0.020468
1.176595 0.000000 0.026271
1.200295 0.000000 0.031045
1.218940 0.000000 0.034891
1.233434 0.000000 0.037936
1.244588 0.000000 0.040312
1.253099 0.000000 0.042096
0.000000 0.636348 0.000000
0.000000 0.636344 0.000000
0.000000 0.636329 0.000000
0.000000 0.636297 0.000000
0.000000 0.636236 0.000000
0.000000 0.636134 0.000000
0.000000 0.635972 0.000000
0.000000 0.635723 0.000000
0.000000 0.635355 0.000000
0.000000 0.634821 0.000000
0.000000 0.634060 0.000000
0.000000 0.632991 0.000000
0.000000 0.631506 0.000000
0.177865 0.629460 0.000000
0.304654 0.626663 0.000000
0.412264 0.622862 0.000000
0.517045 0.617721 0.000000
0.622305 0.608577 0.000000
0.710273 0.578718 0.000000
0.793454 0.543126 0.000000
0.870798 0.501694 0.000000
0.941176 0.454492 0.000000
1.003690 0.401600 0.000000
1.057869 0.342754 0.000000
1.103722 0.276550 0.005540
1.141690 0.197987 0.014005
1.172523 0.081466 0.021163
1.197145 0.000000 0.027064
1.216527 0.000000 0.031825
1.231603 0.000000 0.035600
1.243210 0.000000 0.038549
1.252070 0.000000 0.040817
0.000000 0.699769 0.000000
0.000000 0.699766 0.000000
0.000000 0.699753 0.000000
0.000000 0.699725 0.000000
0.000000 0.699673 0.000000
0.000000 0.699585 0.000000
0.000000 0.699446 0.000000
0.000000 0.699232 0.000000
0.000000 0.698915 0.000000
0.000000 0.698456 0.000000
0.000000 0.697802 0.000000
0.000000 0.696882 0.000000
0.000000 0.695605 0.000000
0.000000 0.693847 0.000000
0.213070 0.691446 0.000000
0.344605 0.688184 0.000000
0.458650 0.683778 0.000000
0.570258 0.677849 0.000000
0.681870 0.666935 0.000000
0.769868 0.629704 0.000000
0.851148 0.586518 0.000000
0.924865 0.537627 0.000000
0.990266 0.483452 0.000000
1.046945 0.424354 0.000000
1.094946 0.360253 0.000000
1.134730 0.289848 0.005420
1.167071 0.208297 0.014361
1.192922 0.092049 0.021751
1.213291 0.000000 0.027727
1.229145 0.000000 0.032473
1.241360 0.000000 0.036186
1.250687 0.000000 0.039055
0.000000 0.760459 0.000000
0.000000 0.760457 0.000000
0.000000 0.760446 0.000000
0.000000 0.760422 0.000000
0.000000 0.760377 0.000000
0.000000 0.760302 0.000000
0.000000 0.760183 0.000000
0.000000 0.760000 0.000000
0.000000 0.759729 0.000000
0.000000 0.759336 0.000000
0.000000 0.758777 0.000000
0.000000 0.757991 0.000000
0.000000 0.756900 0.000000
0.000000 0.755398 0.000000
0.000000 0.753346 0.000000
0.246444 0.750561 0.000000
0.382765 0.746801 0.000000
0.502852 0.741745 0.000000
0.620832 0.734972 0.000000
0.738187 0.722110 0.000000
0.824917 0.676802 0.000000
0.903154 0.625620 0.000000
0.972413 0.569188 0.000000
1.032414 0.508228 0.000000
1.083261 0.443298 0.000000
1.125452 0.374391 0.000000
1.159795 0.300185 0.005348
1.187281 0.215814 0.014691
1.208963 0.098510 0.022269
1.225857 0.000000 0.028302
1.238882 0.000000 0.033030
1.248835 0.000000 0.036688
0.000000 0.816918 0.000000
0.000000 0.816915 0.000000
0.000000 0.816906 0.000000
0.000000 0.816886 0.000000
0.000000 0.816848 0.000000
0.000000 0.816785 0.000000
0.000000 0.816683 0.000000
0.000000 0.816529 0.000000
0.000000 0.816299 0.000000
0.000000 0.815967 0.000000
0.000000 0.815493 0.000000
0.000000 0.814828 0.000000
0.000000 0.813904 0.000000
0.000000 0.812633 0.000000
0.000000 0.810897 0.000000
0.000417 0.808540 0.000000
0.277310 0.805358 0.000000
0.418171 0.801082 0.000000
0.543760 0.795355 0.000000
0.667523 0.787712 0.000000
0.789923 0.772797 0.000000
0.874330 0.719051 0.000000
0.948750 0.659835 0.000000
1.013153 0.596103 0.000000
1.067757 0.528799 0.000000
1.113125 0.458568 0.000000
1.150113 0.385374 0.000000
1.179765 0.307780 0.005355
1.203190 0.220752 0.015029
1.221465 0.101338 0.022754
1.235570 0.000000 0.028824
1.246358 0.000000 0.033530
0.000000 0.867950 0.000000
0.000000 0.867948 0.000000
0.000000 0.867940 0.000000
0.000000 0.867923 0.000000
0.000000 0.867891 0.000000
0.000000 0.867838 0.000000
0.000000 0.867754 0.000000
0.000000 0.867624 0.000000
0.000000 0.867433 0.000000
0.000000 0.867155 0.000000
0.000000 0.866759 0.000000
0.000000 0.866203 0.000000
0.000000 0.865431 0.000000
0.000000 0.864368 0.000000
0.000000 0.862916 0.000000
0.000000 0.860946 0.000000
0.055428 0.858286 0.000000
0.305064 0.854710 0.000000
0.450040 0.849922 0.000000
0.580502 0.843531 0.000000
0.709379 0.835025 0.000000
0.836104 0.818042 0.000000
0.917476 0.755883 0.000000
0.987710 0.688936 0.000000
1.047259 0.618408 0.000000
1.096801 0.545361 0.000000
1.137269 0.470433 0.000000
1.169776 0.393479 0.000000
1.195505 0.312878 0.005464
1.215611 0.223307 0.015402
1.231151 0.100750 0.023236
1.243050 0.000000 0.029325
0.000000 0.912797 0.000000
0.000000 0.912795 0.000000
0.000000 0.912789 0.000000
0.000000 0.912775 0.000000
0.000000 0.912749 0.000000
0.000000 0.912705 0.000000
0.000000 0.912635 0.000000
0.000000 0.912529 0.000000
0.000000 0.912371 0.000000
0.000000 0.912142 0.000000
0.000000 0.911816 0.000000
0.000000 0.911358 0.000000
0.000000 0.910721 0.000000
0.000000 0.909845 0.000000
0.000000 0.908649 0.000000
0.000000 0.907025 0.000000
0.000000 0.904832 0.000000
0.093200 0.901883 0.000000
0.329264 0.897932 0.000000
0.477854 0.892657 0.000000
0.612529 0.885634 0.000000
0.745834 0.876306 0.000000
0.876202 0.857328 0.000000
0.954199 0.787132 0.000000
1.020246 0.713024 0.000000
1.075251 0.636370 0.000000
1.120276 0.558256 0.000000
1.156531 0.479237 0.000000
1.185295 0.399007 0.000000
1.207820 0.315716 0.005689
1.225262 0.223648 0.015829
1.238636 0.096732 0.023737
0.000000 0.951179 0.000000
0.000000 0.951177 0.000000
0.000000 0.951172 0.000000
0.000000 0.951161 0.000000
0.000000 0.951140 0.000000
0.000000 0.951104 0.000000
0.000000 0.951048 0.000000
0.000000 0.950961 0.000000
0.000000 0.950833 0.000000
0.000000 0.950647 0.000000
0.000000 0.950383 0.000000
0.000000 0.950011 0.000000
0.000000 0.949494 0.000000
0.000000 0.948783 0.000000
0.000000 0.947811 0.000000
0.000000 0.946492 0.000000
0.000000 0.944711 0.000000
0.000000 0.942314 0.000000
0.119709 0.939102 0.000000
0.349685 0.934810 0.000000
0.501383 0.929092 0.000000
0.639639 0.921490 0.000000
0.776720 0.911408 0.000000
0.910144 0.890581 0.000000
0.984755 0.812987 0.000000
1.046895 0.732451 0.000000
1.097861 0.650406 0.000000
1.139014 0.567895 0.000000
1.171757 0.485340 0.000000
1.197467 0.402247 0.000000
1.217420 0.316508 0.006042
1.232750 0.221899 0.016328
0.000000 0.983248 0.000000
0.000000 0.983247 0.000000
0.000000 0.983243 0.000000
0.000000 0.983234 0.000000
0.000000 0.983217 0.000000
0.000000 0.983189 0.000000
0.000000 0.983143 0.000000
0.000000 0.983074 0.000000
0.000000 0.982972 0.000000
0.000000 0.982823 0.000000
0.000000 0.982611 0.000000
0.000000 0.982314 0.000000
0.000000 0.981900 0.000000
0.000000 0.981332 0.000000
0.000000 0.980554 0.000000
0.000000 0.979498 0.000000
0.000000 0.978072 0.000000
0.000000 0.976152 0.000000
0.000000 0.973578 0.000000
0.139142 0.970137 0.000000
0.366304 0.965547 0.000000
0.520662 0.959439 0.000000
0.661937 0.951327 0.000000
0.802222 0.940576 0.000000
0.938226 0.918094 0.000000
1.009696 0.833891 0.000000
1.068384 0.747714 0.000000
1.115906 0.661001 0.000000
1.153844 0.574701 0.000000
1.183729 0.489084 0.000000
1.206991 0.403457 0.000000
1.224906 0.315426 0.006527
0.000000 1.009483 0.000000
0.000000 1.009482 0.000000
0.000000 1.009479 0.000000
0.000000 1.009472 0.000000
0.000000 1.009459 0.000000
0.000000 1.009436 0.000000
0.000000 1.009400 0.000000
0.000000 1.009346 0.000000
0.000000 1.009265 0.000000
0.000000 1.009148 0.000000
0.000000 1.008981 0.000000
0.000000 1.008746 0.000000
0.000000 1.008420 0.000000
0.000000 1.007971 0.000000
0.000000 1.007357 0.000000
0.000000 1.006524 0.000000
0.000000 1.005397 0.000000
0.000000 1.003881 0.000000
0.000000 1.001846 0.000000
0.000000 0.999124 0.000000
0.152969 0.995491 0.000000
0.379259 0.990650 0.000000
0.535920 0.984212 0.000000
0.679755 0.975663 0.000000
0.822771 0.964334 0.000000
0.961006 0.940413 0.000000
1.029735 0.850430 0.000000
1.085511 0.759374 0.000000
1.130195 0.668641 0.000000
1.165530 0.579069 0.000000
1.193132 0.490772 0.000000
1.214457 0.402851 0.000000
0.000000 1.030560 0.000000
0.000000 1.030559 0.000000
0.000000 1.030557 0.000000
0.000000 1.030551 0.000000
0.000000 1.030541 0.000000
0.000000 1.030523 0.000000
0.000000 1.030496 0.000000
0.000000 1.030453 0.000000
0.000000 1.030390 0.000000
0.000000 1.030299 0.000000
0.000000 1.030168 0.000000
0.000000 1.029985 0.000000
0.000000 1.029731 0.000000
0.000000 1.029381 0.000000
0.000000 1.028903 0.000000
0.000000 1.028253 0.000000
0.000000 1.027374 0.000000
0.000000 1.026191 0.000000
0.000000 1.024603 0.000000
0.000000 1.022477 0.000000
0.000000 1.019637 0.000000
0.161921 1.015849 0.000000
0.388792 1.010805 0.000000
0.547514 1.004096 0.000000
0.693557 0.995184 0.000000
0.838945 0.983364 0.000000
0.979179 0.958217 0.000000
1.045644 0.863241 0.000000
1.099057 0.767983 0.000000
1.141470 0.673777 0.000000
1.174743 0.581349 0.000000
1.200547 0.490657 0.000000
0.000000 1.047237 0.000000
0.000000 1.047236 0.000000
0.000000 1.047234 0.000000
0.000000 1.047230 0.000000
0.000000 1.047222 0.000000
0.000000 1.047208 0.000000
0.000000 1.047187 0.000000
0.000000 1.047154 0.000000
0.000000 1.047106 0.000000
0.000000 1.047035 0.000000
0.000000 1.046935 0.000000
0.000000 1.046794 0.000000
0.000000 1.046598 0.000000
0.000000 1.046328 0.000000
0.000000 1.045959 0.000000
0.000000 1.045458 0.000000
0.000000 1.044780 0.000000
0.000000 1.043867 0.000000
0.000000 1.042641 0.000000
0.000000 1.041000 0.000000
