assets/resources/wfx_effect/nle_default/BaseFilter/PQD65Cube/Data/HDR_PQD65.cube
#Copyright: (C)Copyright 2024 Wondershare Inc.
#Created by: BIAOZHOU.
LUT_3D_SIZE 8
DOMAIN_MIN 0.000000 0.000000 0.000000
DOMAIN_MAX 0.903226 0.903226 0.903226
0.000000 0.000000 0.000000
0.034624 0.000000 0.000073
0.167113 0.000000 0.000645
0.368538 0.000000 0.003036
0.640091 0.000000 0.009970
0.925300 0.000000 0.022753
1.128088 0.000000 0.035729
1.225446 0.000000 0.043099
0.000000 0.027724 0.000000
0.027354 0.026042 0.000000
0.164896 0.012748 0.000141
0.367623 0.000000 0.002549
0.639631 0.000000 0.009552
0.925059 0.000000 0.022473
1.127980 0.000000 0.035594
1.225407 0.000000 0.043051
0.000000 0.147409 0.000000
0.000000 0.146826 0.000000
0.146208 0.142130 0.000000
0.360322 0.117107 0.000000
0.635994 0.000000 0.006265
0.923164 0.000000 0.020271
1.127134 0.000000 0.034530
1.225099 0.000000 0.042676
0.000000 0.329953 0.000000
0.000000 0.329706 0.000000
0.000000 0.327751 0.000000
0.326537 0.318804 0.000000
0.620001 0.266457 0.000000
0.914899 0.098330 0.010736
1.123440 0.000000 0.029903
1.223753 0.000000 0.041017
0.000000 0.571815 0.000000
0.000000 0.571685 0.000000
0.000000 0.570663 0.000000
0.141416 0.566194 0.000000
0.561019 0.548533 0.000000
0.885485 0.421649 0.000000
1.110288 0.184679 0.013588
1.218940 0.000000 0.034891
0.000000 0.816918 0.000000
0.000000 0.816848 0.000000
0.000000 0.816299 0.000000
0.000000 0.813904 0.000000
0.277310 0.805358 0.000000
0.789923 0.772797 0.000000
1.067757 0.528799 0.000000
1.203190 0.220752 0.015029
0.000000 0.983248 0.000000
0.000000 0.983217 0.000000
0.000000 0.982972 0.000000
0.000000 0.981900 0.000000
0.000000 0.978072 0.000000
0.366304 0.965547 0.000000
0.938226 0.918094 0.000000
1.153844 0.574701 0.000000
0.000000 1.060265 0.000000
0.000000 1.060254 0.000000
0.000000 1.060165 0.000000
0.000000 1.059777 0.000000
0.000000 1.058389 0.000000
0.000000 1.053821 0.000000
0.398756 1.039271 0.000000
1.004592 0.983115 0.000000
0.000000 0.000000 0.026201
0.033042 0.000000 0.026275
0.166636 0.000000 0.026800
0.368354 0.000000 0.028273
0.640014 0.000000 0.031494
0.925269 0.000000 0.037010
1.128077 0.000000 0.042471
1.225443 0.000000 0.045435
0.000000 0.027454 0.025698
0.025771 0.025771 0.025771
0.164413 0.012478 0.026292
0.367437 0.000000 0.027777
0.639553 0.000000 0.031068
0.925028 0.000000 0.036727
1.127970 0.000000 0.042341
1.225404 0.000000 0.045389
0.000000 0.147315 0.021660
0.000000 0.146732 0.021731
0.145661 0.142034 0.022287
0.360132 0.116996 0.023878
0.635916 0.000000 0.027725
0.923133 0.000000 0.034500
1.127123 0.000000 0.041311
1.225096 0.000000 0.045026
0.000000 0.329911 0.004120
0.000000 0.329664 0.004189
0.000000 0.327709 0.004732
0.326326 0.318767 0.007079
0.619921 0.266419 0.013316
0.914868 0.098257 0.024856
1.123429 0.000000 0.036678
1.223749 0.000000 0.043418
0.000000 0.571791 0.000000
0.000000 0.571661 0.000000
0.000000 0.570639 0.000000
0.140962 0.566170 0.000000
0.560932 0.548519 0.000000
0.885454 0.421635 0.000000
1.110277 0.184660 0.020276
1.218937 0.000000 0.037385
0.000000 0.816904 0.000000
0.000000 0.816834 0.000000
0.000000 0.816286 0.000000
0.000000 0.813891 0.000000
0.277170 0.805345 0.000000
0.789889 0.772793 0.000000
1.067746 0.528794 0.000000
1.203187 0.220746 0.017484
0.000000 0.983242 0.000000
0.000000 0.983211 0.000000
0.000000 0.982965 0.000000
0.000000 0.981894 0.000000
0.000000 0.978065 0.000000
0.366257 0.965541 0.000000
0.938214 0.918093 0.000000
1.153840 0.574699 0.000000
0.000000 1.060263 0.000000
0.000000 1.060251 0.000000
0.000000 1.060163 0.000000
0.000000 1.059775 0.000000
0.000000 1.058387 0.000000
0.000000 1.053819 0.000000
0.398741 1.039268 0.000000
1.004588 0.983115 0.000000
0.000000 0.000000 0.142869
0.020557 0.000000 0.142891
0.162829 0.000000 0.142992
0.366892 0.000000 0.140938
0.639403 0.000000 0.131245
0.925027 0.000000 0.109528
1.127991 0.000000 0.081950
1.225415 0.000000 0.061680
0.000000 0.025305 0.142677
0.013287 0.023622 0.142698
0.160551 0.010351 0.142801
0.365971 0.000000 0.140736
0.638942 0.000000 0.131059
0.924787 0.000000 0.109387
1.127884 0.000000 0.081867
1.225376 0.000000 0.061642
0.000000 0.146572 0.141098
0.000000 0.145986 0.141119
0.141277 0.141277 0.141277
0.358634 0.116114 0.139133
0.635302 0.000000 0.129589
0.922891 0.000000 0.108268
1.127037 0.000000 0.081203
1.225068 0.000000 0.061343
0.000000 0.329583 0.131417
0.000000 0.329336 0.131432
0.000000 0.327379 0.131557
0.324655 0.318482 0.131983
0.619293 0.266115 0.123055
0.914625 0.097676 0.103293
1.123344 0.000000 0.078260
1.223722 0.000000 0.060026
0.000000 0.571604 0.094553
0.000000 0.571475 0.094575
0.000000 0.570453 0.094750
0.137330 0.565984 0.095508
0.560243 0.548409 0.097744
0.885206 0.421526 0.084080
1.110191 0.184514 0.067075
1.218909 0.000000 0.055153
0.000000 0.816795 0.000000
0.000000 0.816726 0.000000
0.000000 0.816177 0.000000
0.000000 0.813782 0.000000
0.276063 0.805237 0.000000
0.789621 0.772754 0.000000
1.067658 0.528758 0.019554
1.203159 0.220702 0.036839
0.000000 0.983191 0.000000
0.000000 0.983160 0.000000
0.000000 0.982915 0.000000
0.000000 0.981844 0.000000
0.000000 0.978015 0.000000
0.365888 0.965491 0.000000
0.938120 0.918081 0.000000
1.153812 0.574687 0.000000
0.000000 1.060244 0.000000
0.000000 1.060233 0.000000
0.000000 1.060144 0.000000
0.000000 1.059756 0.000000
0.000000 1.058368 0.000000
0.000000 1.053800 0.000000
0.398620 1.039250 0.000000
1.004558 0.983111 0.000000
0.000000 0.000000 0.324776
0.000000 0.000000 0.324758
0.143268 0.000000 0.324619
0.360416 0.000000 0.322586
0.636725 0.000000 0.299520
0.923970 0.000000 0.246791
1.127617 0.000000 0.174110
1.225294 0.000000 0.110708
0.000000 0.015673 0.324627
0.000000 0.014023 0.324609
0.140691 0.001033 0.324469
0.359477 0.000000 0.322463
0.636262 0.000000 0.299406
0.923730 0.000000 0.246709
1.127510 0.000000 0.174062
1.225255 0.000000 0.110683
0.000000 0.141479 0.323441
0.000000 0.140876 0.323422
0.118546 0.136033 0.323276
0.351991 0.112183 0.321493
0.632609 0.000000 0.298508
0.921833 0.000000 0.246062
1.126663 0.000000 0.173682
1.224947 0.000000 0.110488
0.000000 0.328147 0.317742
0.000000 0.327899 0.317730
0.000000 0.325935 0.317638
0.317229 0.317229 0.317229
0.616537 0.264785 0.294598
0.913561 0.095098 0.243239
1.122969 0.000000 0.172022
1.223600 0.000000 0.109634
0.000000 0.570788 0.282892
0.000000 0.570658 0.282883
0.000000 0.569637 0.282813
0.120213 0.565168 0.282508
0.557216 0.547924 0.280776
0.884120 0.421050 0.233162
1.109814 0.183876 0.166029
1.218788 0.000000 0.106539
0.000000 0.816321 0.201364
0.000000 0.816251 0.201364
0.000000 0.815703 0.201364
0.000000 0.813309 0.201364
0.271166 0.804769 0.201365
0.788447 0.772587 0.200017
1.067275 0.528597 0.145632
1.203037 0.220511 0.095903
0.000000 0.982969 0.042700
0.000000 0.982938 0.042714
0.000000 0.982693 0.042831
0.000000 0.981622 0.043336
0.000000 0.977795 0.045109
0.364271 0.965275 0.050563
0.937709 0.918029 0.064039
1.153688 0.574636 0.054541
0.000000 1.060162 0.000000
0.000000 1.060151 0.000000
0.000000 1.060062 0.000000
0.000000 1.059675 0.000000
0.000000 1.058287 0.000000
0.000000 1.053719 0.000000
0.398092 1.039171 0.000000
1.004426 0.983096 0.000000
0.000000 0.000000 0.581811
0.000000 0.000000 0.581763
0.038305 0.000000 0.581383
0.319916 0.000000 0.579730
0.626993 0.000000 0.564888
0.920165 0.000000 0.468516
1.126274 0.000000 0.333111
1.224860 0.000000 0.208370
0.000000 0.000000 0.581631
0.000000 0.000000 0.581583
0.031901 0.000000 0.581203
0.318908 0.000000 0.579551
0.626523 0.000000 0.564772
0.919924 0.000000 0.468443
1.126166 0.000000 0.333075
1.224821 0.000000 0.208354
0.000000 0.121189 0.580212
0.000000 0.120559 0.580164
0.000000 0.115486 0.579787
0.310867 0.090535 0.578144
0.622819 0.000000 0.563863
0.918023 0.000000 0.467862
1.125319 0.000000 0.332796
1.224513 0.000000 0.208229
0.000000 0.307208 0.574086
0.000000 0.306958 0.574039
0.000000 0.304989 0.573671
0.273346 0.296272 0.572068
0.606514 0.259944 0.559919
0.909730 0.085294 0.465337
1.121623 0.000000 0.331579
1.223166 0.000000 0.207684
0.000000 0.567864 0.550949
0.000000 0.567735 0.550920
0.000000 0.566713 0.550692
0.018382 0.562246 0.549697
0.546180 0.546180 0.546180
0.880209 0.419334 0.456459
1.108461 0.181565 0.327245
1.218353 0.000000 0.205729
0.000000 0.814622 0.438564
0.000000 0.814553 0.438550
0.000000 0.814005 0.438440
0.000000 0.811617 0.437960
0.252764 0.803092 0.436258
0.784216 0.771986 0.428859
1.065897 0.528020 0.313227
1.202600 0.219823 0.199257
0.000000 0.982176 0.277580
0.000000 0.982145 0.277577
0.000000 0.981900 0.277557
0.000000 0.980831 0.277469
0.000000 0.977008 0.277155
0.358407 0.964502 0.276136
0.936233 0.917843 0.270512
1.153243 0.574451 0.178140
0.000000 1.059870 0.087897
0.000000 1.059859 0.087899
0.000000 1.059770 0.087920
0.000000 1.059383 0.088011
0.000000 1.057996 0.088334
0.000000 1.053430 0.089386
0.396192 1.038888 0.092629
1.003951 0.983040 0.100391
0.000000 0.000000 0.881131
0.000000 0.000000 0.881074
0.000000 0.000000 0.880629
0.187215 0.000000 0.878689
0.523687 0.000000 0.871852
0.907415 0.000000 0.819773
1.121816 0.000000 0.589182
1.223425 0.000000 0.373605
0.000000 0.000000 0.880952
0.000000 0.000000 0.880895
0.000000 0.000000 0.880450
0.185926 0.000000 0.878512
0.523226 0.000000 0.871678
0.907171 0.000000 0.819679
1.121708 0.000000 0.589145
1.223385 0.000000 0.373592
0.000000 0.056144 0.879541
0.000000 0.055275 0.879485
0.000000 0.048069 0.879041
0.175450 0.011445 0.877113
0.519590 0.000000 0.870312
0.905254 0.000000 0.818940
1.120859 0.000000 0.588848
1.223077 0.000000 0.373491
0.000000 0.250751 0.873450
0.000000 0.250527 0.873395
0.000000 0.248757 0.872961
0.120000 0.240897 0.871073
0.503593 0.210719 0.864414
0.896889 0.042465 0.815732
1.117157 0.000000 0.587556
1.221730 0.000000 0.373048
0.000000 0.493350 0.852556
0.000000 0.493232 0.852504
0.000000 0.492302 0.852102
0.000000 0.488233 0.850348
0.444349 0.473613 0.844161
0.867095 0.413591 0.804489
1.103971 0.173690 0.582970
1.216914 0.000000 0.371466
0.000000 0.809040 0.785575
0.000000 0.808971 0.785547
0.000000 0.808427 0.785326
0.000000 0.806053 0.784362
0.177717 0.797581 0.780940
0.769992 0.769992 0.769991
1.061324 0.526106 0.568326
1.201154 0.217534 0.366289
0.000000 0.979562 0.544499
0.000000 0.979532 0.544490
0.000000 0.979288 0.544422
0.000000 0.978222 0.544126
0.000000 0.974413 0.543070
0.338258 0.961953 0.539633
0.931331 0.917228 0.525658
1.151772 0.573839 0.350082
0.000000 1.058907 0.311731
0.000000 1.058895 0.311730
0.000000 1.058807 0.311720
0.000000 1.058420 0.311676
0.000000 1.057035 0.311520
0.000000 1.052476 0.311007
0.389847 1.037955 0.309384
1.002381 0.982857 0.301195
0.000000 0.000000 1.128257
0.000000 0.000000 1.128218
0.000000 0.000000 1.127912
0.000000 0.000000 1.126577
0.299666 0.000000 1.121836
0.687053 0.000000 1.106632
1.107220 0.000000 1.001383
1.218773 0.000000 0.643220
0.000000 0.000000 1.128139
0.000000 0.000000 1.128100
0.000000 0.000000 1.127794
0.000000 0.000000 1.126460
0.299247 0.000000 1.121721
0.686852 0.000000 1.106521
1.107111 0.000000 1.001331
1.218734 0.000000 0.643206
0.000000 0.000000 1.127214
0.000000 0.000000 1.127175
0.000000 0.000000 1.126870
0.000000 0.000000 1.125539
0.295924 0.000000 1.120812
0.685272 0.000000 1.105650
1.106257 0.000000 1.000924
1.218425 0.000000 0.643092
0.000000 0.143610 1.123195
0.000000 0.143402 1.123156
0.000000 0.141749 1.122855
0.000000 0.134312 1.121539
0.280998 0.103911 1.116865
0.678377 0.000000 1.101870
1.102533 0.000000 0.999149
1.217076 0.000000 0.642596
0.000000 0.358080 1.109138
0.000000 0.357997 1.109101
0.000000 0.357336 1.108811
0.000000 0.354443 1.107547
0.220203 0.343957 1.103055
0.653746 0.307798 1.088633
1.089268 0.145125 0.992859
1.212253 0.000000 0.640823
0.000000 0.636231 1.066227
0.000000 0.636179 1.066195
0.000000 0.635770 1.065939
0.000000 0.633985 1.064823
0.000000 0.627605 1.060856
0.572573 0.606712 1.048092
1.046343 0.519851 0.972845
1.196469 0.209948 0.635044
0.000000 0.971210 0.943341
0.000000 0.971180 0.943326
0.000000 0.970939 0.943202
0.000000 0.969886 0.942664
0.000000 0.966122 0.940742
0.261919 0.953806 0.934487
0.915236 0.915236 0.915236
1.147006 0.571859 0.617161
0.000000 1.055810 0.589630
0.000000 1.055799 0.589627
0.000000 1.055710 0.589600
0.000000 1.055325 0.589481
0.000000 1.053946 0.589059
0.000000 1.049409 0.587670
0.368595 1.034953 0.583272
0.997288 0.982263 0.565404
0.000000 0.000000 1.263387
0.000000 0.000000 1.263370
0.000000 0.000000 1.263234
0.000000 0.000000 1.262642
0.000000 0.000000 1.260528
0.356267 0.000000 1.253628
0.768595 0.000000 1.232199
1.203307 0.000000 1.088720
0.000000 0.000000 1.263335
0.000000 0.000000 1.263318
0.000000 0.000000 1.263183
0.000000 0.000000 1.262591
0.000000 0.000000 1.260477
0.356128 0.000000 1.253578
0.768521 0.000000 1.232152
1.203267 0.000000 1.088700
0.000000 0.000000 1.262931
0.000000 0.000000 1.262914
0.000000 0.000000 1.262778
0.000000 0.000000 1.262187
0.000000 0.000000 1.260076
0.355034 0.000000 1.253183
0.767937 0.000000 1.231778
1.202957 0.000000 1.088539
0.000000 0.000000 1.261168
0.000000 0.000000 1.261151
0.000000 0.000000 1.261016
0.000000 0.000000 1.260428
0.000000 0.000000 1.258326
0.350221 0.000000 1.251464
0.765388 0.000000 1.230151
1.201601 0.000000 1.087839
0.000000 0.191613 1.254911
0.000000 0.191552 1.254894
0.000000 0.191063 1.254762
0.000000 0.188917 1.254183
0.000000 0.181036 1.252114
0.332527 0.152440 1.245359
0.756280 0.000000 1.224373
1.196754 0.000000 1.085339
0.000000 0.413489 1.234905
0.000000 0.413460 1.234889
0.000000 0.413232 1.234763
0.000000 0.412235 1.234213
0.000000 0.408653 1.232248
0.267422 0.396728 1.225830
0.726503 0.357078 1.205862
1.180889 0.182551 1.077196
0.000000 0.705310 1.176519
0.000000 0.705291 1.176505
0.000000 0.705141 1.176397
0.000000 0.704483 1.175926
0.000000 0.702129 1.174243
0.000000 0.694391 1.168738
0.632605 0.669811 1.151552
1.131150 0.565286 1.052092
0.000000 1.045785 1.015891
0.000000 1.045774 1.015885
0.000000 1.045687 1.015837
0.000000 1.045308 1.015627
0.000000 1.043950 1.014875
0.000000 1.039480 1.012406
0.287290 1.025235 1.004577
0.980311 0.980311 0.980311
