assets/resources/wfx_effect/nle_default/BaseFilter/PQD65Cube/Data/HDR_PQD65.cube
#Copyright: (C)Copyright 2024 Wondershare Inc.
#Created by: BIAOZHOU.
LUT_3D_SIZE 5
DOMAIN_MIN 0.000000 0.000000 0.000000
DOMAIN_MAX 0.903226 0.903226 0.903226
0.000000 0.000000 0.000000
0.128220 0.000000 0.000406
0.497284 0.000000 0.005741
0.986558 0.000000 0.026316
1.225446 0.000000 0.043099
0.000000 0.111996 0.000000
0.111039 0.107674 0.000000
0.493704 0.008208 0.003165
0.985438 0.000000 0.024973
1.225228 0.000000 0.042833
0.000000 0.445404 0.000000
0.000000 0.444420 0.000000
0.439281 0.429262 0.000000
0.969248 0.217934 0.005799
1.222060 0.000000 0.038867
0.000000 0.867950 0.000000
0.000000 0.867624 0.000000
0.000000 0.862916 0.000000
0.836104 0.818042 0.000000
1.195505 0.312878 0.005464
0.000000 1.060265 0.000000
0.000000 1.060202 0.000000
0.000000 1.059289 0.000000
0.000000 1.051578 0.000000
1.004592 0.983115 0.000000
0.000000 0.000000 0.108162
0.124685 0.000000 0.108322
0.496615 0.000000 0.104670
0.986425 0.000000 0.080987
1.225427 0.000000 0.055297
0.000000 0.111312 0.106795
0.106969 0.106969 0.106969
0.493030 0.006836 0.103303
0.985304 0.000000 0.080135
1.225208 0.000000 0.055070
0.000000 0.445232 0.079469
0.000000 0.444248 0.079645
0.438520 0.429135 0.081944
0.969113 0.217780 0.067041
1.222041 0.000000 0.051700
0.000000 0.867884 0.000000
0.000000 0.867559 0.000000
0.000000 0.862851 0.000000
0.835956 0.818021 0.000000
1.195485 0.312858 0.019079
0.000000 1.060252 0.000000
0.000000 1.060189 0.000000
0.000000 1.059276 0.000000
0.000000 1.051565 0.000000
1.004571 0.983113 0.000000
0.000000 0.000000 0.444363
0.051951 0.000000 0.444169
0.486765 0.000000 0.437430
0.984484 0.000000 0.320962
1.225142 0.000000 0.152540
0.000000 0.097134 0.443446
0.014756 0.092434 0.443251
0.483106 0.000000 0.436770
0.983362 0.000000 0.320605
1.224923 0.000000 0.152431
0.000000 0.442734 0.429217
0.000000 0.441748 0.429092
0.427284 0.427284 0.427284
0.967153 0.215528 0.315446
1.221756 0.000000 0.150850
0.000000 0.866937 0.279046
0.000000 0.866613 0.279020
0.000000 0.861910 0.278634
0.833807 0.817725 0.273609
1.195198 0.312564 0.137095
0.000000 1.060060 0.000000
0.000000 1.059997 0.000000
0.000000 1.059085 0.000000
0.000000 1.051376 0.000000
1.004259 0.983076 0.000000
0.000000 0.000000 0.951859
0.000000 0.000000 0.951557
0.307711 0.000000 0.947207
0.967729 0.000000 0.874595
1.222715 0.000000 0.429198
0.000000 0.000000 0.950918
0.000000 0.000000 0.950617
0.303914 0.000000 0.946281
0.966597 0.000000 0.874126
1.222497 0.000000 0.429126
0.000000 0.337847 0.937563
0.000000 0.337027 0.937274
0.243094 0.324987 0.933124
0.950229 0.195160 0.867389
1.219327 0.000000 0.428085
0.000000 0.858944 0.834124
0.000000 0.858622 0.833982
0.000000 0.853967 0.831934
0.815196 0.815196 0.815196
1.192748 0.310052 0.419374
0.000000 1.058432 0.372008
0.000000 1.058369 0.371998
0.000000 1.057459 0.371851
0.000000 1.049769 0.370617
1.001605 0.982766 0.357950
0.000000 0.000000 1.263387
0.000000 0.000000 1.263291
0.000000 0.000000 1.261899
0.455421 0.000000 1.250271
1.203307 0.000000 1.088720
0.000000 0.000000 1.263100
0.000000 0.000000 1.263004
0.000000 0.000000 1.261613
0.454810 0.000000 1.249993
1.203087 0.000000 1.088606
0.000000 0.083099 1.258960
0.000000 0.082343 1.258865
0.000000 0.070675 1.257489
0.445885 0.000000 1.245990
1.199897 0.000000 1.086959
0.000000 0.478746 1.225396
0.000000 0.478603 1.225309
0.000000 0.476537 1.224047
0.365042 0.458918 1.213492
1.173146 0.289283 1.073246
0.000000 1.045785 1.015891
0.000000 1.045724 1.015857
0.000000 1.044831 1.015363
0.000000 1.037285 1.011195
0.980311 0.980311 0.980311
