assets/resources/wfx_effect/material/CubeLUTFiles/007 Series.CUBE
#Created by: Adobe Photoshop Export Color Lookup Plugin
#Copyright: (C) Copyright 2016 Wondershare Inc.
TITLE "007 Series"
#LUT size
LUT_3D_SIZE 8
#data domain
#LUT data points
DOMAIN_MIN 0.000000 0.000000 0.000000
DOMAIN_MAX 0.903226 0.903226 0.903226
0.010468 0.012756 0.015930
0.072876 0.020111 0.017517
0.202301 0.043701 0.025848
0.341736 0.073792 0.038818
0.465698 0.105804 0.052246
0.576447 0.147949 0.062805
0.671326 0.178192 0.075714
0.750580 0.198120 0.087158
0.020721 0.066895 0.017822
0.080353 0.076294 0.018951
0.224274 0.104797 0.030548
0.372864 0.140808 0.045837
0.502319 0.183777 0.056061
0.608093 0.220947 0.067932
0.698578 0.245605 0.081604
0.776459 0.268982 0.093811
0.032318 0.145691 0.033936
0.105164 0.156738 0.033264
0.245667 0.197784 0.040863
0.423004 0.237244 0.052826
0.545746 0.276672 0.063751
0.643982 0.304077 0.076599
0.728851 0.327454 0.089905
0.804565 0.350098 0.105164
0.032898 0.277222 0.077332
0.140442 0.294373 0.074493
0.309113 0.326691 0.072449
0.451904 0.358795 0.084961
0.584198 0.380676 0.087555
0.678040 0.394501 0.088806
0.757935 0.412659 0.100311
0.824707 0.432434 0.117126
0.076324 0.408447 0.134583
0.217438 0.435455 0.133667
0.369995 0.454590 0.121033
0.494415 0.478027 0.129974
0.610657 0.484650 0.114960
0.707184 0.492889 0.106262
0.783722 0.504852 0.114441
0.843872 0.520874 0.137878
0.130157 0.524933 0.204834
0.276123 0.539032 0.183167
0.407837 0.553650 0.158752
0.530396 0.569275 0.145905
0.642395 0.573456 0.113281
0.724731 0.575165 0.114410
0.799805 0.585144 0.128784
0.852264 0.606079 0.182312
0.156006 0.610687 0.252045
0.281158 0.626740 0.252747
0.445618 0.639404 0.211853
0.583893 0.643951 0.139618
0.681732 0.654419 0.114471
0.749023 0.658356 0.122467
0.808472 0.665894 0.154480
0.853973 0.692047 0.243561
0.195740 0.701782 0.298859
0.334259 0.719604 0.304932
0.501343 0.732513 0.270660
0.624939 0.731171 0.184296
0.712250 0.733124 0.137695
0.769379 0.742279 0.168060
0.810028 0.759979 0.247559
0.856415 0.777679 0.318787
0.012878 0.013916 0.056976
0.067535 0.017944 0.058533
0.195007 0.037994 0.066528
0.328552 0.065918 0.078796
0.452271 0.096619 0.091949
0.564484 0.143646 0.112183
0.661133 0.177032 0.125763
0.743774 0.196228 0.132935
0.019379 0.072540 0.065491
0.081360 0.080719 0.068665
0.216248 0.100525 0.074005
0.363464 0.135315 0.088318
0.496185 0.182709 0.102600
0.606140 0.225403 0.119202
0.697754 0.249329 0.131927
0.775360 0.268982 0.143372
0.024902 0.157715 0.092590
0.105682 0.164978 0.097473
0.242798 0.203308 0.095398
0.414093 0.241272 0.107452
0.540894 0.280945 0.115295
0.646210 0.309845 0.124695
0.732147 0.331085 0.137939
0.805237 0.351379 0.154846
0.027527 0.282318 0.135315
0.127563 0.297424 0.147736
0.298157 0.326660 0.141693
0.444153 0.364410 0.152039
0.574890 0.385315 0.153809
0.677582 0.401001 0.141113
0.762054 0.419189 0.149017
0.826508 0.439484 0.175140
0.058380 0.404419 0.189026
0.151855 0.441650 0.225952
0.341003 0.458588 0.209473
0.483368 0.483734 0.211029
0.595490 0.497009 0.205872
0.703033 0.504425 0.181793
0.784607 0.513855 0.175476
0.842194 0.535004 0.220612
0.106995 0.521759 0.263947
0.198334 0.542908 0.279022
0.373596 0.561279 0.264343
0.509186 0.578156 0.249756
0.621429 0.588928 0.234314
0.714386 0.588837 0.205841
0.795441 0.600891 0.217346
0.845978 0.626495 0.285278
0.138184 0.608521 0.303894
0.232300 0.627808 0.320801
0.408051 0.644226 0.303894
0.548126 0.656464 0.270203
0.655792 0.667786 0.244629
0.738159 0.671478 0.217712
0.799683 0.684784 0.263367
0.850220 0.709320 0.336090
0.164001 0.692566 0.339020
0.257568 0.712738 0.357849
0.420044 0.732635 0.366211
0.587738 0.745544 0.330261
0.684113 0.747009 0.278351
0.754852 0.757172 0.289490
0.803894 0.773285 0.342072
0.856415 0.788055 0.391205
0.018280 0.023529 0.116394
0.068359 0.027832 0.121735
0.180267 0.039368 0.133484
0.319672 0.063904 0.140686
0.444183 0.100281 0.159332
0.555023 0.145020 0.179352
0.650848 0.177887 0.190308
0.736420 0.200714 0.198090
0.016541 0.088806 0.139221
0.075592 0.093903 0.142761
0.195618 0.110046 0.150543
0.351257 0.134338 0.154144
0.477325 0.180756 0.172302
0.588104 0.222778 0.189789
0.682343 0.248871 0.203796
0.764465 0.268372 0.208984
0.017517 0.180389 0.169281
0.069275 0.190796 0.178497
0.229431 0.215424 0.188049
0.401611 0.248962 0.191711
0.525238 0.288483 0.202850
0.633392 0.316559 0.207886
0.724792 0.338745 0.216431
0.797791 0.358429 0.236389
0.025208 0.299622 0.213043
0.086700 0.308289 0.224304
0.275238 0.331238 0.232452
0.432404 0.373932 0.236267
0.558533 0.395599 0.245239
0.669189 0.407776 0.224548
0.758270 0.428406 0.226990
0.821350 0.450989 0.263885
0.051331 0.408936 0.258759
0.127808 0.437744 0.289124
0.291748 0.457947 0.299225
0.452209 0.479858 0.291595
0.578949 0.500793 0.292938
0.686798 0.518982 0.296783
0.774750 0.533356 0.297424
0.835358 0.556488 0.329437
0.092285 0.514160 0.316315
0.165039 0.539215 0.341003
0.274567 0.560303 0.357727
0.462372 0.579895 0.346100
0.600098 0.597229 0.341125
0.693146 0.610321 0.348480
0.780212 0.626251 0.361450
0.842712 0.645721 0.388855
0.120209 0.601898 0.352905
0.194977 0.624939 0.376068
0.323639 0.645599 0.390839
0.503113 0.665833 0.381226
0.625244 0.682404 0.379700
0.711456 0.695312 0.382751
0.786194 0.706451 0.397583
0.848022 0.725159 0.430237
0.141083 0.683502 0.381500
0.224030 0.708710 0.406067
0.372131 0.731476 0.427185
0.552338 0.751923 0.421661
0.656921 0.762512 0.413574
0.735809 0.777069 0.427063
0.796814 0.787567 0.442261
0.853088 0.796936 0.468048
0.018372 0.038330 0.190002
0.065277 0.047363 0.200012
0.164703 0.055634 0.205963
0.291016 0.070984 0.218689
0.408783 0.096497 0.228790
0.537231 0.142517 0.258209
0.634369 0.179382 0.272949
0.721039 0.205627 0.286407
0.017914 0.114563 0.215363
0.072327 0.121887 0.222931
0.173523 0.137695 0.235413
0.328156 0.157654 0.248962
0.459167 0.186981 0.261902
0.569489 0.229370 0.281555
0.663452 0.257507 0.294067
0.749115 0.283264 0.311707
0.017303 0.209564 0.253632
0.063538 0.218323 0.264160
0.191101 0.231506 0.281677
0.368713 0.255188 0.288513
0.505859 0.292053 0.295319
0.611328 0.324371 0.302551
0.701538 0.349152 0.323578
0.780457 0.373718 0.351990
0.025940 0.319397 0.300049
0.075958 0.334839 0.314240
0.189056 0.345184 0.336914
0.395691 0.380310 0.344971
0.545868 0.406219 0.337433
0.647064 0.422821 0.337280
0.736237 0.449219 0.361633
0.808014 0.474365 0.393219
0.048645 0.421143 0.349487
0.110779 0.438599 0.364441
0.213196 0.456421 0.379395
0.400940 0.474609 0.379181
0.559143 0.506317 0.378357
0.671875 0.529205 0.392181
0.762146 0.547943 0.403931
0.827942 0.572906 0.436523
0.082367 0.514496 0.387146
0.148285 0.536163 0.402710
0.234528 0.556396 0.419250
0.388672 0.577728 0.431091
0.575195 0.600433 0.426117
0.678802 0.617279 0.431458
0.772095 0.638977 0.455048
0.838013 0.659027 0.479858
0.106323 0.600067 0.413818
0.175964 0.622375 0.430756
0.278931 0.643524 0.449432
0.432770 0.666229 0.463806
0.599182 0.686768 0.460876
0.697388 0.704987 0.472626
0.776947 0.719818 0.489624
0.843903 0.735992 0.510620
0.127777 0.683868 0.440063
0.198517 0.704803 0.457153
0.345032 0.731384 0.482849
0.521851 0.755859 0.494324
0.636871 0.771362 0.496979
0.722382 0.786346 0.512268
0.789307 0.795929 0.524078
0.848236 0.803253 0.541443
0.021179 0.052917 0.263916
0.067688 0.059174 0.280853
0.151123 0.063263 0.298737
0.259796 0.063629 0.297394
0.383759 0.093323 0.306915
0.497925 0.127228 0.320007
0.608856 0.165405 0.343903
0.706055 0.203766 0.372650
0.018738 0.137787 0.300201
0.076538 0.136871 0.307648
0.153839 0.149017 0.329407
0.294495 0.156616 0.332977
0.422760 0.180115 0.345093
0.527557 0.204712 0.345734
0.643219 0.253113 0.378998
0.732971 0.284149 0.397308
0.020874 0.239441 0.346008
0.066528 0.242432 0.357269
0.170349 0.243073 0.375214
0.311768 0.267609 0.387573
0.461273 0.290863 0.399750
0.581757 0.320618 0.399506
0.681763 0.352081 0.412323
0.766876 0.377625 0.431976
0.029602 0.341370 0.391327
0.076935 0.350220 0.405823
0.162964 0.362518 0.423462
0.326996 0.377472 0.438354
0.505035 0.400818 0.432709
0.630493 0.429657 0.431519
0.723694 0.456299 0.446472
0.799927 0.482727 0.479095
0.047394 0.432678 0.430817
0.103455 0.443481 0.444092
0.178314 0.465210 0.458984
0.331024 0.486755 0.472809
0.526520 0.510162 0.474487
0.660614 0.539337 0.477051
0.752075 0.562561 0.494781
0.821198 0.588104 0.529205
0.077332 0.520233 0.463257
0.137390 0.536407 0.473450
0.212708 0.558929 0.483917
0.349335 0.576965 0.495239
0.538910 0.595795 0.494476
0.665253 0.623840 0.506073
0.763336 0.648010 0.532318
0.832703 0.666870 0.554565
0.099304 0.604462 0.484222
0.163147 0.622589 0.494019
0.244904 0.643066 0.506775
0.386292 0.664886 0.525482
0.559265 0.689362 0.534851
0.680695 0.709412 0.544830
0.769257 0.726074 0.558716
0.840027 0.741821 0.580261
0.117401 0.685822 0.503723
0.179504 0.702454 0.515259
0.296844 0.727722 0.534393
0.473267 0.755585 0.562103
0.613556 0.774750 0.569550
0.711365 0.788757 0.577515
0.783234 0.799469 0.589111
0.844238 0.806549 0.602509
0.023193 0.062531 0.352173
0.070984 0.065643 0.364532
0.151764 0.068817 0.381104
0.238861 0.064362 0.384003
0.347992 0.079529 0.387817
0.465302 0.111542 0.400177
0.567383 0.146301 0.417847
0.664551 0.175842 0.437622
0.022095 0.151520 0.391022
0.081024 0.145050 0.396332
0.155609 0.153809 0.414490
0.268463 0.159363 0.428864
0.381897 0.164337 0.428284
0.497711 0.194916 0.432129
0.596741 0.224670 0.447571
0.695435 0.256775 0.467651
0.025574 0.261444 0.438965
0.070496 0.263885 0.448853
0.170990 0.257935 0.456268
0.283051 0.273132 0.473053
0.418060 0.283264 0.472626
0.540985 0.303284 0.477356
0.633545 0.320801 0.484131
0.746307 0.369141 0.511017
0.036743 0.362213 0.477997
0.082611 0.365814 0.489258
0.161072 0.378632 0.503357
0.306763 0.385925 0.517303
0.452942 0.406708 0.519562
0.593964 0.432068 0.530304
0.691956 0.448181 0.534760
0.788177 0.485565 0.557495
0.053772 0.445801 0.507263
0.106995 0.455536 0.518463
0.176453 0.476562 0.532837
0.297913 0.497650 0.547241
0.476562 0.515991 0.558472
0.629364 0.535126 0.559418
0.738586 0.567505 0.575623
0.814148 0.589111 0.596191
0.078430 0.531494 0.533997
0.133331 0.543365 0.543335
0.198181 0.563721 0.555908
0.298492 0.584106 0.566895
0.505554 0.609009 0.581299
0.646698 0.630829 0.589966
0.754974 0.654724 0.603119
0.827728 0.672089 0.620453
0.095001 0.612244 0.554474
0.153320 0.624329 0.562775
0.218628 0.643768 0.573578
0.352356 0.668304 0.586212
0.529877 0.690857 0.601105
0.664276 0.708527 0.607117
0.762024 0.730255 0.620178
0.835938 0.745361 0.640167
0.112793 0.691772 0.574371
0.171448 0.705231 0.581635
0.262421 0.727448 0.593048
0.432465 0.752197 0.611298
0.589081 0.774597 0.630280
0.697937 0.790680 0.636414
0.777924 0.801788 0.647186
0.841705 0.809174 0.658051
0.027161 0.074036 0.437378
0.077881 0.078522 0.446198
0.155701 0.081360 0.460724
0.240723 0.073853 0.460571
0.325897 0.081024 0.468079
0.427429 0.099182 0.475647
0.538788 0.128174 0.489624
0.645386 0.167053 0.512329
0.026611 0.172791 0.479248
0.079895 0.164703 0.483765
0.160217 0.168854 0.496368
0.270844 0.169128 0.506165
0.358124 0.161804 0.505157
0.464813 0.181213 0.509155
0.573700 0.213165 0.520416
0.674652 0.251984 0.539795
0.031860 0.286682 0.527283
0.082092 0.286682 0.532654
0.170593 0.275299 0.536499
0.281311 0.281372 0.549255
0.399231 0.282318 0.556885
0.509460 0.284882 0.547485
0.616547 0.320557 0.557648
0.714935 0.355530 0.574371
0.042053 0.380463 0.557037
0.091248 0.387146 0.565308
0.169922 0.400116 0.577240
0.307312 0.398560 0.585175
0.427155 0.411560 0.598389
0.561859 0.421600 0.591858
0.666229 0.446106 0.601868
0.757263 0.465271 0.612762
0.061188 0.460327 0.578827
0.112000 0.470795 0.586792
0.177185 0.490295 0.599823
0.286835 0.510864 0.613312
0.462555 0.528168 0.627411
0.602661 0.541779 0.627411
0.711487 0.566772 0.644287
0.801666 0.589294 0.659271
0.078369 0.541016 0.598846
0.133240 0.552582 0.607086
0.196716 0.571381 0.619354
0.290649 0.592072 0.631744
0.465881 0.617615 0.649078
0.626343 0.635803 0.656708
0.737427 0.653595 0.666046
0.820770 0.673279 0.680481
0.096649 0.620361 0.618713
0.154053 0.633087 0.626251
0.216492 0.651062 0.636749
0.320648 0.671570 0.648163
0.499359 0.696777 0.665375
0.651306 0.715179 0.674652
0.751007 0.734680 0.687012
0.832184 0.748627 0.699249
0.114899 0.700684 0.637787
0.170105 0.712677 0.644653
0.244720 0.730194 0.654694
0.400909 0.752258 0.667053
0.569763 0.775879 0.685547
0.686218 0.791534 0.694580
0.768005 0.802948 0.701691
0.839111 0.811462 0.713470
0.038635 0.100677 0.523468
0.093048 0.100708 0.529449
0.167450 0.102478 0.539673
0.250336 0.088776 0.536499
0.330872 0.092041 0.538300
0.419586 0.105286 0.547089
0.521423 0.121887 0.551514
0.628052 0.155762 0.570679
0.033752 0.209167 0.564667
0.086243 0.196686 0.563171
0.170471 0.191132 0.570679
0.280396 0.192688 0.579376
0.365326 0.175690 0.576172
0.453949 0.185059 0.579163
0.549683 0.202454 0.580536
0.652069 0.237274 0.597839
0.039429 0.309875 0.601929
0.091949 0.312195 0.607941
0.178772 0.303345 0.613007
0.284790 0.298950 0.620667
0.400177 0.298798 0.628937
0.495514 0.286316 0.617554
0.591766 0.304382 0.619141
0.691528 0.343872 0.637573
0.050446 0.396179 0.625488
0.102234 0.407898 0.634247
0.176208 0.420349 0.643433
0.318542 0.416534 0.653625
0.423431 0.417908 0.666748
0.549835 0.421997 0.666382
0.640839 0.428314 0.662354
0.738586 0.468811 0.676178
0.065308 0.473846 0.645142
0.115082 0.485474 0.652557
0.179260 0.505371 0.664246
0.282043 0.525665 0.676910
0.455322 0.544525 0.693176
0.587280 0.554504 0.697174
0.683868 0.562225 0.698608
0.778900 0.583405 0.715271
0.078583 0.551300 0.662842
0.131683 0.562164 0.669800
0.191467 0.579987 0.680603
0.273071 0.600830 0.693298
0.450714 0.627411 0.712128
0.621918 0.646820 0.723969
0.713165 0.655640 0.727020
0.802887 0.671234 0.739929
0.096771 0.628754 0.680664
0.152069 0.641846 0.688354
0.212860 0.658630 0.699097
0.328766 0.680450 0.712402
0.504852 0.705414 0.731445
0.641449 0.724152 0.744202
0.743195 0.738739 0.752319
0.823364 0.749207 0.760132
0.117523 0.710907 0.701477
0.173859 0.723236 0.708282
0.257538 0.739777 0.718384
0.416992 0.760529 0.731232
0.561401 0.779663 0.747894
0.674866 0.794495 0.756134
0.764099 0.806335 0.765442
0.834869 0.814301 0.774292
