assets/resources/wfx_effect/material/CubeLUTFiles/007 Series.CUBE
#Created by: Adobe Photoshop Export Color Lookup Plugin
#Copyright: (C) Copyright 2016 Wondershare Inc.
TITLE "007 Series"
#LUT size
LUT_3D_SIZE 32
#data domain
DOMAIN_MIN 0.0 0.0 0.0
DOMAIN_MAX 1.0 1.0 1.0
#LUT data points
0.010468 0.012756 0.015930
0.021210 0.013275 0.016113
0.033813 0.014099 0.016388
0.049927 0.016052 0.016663
0.072876 0.020111 0.017517
0.103271 0.026276 0.019348
0.133881 0.031158 0.021393
0.167114 0.037048 0.023712
0.202301 0.043701 0.025848
0.239960 0.051025 0.029327
0.275757 0.058716 0.032379
0.308075 0.065765 0.035522
0.341736 0.073792 0.038818
0.373627 0.080780 0.042297
0.405457 0.088684 0.045746
0.436066 0.097137 0.049347
0.465698 0.105804 0.052246
0.497467 0.115906 0.053986
0.525360 0.126984 0.056793
0.550598 0.137756 0.059875
0.576447 0.147949 0.062805
0.601288 0.156677 0.066223
0.625580 0.164429 0.069336
0.648956 0.171936 0.072571
0.671326 0.178192 0.075714
0.692200 0.183411 0.078491
0.711823 0.188995 0.081573
0.731415 0.194244 0.084534
0.750580 0.198120 0.087158
0.768524 0.202332 0.089783
0.785461 0.205963 0.092926
0.800690 0.208069 0.095032
0.010834 0.023132 0.016144
0.021759 0.024261 0.016296
0.034302 0.025391 0.016479
0.051147 0.027924 0.016785
0.074646 0.032593 0.017761
0.105194 0.039764 0.019501
0.137482 0.044586 0.021759
0.171448 0.050659 0.024109
0.207489 0.057739 0.026520
0.245789 0.065552 0.030334
0.282227 0.073334 0.033386
0.315002 0.080414 0.037201
0.348999 0.088593 0.040497
0.381592 0.096405 0.043884
0.413513 0.105103 0.047211
0.444366 0.113983 0.050507
0.474213 0.123505 0.053406
0.506378 0.134491 0.054962
0.532959 0.145172 0.057831
0.557922 0.155579 0.060730
0.583435 0.165314 0.063660
0.608582 0.174194 0.067566
0.633240 0.182098 0.070740
0.656494 0.188629 0.073914
0.678192 0.194244 0.076935
0.698578 0.199493 0.080505
0.718170 0.205200 0.083801
0.737762 0.210022 0.086609
0.756775 0.214661 0.088837
0.774628 0.219757 0.091644
0.791473 0.223785 0.095154
0.807312 0.226959 0.098083
0.011322 0.035400 0.016479
0.022858 0.036713 0.016663
0.035492 0.038391 0.016876
0.052429 0.041473 0.017090
0.075684 0.045898 0.017883
0.107544 0.052612 0.019714
0.140228 0.057861 0.022217
0.175354 0.064789 0.025330
0.212219 0.072174 0.027893
0.251495 0.080475 0.030731
0.288208 0.088348 0.034302
0.321564 0.095398 0.038269
0.355896 0.103546 0.041687
0.388947 0.112701 0.045135
0.421600 0.122284 0.048462
0.452728 0.131744 0.051636
0.483398 0.142029 0.054291
0.514496 0.153839 0.056458
0.540924 0.164062 0.058777
0.565552 0.173492 0.061707
0.590912 0.183197 0.065002
0.616241 0.191528 0.068665
0.640503 0.198700 0.071869
0.663574 0.204468 0.075134
0.684845 0.210419 0.078217
0.705017 0.215790 0.082001
0.724823 0.221375 0.085083
0.744415 0.226379 0.087585
0.763031 0.231445 0.090057
0.780640 0.236816 0.093201
0.797516 0.242065 0.097076
0.814148 0.246521 0.100616
0.015503 0.050446 0.016846
0.028168 0.052277 0.017029
0.040771 0.054199 0.017181
0.056183 0.056458 0.017395
0.078522 0.060211 0.018127
0.108948 0.066620 0.020050
0.142670 0.073364 0.022705
0.179504 0.079987 0.026703
0.217957 0.088104 0.029572
0.257904 0.096344 0.032288
0.294952 0.104675 0.036133
0.329529 0.112579 0.039917
0.364105 0.121246 0.043549
0.397736 0.130920 0.046753
0.430267 0.140350 0.049744
0.461609 0.150818 0.052917
0.492767 0.162598 0.055237
0.522949 0.174225 0.057343
0.548615 0.183868 0.059814
0.573547 0.192932 0.062836
0.599426 0.201813 0.066315
0.623962 0.209167 0.069794
0.647522 0.215698 0.073181
0.670319 0.221375 0.076477
0.691681 0.227448 0.079895
0.711975 0.233398 0.083557
0.731873 0.238556 0.086151
0.751373 0.243958 0.088684
0.769501 0.249207 0.091400
0.787079 0.255157 0.095612
0.804138 0.260986 0.100159
0.820648 0.265900 0.104004
0.020721 0.066895 0.017822
0.033173 0.068787 0.018219
0.045868 0.070770 0.018250
0.061127 0.073059 0.018433
0.080353 0.076294 0.018951
0.109497 0.082245 0.021118
0.144684 0.089172 0.023804
0.183868 0.097351 0.027527
0.224274 0.104797 0.030548
0.264099 0.112762 0.033569
0.301361 0.121582 0.037903
0.338013 0.131409 0.042267
0.372864 0.140808 0.045837
0.407318 0.151428 0.048920
0.439484 0.161591 0.050964
0.470612 0.171844 0.053955
0.502319 0.183777 0.056061
0.531250 0.194611 0.058380
0.557373 0.203705 0.061005
0.582794 0.212555 0.064240
0.608093 0.220947 0.067932
0.631958 0.227722 0.071411
0.655060 0.233978 0.074738
0.677277 0.239899 0.077972
0.698578 0.245605 0.081604
0.719116 0.251770 0.084778
0.739380 0.257538 0.087646
0.758820 0.263733 0.090546
0.776459 0.268982 0.093811
0.794220 0.274689 0.098572
0.811127 0.280060 0.103088
0.826416 0.285706 0.106934
0.024658 0.084045 0.020203
0.037537 0.085205 0.019958
0.050659 0.087250 0.019714
0.067078 0.090393 0.020447
0.087524 0.094940 0.021423
0.110474 0.099640 0.022888
0.146240 0.106812 0.025452
0.187500 0.115387 0.029144
0.229370 0.123474 0.032501
0.270477 0.131317 0.035828
0.308472 0.140411 0.040161
0.347046 0.151917 0.044067
0.382996 0.162537 0.047424
0.417206 0.172577 0.050720
0.450073 0.183472 0.052307
0.481476 0.194550 0.055115
0.513611 0.206512 0.057312
0.540527 0.216309 0.059937
0.566803 0.224854 0.063080
0.592926 0.233368 0.066559
0.617096 0.240906 0.070038
0.640198 0.246887 0.073425
0.663055 0.253418 0.076630
0.684814 0.259338 0.079895
0.705994 0.265228 0.083527
0.726410 0.271057 0.086517
0.746735 0.277679 0.089661
0.766144 0.283783 0.092834
0.783661 0.289154 0.097168
0.801331 0.294617 0.101898
0.817963 0.299957 0.105560
0.832062 0.305603 0.109436
0.027039 0.102325 0.023376
0.039917 0.103668 0.023132
0.054993 0.105499 0.022766
0.073151 0.109161 0.023590
0.094452 0.114532 0.024536
0.118500 0.119629 0.025452
0.148071 0.126282 0.027252
0.191254 0.135132 0.031494
0.235535 0.144165 0.035095
0.278687 0.153198 0.038391
0.318024 0.163452 0.042938
0.358490 0.174316 0.045959
0.395599 0.184631 0.048767
0.430145 0.195465 0.051819
0.461578 0.206299 0.053406
0.493073 0.218262 0.056458
0.524750 0.229614 0.058990
0.550781 0.238647 0.062378
0.577057 0.246796 0.065491
0.602722 0.254883 0.069061
0.626678 0.261841 0.072235
0.649567 0.267395 0.075043
0.671906 0.273804 0.078064
0.692932 0.279358 0.081848
0.713837 0.285522 0.085419
0.733856 0.291718 0.089020
0.754333 0.299042 0.092499
0.773438 0.304840 0.096344
0.791046 0.309906 0.100677
0.808136 0.315186 0.104919
0.823456 0.319855 0.108246
0.837524 0.325195 0.111694
0.029633 0.122864 0.027771
0.043274 0.123688 0.027222
0.058960 0.125488 0.026581
0.077057 0.129303 0.027405
0.099274 0.134216 0.028381
0.125671 0.139679 0.029297
0.155823 0.148315 0.031067
0.194061 0.159668 0.034302
0.240906 0.169189 0.037567
0.286957 0.177460 0.041046
0.330048 0.187012 0.044586
0.371124 0.197601 0.047791
0.408508 0.209381 0.050323
0.443817 0.220825 0.053070
0.475464 0.231720 0.054749
0.505066 0.241882 0.057831
0.535126 0.252533 0.060974
0.561035 0.261017 0.064240
0.586609 0.268707 0.067261
0.611115 0.275787 0.070587
0.635345 0.282593 0.074066
0.658051 0.288300 0.077209
0.679810 0.294281 0.080658
0.700714 0.300446 0.084564
0.721405 0.306793 0.088074
0.741180 0.312653 0.091217
0.761383 0.319366 0.094788
0.780365 0.325134 0.099304
0.797760 0.329987 0.103577
0.814178 0.334717 0.106995
0.828461 0.339294 0.110596
0.842377 0.344757 0.114380
0.032318 0.145691 0.033936
0.046112 0.147644 0.033234
0.061554 0.149567 0.032562
0.081573 0.151459 0.032440
0.105164 0.156738 0.033264
0.133148 0.162292 0.032501
0.164642 0.172699 0.035492
0.203491 0.187317 0.037994
0.245667 0.197784 0.040863
0.295441 0.204437 0.043610
0.341949 0.214844 0.047119
0.385040 0.226471 0.050598
0.423004 0.237244 0.052826
0.456665 0.247772 0.055481
0.487366 0.258240 0.058533
0.516602 0.267883 0.061554
0.545746 0.276672 0.063751
0.571777 0.284485 0.066589
0.596558 0.291504 0.069885
0.620056 0.297821 0.073395
0.643982 0.304077 0.076599
0.666473 0.310028 0.079773
0.688019 0.315460 0.083191
0.708649 0.321381 0.086487
0.728851 0.327454 0.089905
0.748749 0.333313 0.093140
0.768616 0.339996 0.097473
0.786926 0.345276 0.101868
0.804565 0.350098 0.105164
0.819916 0.354645 0.109253
0.834015 0.359100 0.113007
0.847351 0.365051 0.118408
0.035126 0.171722 0.040680
0.049530 0.174744 0.040466
0.063690 0.177948 0.040405
0.082336 0.179810 0.040100
0.108734 0.183746 0.040131
0.142548 0.190796 0.039581
0.176453 0.201141 0.040344
0.215149 0.215637 0.042786
0.257874 0.232117 0.045563
0.304199 0.237793 0.046448
0.353455 0.246429 0.050232
0.396149 0.256317 0.054474
0.433594 0.266968 0.057404
0.467590 0.277557 0.060730
0.497864 0.286102 0.064301
0.527100 0.294891 0.066711
0.555786 0.302429 0.067932
0.581940 0.308746 0.069763
0.606842 0.314941 0.072876
0.630066 0.320587 0.076294
0.653259 0.326202 0.079041
0.675079 0.331696 0.081787
0.696136 0.337097 0.084991
0.716431 0.343201 0.088837
0.736450 0.348846 0.092590
0.756226 0.354645 0.096375
0.775421 0.360596 0.100586
0.793762 0.365906 0.104614
0.810150 0.370544 0.107849
0.825073 0.374939 0.112213
0.839081 0.379272 0.116730
0.851868 0.384949 0.122986
0.034790 0.203796 0.051270
0.048553 0.208160 0.050781
0.065521 0.211426 0.050964
0.082947 0.214508 0.051056
0.113525 0.217041 0.049225
0.152069 0.223206 0.047913
0.191925 0.234039 0.047577
0.231842 0.248291 0.049713
0.272797 0.263489 0.052155
0.315887 0.275116 0.054504
0.360474 0.280029 0.056335
0.404449 0.288696 0.060211
0.442322 0.297577 0.064270
0.477753 0.307648 0.068176
0.507782 0.315338 0.071655
0.537109 0.322083 0.073181
0.565979 0.328522 0.073883
0.592163 0.333771 0.074738
0.616821 0.339081 0.076202
0.639984 0.343872 0.078918
0.662140 0.348816 0.081573
0.683258 0.353912 0.084930
0.703705 0.359161 0.087860
0.723969 0.364777 0.091797
0.743805 0.370300 0.095337
0.763458 0.375946 0.099304
0.781769 0.381317 0.103088
0.799988 0.386444 0.107117
0.815491 0.390747 0.110962
0.830017 0.395203 0.115692
0.843536 0.399872 0.121887
0.856323 0.405518 0.128326
0.030823 0.239899 0.063660
0.043915 0.245056 0.062988
0.061646 0.249023 0.063782
0.086029 0.253815 0.064026
0.124451 0.255127 0.061523
0.167419 0.260620 0.057678
0.212158 0.269836 0.057709
0.251038 0.281860 0.059509
0.289825 0.295166 0.061462
0.332245 0.308228 0.064331
0.370453 0.315063 0.066650
0.409149 0.321198 0.068909
0.447815 0.328308 0.073975
0.484497 0.336456 0.078094
0.516022 0.343781 0.081238
0.546143 0.349396 0.081329
0.575562 0.354431 0.080383
0.601349 0.358917 0.080383
0.625763 0.363037 0.079987
0.648651 0.367157 0.081848
0.670471 0.371643 0.084747
0.691010 0.376404 0.088318
0.711456 0.380981 0.091553
0.731781 0.386200 0.094269
0.751160 0.391510 0.097809
0.770264 0.397064 0.101776
0.788177 0.402252 0.105743
0.804810 0.407288 0.109924
0.819794 0.411438 0.113953
0.834595 0.415558 0.118958
0.848022 0.420563 0.126007
0.860657 0.426605 0.133545
0.032898 0.277222 0.077332
0.046722 0.282104 0.077820
0.064484 0.288422 0.078156
0.096222 0.291016 0.078186
0.140442 0.294373 0.074493
0.187378 0.298492 0.067841
0.229736 0.306091 0.067444
0.269348 0.314972 0.068634
0.309113 0.326691 0.072449
0.349426 0.339905 0.075989
0.384644 0.348694 0.079163
0.417023 0.353943 0.081238
0.451904 0.358795 0.084961
0.489197 0.365692 0.088806
0.522308 0.371796 0.091064
0.554321 0.376770 0.089935
0.584198 0.380676 0.087555
0.610291 0.384460 0.086731
0.634430 0.387421 0.085175
0.656433 0.390533 0.085266
0.678040 0.394501 0.088806
0.698669 0.398499 0.091248
0.718475 0.403137 0.094513
0.739075 0.408264 0.097015
0.757935 0.412659 0.100311
0.776947 0.418304 0.103912
0.794312 0.423309 0.108002
0.809967 0.428070 0.112518
0.824707 0.432434 0.117126
0.839172 0.436951 0.123108
0.852386 0.442657 0.132385
0.865021 0.448792 0.140442
0.037537 0.312836 0.090576
0.053650 0.318970 0.091949
0.073730 0.324524 0.094025
0.107697 0.329926 0.095123
0.158264 0.332825 0.090393
0.205658 0.336731 0.084503
0.248169 0.341034 0.080841
0.287018 0.349030 0.081696
0.326935 0.358612 0.083435
0.366089 0.369080 0.086365
0.398987 0.379059 0.090729
0.430725 0.386536 0.094025
0.460022 0.390472 0.096558
0.493256 0.395111 0.100403
0.527100 0.399628 0.102448
0.561859 0.403870 0.099335
0.592316 0.406860 0.095123
0.617889 0.409637 0.092468
0.642334 0.411987 0.090485
0.664368 0.414734 0.090637
0.685425 0.417450 0.091949
0.705597 0.421356 0.094543
0.725525 0.425598 0.097626
0.745667 0.430389 0.099945
0.764465 0.434662 0.103119
0.782990 0.439667 0.106842
0.800110 0.444733 0.110870
0.815460 0.449951 0.115784
0.830048 0.454742 0.121277
0.844208 0.460236 0.128174
0.856781 0.466766 0.140350
0.869141 0.473480 0.150299
0.046814 0.345734 0.103271
0.064087 0.351471 0.105988
0.085083 0.357361 0.108551
0.121979 0.363922 0.110382
0.173798 0.368896 0.107056
0.223724 0.373993 0.101990
0.263184 0.378113 0.098267
0.304230 0.383392 0.095123
0.343964 0.391113 0.095673
0.379364 0.399353 0.097961
0.412445 0.408081 0.101624
0.444672 0.417603 0.106628
0.472107 0.422180 0.109192
0.500214 0.424561 0.111084
0.531158 0.427979 0.113708
0.568115 0.430328 0.108185
0.599457 0.432800 0.102478
0.624817 0.434753 0.098511
0.649445 0.436768 0.095825
0.671875 0.439423 0.095886
0.692505 0.441498 0.096252
0.712524 0.444458 0.097687
0.732574 0.448853 0.100037
0.752319 0.453857 0.104126
0.771484 0.458954 0.107178
0.789948 0.464294 0.111115
0.806671 0.469574 0.115051
0.821594 0.474487 0.119690
0.835663 0.478760 0.126282
0.848877 0.483643 0.134338
0.860748 0.489838 0.147736
0.872498 0.495453 0.158264
0.058441 0.376526 0.117737
0.078094 0.382599 0.121277
0.102661 0.389618 0.125153
0.148163 0.397491 0.124939
0.193542 0.403473 0.121552
0.240845 0.408112 0.116608
0.282135 0.412842 0.112762
0.319580 0.417480 0.109253
0.356995 0.423248 0.108154
0.392212 0.429108 0.109253
0.424194 0.436920 0.112274
0.455536 0.445068 0.116425
0.484070 0.451599 0.120667
0.510986 0.454559 0.122742
0.537933 0.456146 0.123199
0.573547 0.456604 0.117615
0.605347 0.458374 0.111115
0.631744 0.460358 0.104675
0.656708 0.462402 0.101288
0.679108 0.465546 0.101898
0.700592 0.468475 0.102600
0.721039 0.471741 0.102966
0.741089 0.475708 0.104980
0.759949 0.478882 0.107788
0.778290 0.482941 0.111359
0.796112 0.487305 0.114777
0.811859 0.491211 0.117950
0.826569 0.495270 0.122742
0.840332 0.499817 0.130707
0.852783 0.504883 0.140564
0.864227 0.510895 0.154175
0.875366 0.516449 0.166473
0.076324 0.408447 0.134583
0.098114 0.415894 0.138611
0.130127 0.423126 0.140137
0.171326 0.430054 0.138611
0.217438 0.435455 0.133667
0.257538 0.440857 0.130737
0.297974 0.445709 0.126526
0.335083 0.450439 0.123840
0.369995 0.454590 0.121033
0.403778 0.459442 0.120789
0.435577 0.465546 0.122742
0.465607 0.471771 0.126404
0.494415 0.478027 0.129974
0.522095 0.482788 0.131409
0.549774 0.483978 0.128357
0.580933 0.483398 0.121735
0.610657 0.484650 0.114960
0.637970 0.487091 0.110870
0.662933 0.488403 0.105835
0.686310 0.490295 0.105286
0.707184 0.492889 0.106262
0.727142 0.495819 0.107971
0.747101 0.498596 0.109741
0.766022 0.501312 0.111877
0.783722 0.504852 0.114441
0.801208 0.508606 0.117584
0.815948 0.512207 0.122406
0.830200 0.515991 0.128387
0.843872 0.520874 0.137878
0.856232 0.526245 0.148865
0.867340 0.531738 0.161865
0.877869 0.538116 0.177551
0.093933 0.441162 0.153198
0.118988 0.447876 0.155121
0.155212 0.454071 0.153076
0.197510 0.459534 0.149719
0.237549 0.464569 0.145355
0.274261 0.469696 0.142792
0.310608 0.474731 0.139832
0.347443 0.479462 0.136810
0.380371 0.484650 0.135559
0.412018 0.489471 0.133881
0.443909 0.495819 0.134338
0.474731 0.501831 0.135254
0.504822 0.506195 0.135986
0.533905 0.509155 0.134979
0.563354 0.509338 0.127960
0.591400 0.509033 0.120758
0.616364 0.508270 0.115967
0.642456 0.509155 0.113434
0.667786 0.510742 0.110260
0.691193 0.512787 0.108978
0.712708 0.514221 0.108276
0.732574 0.517334 0.110596
0.752411 0.520386 0.113312
0.771057 0.522430 0.115234
0.788330 0.525513 0.117218
0.804932 0.529114 0.120911
0.819458 0.533264 0.128418
0.833252 0.537109 0.136261
0.846649 0.542114 0.147156
0.858978 0.547729 0.159149
0.869812 0.553589 0.173370
0.879913 0.560852 0.192352
0.108704 0.472534 0.172852
0.139160 0.477631 0.170929
0.174316 0.482452 0.168152
0.215088 0.486755 0.162720
0.251892 0.491486 0.157867
0.286469 0.496246 0.153503
0.321655 0.501770 0.151306
0.356049 0.506958 0.148956
0.389343 0.512360 0.148071
0.421387 0.517242 0.146729
0.452759 0.521637 0.143677
0.483185 0.525757 0.143127
0.514404 0.529327 0.140656
0.544922 0.531586 0.136078
0.576141 0.531769 0.126801
0.601013 0.531921 0.121399
0.625092 0.531311 0.115570
0.647888 0.530304 0.112457
0.671936 0.531647 0.111664
0.695129 0.533630 0.111023
0.716888 0.535187 0.111481
0.737274 0.537018 0.111908
0.756897 0.539886 0.114655
0.775146 0.542419 0.117004
0.792908 0.546082 0.119934
0.808228 0.549744 0.126678
0.822174 0.553986 0.135742
0.836090 0.558228 0.144928
0.849152 0.563507 0.157410
0.860901 0.568939 0.170837
0.871124 0.575928 0.189545
0.881317 0.583069 0.208771
0.121643 0.501251 0.191101
0.150604 0.505432 0.188446
0.187439 0.508911 0.183899
0.228180 0.512329 0.177216
0.265198 0.516083 0.170349
0.300171 0.520050 0.164185
0.333374 0.524078 0.158875
0.366974 0.529083 0.156067
0.398529 0.533722 0.153442
0.429810 0.538330 0.151733
0.460663 0.542542 0.149200
0.490875 0.547180 0.147369
0.521729 0.550446 0.144104
0.554840 0.551941 0.136780
0.585999 0.552185 0.125793
0.610870 0.552612 0.119232
0.633850 0.552460 0.114197
0.656036 0.551849 0.110260
0.676788 0.551849 0.110840
0.699188 0.553314 0.111755
0.720886 0.555023 0.113098
0.741425 0.556885 0.113647
0.760986 0.559265 0.116028
0.779327 0.561859 0.118835
0.796387 0.565369 0.124664
0.811401 0.569611 0.132446
0.825104 0.574493 0.142944
0.838257 0.579193 0.154419
0.850922 0.584717 0.168945
0.862091 0.591553 0.187317
0.872070 0.598816 0.207458
0.882263 0.606171 0.227142
0.130157 0.524933 0.204834
0.157867 0.528778 0.202789
0.196472 0.532196 0.197083
0.240631 0.535614 0.190155
0.276123 0.539032 0.183167
0.311493 0.542419 0.175751
0.344238 0.546112 0.169037
0.376740 0.549500 0.162048
0.407837 0.553650 0.158752
0.438080 0.557526 0.154968
0.468689 0.561615 0.152039
0.499542 0.565857 0.149353
0.530396 0.569275 0.145905
0.566650 0.570801 0.134979
0.596191 0.571991 0.124542
0.620514 0.573364 0.117371
0.642395 0.573456 0.113281
0.663696 0.573090 0.110291
0.684448 0.573090 0.110718
0.703430 0.573456 0.112793
0.724731 0.575165 0.114410
0.745392 0.576660 0.115326
0.765076 0.578583 0.117218
0.782959 0.581665 0.121948
0.799805 0.585144 0.128784
0.814514 0.589233 0.137329
0.827667 0.594788 0.150452
0.840546 0.599976 0.164124
0.852264 0.606079 0.182312
0.862640 0.613617 0.204102
0.872650 0.621277 0.224945
0.882843 0.628510 0.244446
0.135437 0.546875 0.218292
0.160828 0.550842 0.217133
0.199219 0.554321 0.213287
0.243683 0.557770 0.207367
0.284271 0.561462 0.198700
0.319397 0.564697 0.190887
0.353973 0.567780 0.181427
0.385681 0.570374 0.173462
0.416321 0.572754 0.164978
0.446381 0.576538 0.159821
0.476929 0.580444 0.155060
0.507782 0.584473 0.152252
0.543121 0.587402 0.143005
0.579803 0.589996 0.131104
0.607361 0.591522 0.121796
0.630737 0.593384 0.115997
0.651337 0.594543 0.113586
0.671875 0.594757 0.111786
0.691956 0.594543 0.110657
0.710632 0.594238 0.112152
0.729156 0.594360 0.114014
0.749268 0.596069 0.116638
0.768677 0.598145 0.119171
0.785950 0.601440 0.125519
0.802460 0.604736 0.132751
0.816620 0.608795 0.142609
0.829956 0.614105 0.156799
0.842560 0.620087 0.172974
0.853485 0.627441 0.195618
0.863708 0.634796 0.217804
0.873322 0.642242 0.239777
0.883728 0.649200 0.259705
0.141907 0.568390 0.230225
0.164246 0.572357 0.232086
0.201294 0.576080 0.229034
0.241333 0.580322 0.225403
0.284424 0.583771 0.217072
0.324951 0.586945 0.208099
0.360016 0.589478 0.198181
0.394348 0.591766 0.187073
0.424988 0.594391 0.178284
0.456940 0.596344 0.166168
0.487305 0.599731 0.160034
0.517853 0.602936 0.154114
0.557892 0.605469 0.139313
0.590576 0.608002 0.127472
0.618622 0.610535 0.118500
0.640656 0.612854 0.115143
0.661224 0.614746 0.113098
0.680725 0.615631 0.111267
0.699982 0.615356 0.111389
0.718201 0.615021 0.112671
0.735840 0.614777 0.114441
0.753296 0.615143 0.116791
0.772095 0.617737 0.122345
0.789001 0.620850 0.129211
0.805023 0.624390 0.137817
0.818939 0.628815 0.149475
0.831696 0.633606 0.164398
0.843384 0.640289 0.185211
0.853943 0.647858 0.208466
0.864288 0.655396 0.230988
0.873901 0.662872 0.254028
0.884369 0.669647 0.274017
0.148254 0.590027 0.242218
0.170990 0.593872 0.244110
0.197693 0.597778 0.244995
0.236572 0.601807 0.241882
0.283997 0.605286 0.235962
0.324615 0.608276 0.227203
0.364288 0.611267 0.216949
0.399323 0.613617 0.205902
0.434265 0.616028 0.193787
0.468323 0.618225 0.180298
0.499390 0.619751 0.166016
0.534149 0.622253 0.154633
0.571869 0.624054 0.138489
0.601074 0.626740 0.129486
0.627869 0.629700 0.120361
0.651215 0.632507 0.114746
0.671631 0.634430 0.113739
0.690094 0.635437 0.112793
0.707947 0.635681 0.113190
0.725311 0.635986 0.114349
0.742432 0.636078 0.117737
0.758789 0.636597 0.121521
0.774719 0.638092 0.126373
0.791840 0.640808 0.134460
0.807220 0.644775 0.144562
0.820618 0.649200 0.158478
0.832672 0.655090 0.178375
0.843811 0.661652 0.200775
0.854004 0.669037 0.224884
0.864441 0.676483 0.247040
0.874359 0.683838 0.269073
0.885468 0.690125 0.286163
0.156006 0.610687 0.252045
0.175629 0.614838 0.255310
0.200500 0.618652 0.256653
0.235779 0.622955 0.256683
0.281158 0.626740 0.252747
0.327118 0.630432 0.245148
0.368317 0.633881 0.236176
0.408966 0.636841 0.224518
0.445618 0.639404 0.211853
0.481750 0.641327 0.195831
0.512848 0.642090 0.178925
0.551392 0.642303 0.154724
0.583893 0.643951 0.139618
0.611908 0.646393 0.128723
0.637695 0.648987 0.120270
0.661194 0.652130 0.115448
0.681732 0.654419 0.114471
0.699280 0.655975 0.115814
0.715851 0.656952 0.116760
0.732605 0.657593 0.118958
0.749023 0.658356 0.122467
0.765015 0.658783 0.126312
0.780121 0.659607 0.132782
0.794861 0.661835 0.141602
0.808472 0.665894 0.154480
0.821167 0.671295 0.173523
0.832550 0.677887 0.196594
0.843933 0.684540 0.218842
0.853973 0.692047 0.243561
0.864532 0.699402 0.266418
0.875519 0.706024 0.285187
0.886871 0.712036 0.300568
0.162659 0.631927 0.262390
0.182526 0.636230 0.265503
0.206940 0.640228 0.267792
0.243073 0.644409 0.268280
0.284698 0.648804 0.267120
0.331696 0.652985 0.260651
0.376099 0.657227 0.253601
0.419708 0.660767 0.243073
0.459015 0.663574 0.230499
0.495453 0.665039 0.214020
0.531555 0.664215 0.186371
0.566833 0.663574 0.160492
0.597412 0.663818 0.140045
0.624298 0.666779 0.128357
0.648224 0.669403 0.121918
0.669952 0.671814 0.118958
0.690399 0.674500 0.118378
0.707916 0.676575 0.119690
0.724426 0.677856 0.120911
0.740112 0.678894 0.123474
0.755615 0.679932 0.127319
0.770721 0.680878 0.131897
0.785309 0.681885 0.138855
0.797546 0.684265 0.152100
0.809235 0.688232 0.170471
0.821045 0.694794 0.194275
0.832367 0.701569 0.218384
0.844055 0.708160 0.239532
0.854034 0.715881 0.265045
0.864929 0.722748 0.286163
0.876373 0.728760 0.302429
0.888428 0.734497 0.316528
0.172211 0.655792 0.274811
0.193115 0.659637 0.277985
0.220398 0.663269 0.280426
0.255768 0.667572 0.281342
0.294891 0.672333 0.281128
0.341980 0.676483 0.276276
0.387085 0.680542 0.269257
0.432678 0.684937 0.259888
0.472443 0.687592 0.247375
0.511078 0.688141 0.228058
0.548798 0.686646 0.197784
0.579956 0.685699 0.171082
0.609375 0.686188 0.149261
0.636047 0.688232 0.133423
0.658539 0.690582 0.128326
0.679626 0.692413 0.124268
0.698486 0.694885 0.123108
0.716156 0.696930 0.124054
0.733032 0.698639 0.126007
0.748718 0.699982 0.128937
0.763184 0.701538 0.132996
0.777100 0.702728 0.139862
0.788696 0.705444 0.153503
0.799408 0.709137 0.172089
0.809662 0.714020 0.194611
0.820862 0.719299 0.217407
0.831726 0.725983 0.242584
0.843536 0.732330 0.264679
0.854401 0.739044 0.286804
0.866394 0.744904 0.303619
0.878113 0.750305 0.318665
0.890228 0.755615 0.331757
0.183075 0.679169 0.287506
0.207092 0.683044 0.290558
0.235199 0.686859 0.292938
0.271149 0.691711 0.293854
0.313385 0.696289 0.293030
0.361786 0.700226 0.288300
0.403137 0.703918 0.281647
0.445312 0.707642 0.273499
0.485596 0.710754 0.261810
0.527679 0.711090 0.239624
0.559662 0.710205 0.217987
0.589783 0.709595 0.192047
0.619141 0.709290 0.164276
0.645813 0.709930 0.142151
0.668213 0.711212 0.133179
0.688110 0.712708 0.129700
