assets/resources/wfx_effect/material/CubeLUTFiles/Batman.CUBE
#Created by: Adobe Photoshop Export Color Lookup Plugin
#Copyright: (C) Copyright 2016 Wondershare Inc.
TITLE "Batman"
#LUT size
LUT_3D_SIZE 32
#data domain
DOMAIN_MIN 0.0 0.0 0.0
DOMAIN_MAX 1.0 1.0 1.0
#LUT data points
0.006134 0.011078 0.013947
0.022156 0.012695 0.014099
0.043518 0.015137 0.014130
0.067566 0.018646 0.014221
0.090088 0.022461 0.014557
0.113281 0.026428 0.015472
0.135681 0.030243 0.016724
0.158691 0.034149 0.015320
0.183289 0.037903 0.012970
0.207001 0.041168 0.010254
0.232391 0.044617 0.008087
0.258331 0.048828 0.008331
0.285797 0.054260 0.009735
0.313019 0.059601 0.010925
0.340027 0.063965 0.011230
0.368591 0.068939 0.011658
0.397919 0.073822 0.013916
0.425812 0.078857 0.017975
0.454590 0.083954 0.021820
0.482452 0.089203 0.025909
0.511841 0.095306 0.031738
0.538910 0.099945 0.035156
0.567230 0.103943 0.036499
0.594604 0.108490 0.037048
0.621460 0.112640 0.038849
0.647552 0.117462 0.042175
0.672577 0.121613 0.043884
0.696869 0.124939 0.042969
0.719971 0.127991 0.041626
0.742584 0.132202 0.042969
0.762329 0.135925 0.045197
0.782928 0.139557 0.046478
0.009216 0.028168 0.018799
0.018494 0.028687 0.018921
0.036224 0.034332 0.019501
0.061981 0.039246 0.017609
0.087097 0.041840 0.015289
0.114014 0.045593 0.014252
0.136810 0.048492 0.014496
0.160431 0.052002 0.013519
0.184601 0.055511 0.011658
0.208069 0.059235 0.009064
0.234131 0.062683 0.007050
0.260742 0.067200 0.007050
0.288971 0.071747 0.007294
0.316528 0.076416 0.008545
0.343842 0.080627 0.009338
0.373077 0.086029 0.010193
0.402527 0.091248 0.013245
0.430084 0.096130 0.017273
0.458649 0.101349 0.021362
0.486633 0.107025 0.025879
0.515930 0.113007 0.031281
0.542847 0.117767 0.033844
0.570984 0.122437 0.035797
0.598267 0.127258 0.036346
0.625458 0.131073 0.037445
0.651703 0.135559 0.039764
0.676544 0.140106 0.041504
0.700531 0.143707 0.041534
0.723572 0.147308 0.041046
0.746124 0.151215 0.042786
0.766022 0.154846 0.045074
0.786224 0.158997 0.047241
0.011963 0.046021 0.023071
0.021362 0.046326 0.023315
0.032013 0.046722 0.023499
0.050598 0.052765 0.025665
0.075958 0.058746 0.023132
0.102600 0.064117 0.021423
0.128296 0.068878 0.019440
0.153900 0.071747 0.015778
0.180206 0.074554 0.013031
0.205627 0.077698 0.009674
0.233612 0.080597 0.007690
0.262207 0.085602 0.007568
0.290863 0.090729 0.007507
0.319641 0.094696 0.008057
0.347809 0.098724 0.008118
0.377899 0.103455 0.008636
0.407593 0.108398 0.012054
0.435394 0.113770 0.016357
0.464355 0.119080 0.021149
0.493134 0.124756 0.023621
0.522583 0.130310 0.028137
0.549347 0.135132 0.030487
0.577057 0.140076 0.033081
0.604034 0.144867 0.033997
0.630676 0.149200 0.035461
0.656464 0.152954 0.036865
0.681183 0.157379 0.038391
0.705139 0.161682 0.039368
0.727570 0.165863 0.040680
0.749969 0.169037 0.042145
0.769928 0.173248 0.044037
0.789032 0.177063 0.045654
0.014587 0.064545 0.027435
0.024200 0.065216 0.027679
0.035187 0.065491 0.027832
0.046906 0.066071 0.027985
0.064972 0.070557 0.029877
0.090790 0.077148 0.029205
0.116699 0.083344 0.027283
0.144501 0.088196 0.022644
0.172058 0.092712 0.017120
0.197296 0.097046 0.013794
0.223450 0.101868 0.011932
0.253326 0.107178 0.012085
0.283783 0.112183 0.011505
0.316132 0.117065 0.010773
0.346588 0.121216 0.009857
0.378326 0.124756 0.007568
0.412323 0.129089 0.008270
0.442688 0.134277 0.012878
0.472565 0.139038 0.018311
0.501831 0.144135 0.020508
0.531525 0.149475 0.022980
0.557892 0.154022 0.025635
0.585388 0.158752 0.028503
0.612000 0.163330 0.030853
0.638367 0.167633 0.032684
0.663727 0.170868 0.034393
0.688049 0.176025 0.035278
0.711334 0.179871 0.036560
0.733215 0.183807 0.037689
0.755646 0.188110 0.038879
0.775208 0.191895 0.040833
0.792694 0.196106 0.042145
0.016632 0.083313 0.031494
0.026062 0.084076 0.031830
0.036865 0.084412 0.031830
0.048706 0.084564 0.031738
0.061890 0.085052 0.031464
0.083130 0.089020 0.032928
0.105469 0.094025 0.034088
0.134033 0.100586 0.030182
0.164032 0.107208 0.023834
0.190552 0.111969 0.017059
0.216431 0.118011 0.016052
0.245544 0.124573 0.016052
0.277252 0.131348 0.015839
0.309662 0.136932 0.014832
0.339233 0.141388 0.013977
0.371338 0.146362 0.011047
0.406433 0.150391 0.007812
0.437714 0.155182 0.009430
0.471497 0.159515 0.014557
0.504608 0.163971 0.016083
0.536316 0.168457 0.018646
0.565369 0.173492 0.021973
0.593292 0.177734 0.025421
0.620026 0.182007 0.028381
0.646729 0.186554 0.030182
0.671753 0.189941 0.031921
0.695465 0.194855 0.032593
0.718658 0.198486 0.033569
0.739227 0.201691 0.035004
0.761414 0.206665 0.035858
0.780670 0.209625 0.037384
0.796356 0.213776 0.038116
0.019440 0.101776 0.034241
0.029266 0.102417 0.034271
0.039978 0.102722 0.034515
0.051422 0.102966 0.034698
0.064087 0.103180 0.034943
0.078857 0.103333 0.034424
0.101929 0.107056 0.035645
0.123230 0.110840 0.036255
0.151917 0.119049 0.032166
0.181641 0.124939 0.024719
0.209808 0.132233 0.020477
0.238281 0.139008 0.019989
0.270966 0.147034 0.019653
0.303497 0.153992 0.018738
0.333466 0.159149 0.018005
0.365326 0.164001 0.015289
0.401184 0.169464 0.011261
0.432190 0.173553 0.011261
0.465851 0.178253 0.013519
0.499603 0.183441 0.016785
0.534851 0.189545 0.018036
0.563599 0.193481 0.019470
0.593353 0.197968 0.022461
0.622192 0.203186 0.025818
0.649628 0.208130 0.028656
0.677063 0.212250 0.030060
0.700806 0.215210 0.029907
0.725891 0.219238 0.030518
0.746918 0.222351 0.031464
0.768280 0.227234 0.032532
0.785370 0.230621 0.033478
0.800201 0.234314 0.034210
0.022614 0.120422 0.036987
0.032288 0.121124 0.037048
0.042786 0.121338 0.037201
0.053986 0.121552 0.037384
0.067108 0.121552 0.037567
0.081085 0.121887 0.038086
0.097534 0.122192 0.037537
0.121857 0.125488 0.036163
0.145081 0.130585 0.037567
0.171478 0.136322 0.032776
0.201904 0.144470 0.026367
0.230438 0.152161 0.024841
0.264130 0.161346 0.023743
0.297089 0.168030 0.022583
0.328156 0.174683 0.021179
0.362152 0.180756 0.018768
0.396179 0.185913 0.015045
0.430695 0.190643 0.014374
0.463745 0.196289 0.016083
0.497467 0.202179 0.018921
0.531799 0.207672 0.020233
0.562317 0.212555 0.021332
0.592041 0.217377 0.022156
0.622192 0.223419 0.023773
0.650024 0.228180 0.026978
0.677521 0.233551 0.028687
0.702759 0.237366 0.029572
0.725830 0.241913 0.029968
0.748901 0.246429 0.029999
0.769989 0.250549 0.029938
0.787109 0.254364 0.030762
0.802795 0.257568 0.031189
0.024658 0.138550 0.039825
0.034271 0.139313 0.039734
0.044373 0.139404 0.039886
0.055603 0.139465 0.039978
0.068542 0.139618 0.040161
0.083221 0.140045 0.040771
0.098816 0.140686 0.041718
0.117584 0.140747 0.038940
0.143982 0.145203 0.036285
0.165894 0.149170 0.036865
0.191498 0.154449 0.033447
0.220734 0.162781 0.030548
0.255737 0.173157 0.028748
0.288330 0.181366 0.027283
0.319763 0.188171 0.025024
0.356476 0.195526 0.022736
0.391357 0.200867 0.019287
0.425995 0.206818 0.017395
0.461670 0.213348 0.019257
0.495178 0.219452 0.021545
0.529633 0.225372 0.023071
0.559692 0.230743 0.024139
0.591003 0.235870 0.024353
0.621216 0.241089 0.025238
0.650085 0.247314 0.028717
0.676056 0.252563 0.030243
0.701569 0.257965 0.031311
0.725616 0.262848 0.031982
0.747620 0.268524 0.032043
0.770599 0.273407 0.030762
0.786865 0.277618 0.029724
0.803131 0.282410 0.029602
0.026733 0.157959 0.042816
0.036560 0.158966 0.042511
0.046967 0.159058 0.042450
0.057831 0.158966 0.042328
0.070831 0.159271 0.042603
0.085205 0.159851 0.043304
0.101257 0.159790 0.044495
0.118347 0.160645 0.044464
0.140717 0.161041 0.037537
0.165161 0.164246 0.035797
0.189514 0.168427 0.035248
0.214600 0.174072 0.034851
0.245178 0.183075 0.034058
0.278748 0.193329 0.032440
0.310883 0.200928 0.029663
0.348999 0.208771 0.026917
0.387177 0.216095 0.022461
0.421356 0.221497 0.020508
0.457825 0.228180 0.022888
0.493134 0.236450 0.024445
0.528381 0.243591 0.025543
0.559692 0.249207 0.026031
0.590271 0.254761 0.026917
0.621277 0.260651 0.027405
0.649567 0.266296 0.031464
0.676392 0.271423 0.032532
0.701416 0.277008 0.033844
0.724792 0.282166 0.035065
0.747253 0.288116 0.036072
0.769653 0.294830 0.034424
0.785492 0.299072 0.032715
0.802460 0.305908 0.031830
0.028320 0.176056 0.045410
0.038025 0.177338 0.044830
0.048523 0.177429 0.044708
0.059570 0.177490 0.044342
0.071838 0.177887 0.044556
0.086060 0.178619 0.045319
0.101074 0.178528 0.046631
0.119080 0.178558 0.047516
0.139282 0.180420 0.044983
0.163330 0.179840 0.034668
0.188293 0.183655 0.035980
0.212952 0.188171 0.036469
0.238861 0.194366 0.036865
0.268982 0.202759 0.037048
0.303223 0.212738 0.034363
0.340729 0.220795 0.030518
0.378754 0.228271 0.026428
0.416321 0.235291 0.023529
0.456360 0.244324 0.025208
0.489868 0.251221 0.027008
0.525970 0.258759 0.027130
0.557617 0.265289 0.027802
0.590088 0.271790 0.028961
0.619934 0.277344 0.029114
0.647980 0.283691 0.033630
0.674957 0.289551 0.036346
0.700623 0.295013 0.035889
0.724640 0.301056 0.035248
0.747864 0.306946 0.036041
0.769318 0.315094 0.037842
0.785004 0.321350 0.036469
0.801575 0.327057 0.034729
0.029663 0.194061 0.048035
0.039124 0.195435 0.047150
0.049469 0.195404 0.046661
0.060608 0.195709 0.046509
0.072662 0.196533 0.046906
0.086334 0.197205 0.047668
0.101440 0.197052 0.049194
0.119751 0.196991 0.050201
0.141144 0.198303 0.048340
0.163452 0.199982 0.042664
0.187439 0.199432 0.035980
0.211548 0.203125 0.038086
0.237366 0.208496 0.038422
0.265350 0.215240 0.038757
0.293427 0.222443 0.038971
0.330414 0.231842 0.035248
0.371674 0.241150 0.031281
0.409607 0.248688 0.027130
0.450134 0.256958 0.026581
0.486145 0.264984 0.029572
0.523224 0.274109 0.029419
0.555511 0.281128 0.029266
0.586792 0.287079 0.030487
0.617798 0.293427 0.031891
0.646118 0.300720 0.035126
0.672363 0.306458 0.037079
0.698517 0.312775 0.036316
0.723358 0.319458 0.035278
0.747253 0.325989 0.034973
0.767944 0.332886 0.036194
0.784119 0.339600 0.036865
0.800079 0.346436 0.037659
0.030945 0.212189 0.050659
0.040619 0.213867 0.049591
0.050995 0.214081 0.048889
0.062134 0.214569 0.048767
0.074371 0.215485 0.049255
0.087219 0.215942 0.049805
0.101593 0.215668 0.051178
0.118530 0.215820 0.052887
0.142548 0.216858 0.050629
0.166290 0.218872 0.044556
0.188568 0.220367 0.039398
0.210785 0.219147 0.038574
0.235748 0.223511 0.039825
0.264221 0.229584 0.040253
0.292358 0.236420 0.039886
0.323273 0.243652 0.038025
0.359955 0.251617 0.034485
0.399963 0.259979 0.032074
0.441956 0.269867 0.029724
0.480560 0.279144 0.032104
0.518768 0.287781 0.031555
0.552429 0.295074 0.031433
0.585693 0.303345 0.032745
0.615692 0.309540 0.033142
0.644104 0.316742 0.035248
0.671234 0.323517 0.037140
0.697205 0.330261 0.037079
0.721924 0.337158 0.035614
0.745819 0.344574 0.034271
0.766724 0.352142 0.036133
0.783112 0.359192 0.036682
0.799500 0.366791 0.036896
0.032410 0.229858 0.053558
0.042145 0.231903 0.052032
0.052795 0.232758 0.051025
0.064178 0.233459 0.051147
0.076538 0.234467 0.051727
0.089478 0.234589 0.052399
0.102875 0.234222 0.053406
0.119080 0.234497 0.054993
0.142242 0.235535 0.053986
0.170349 0.237976 0.045746
0.193024 0.239563 0.040771
0.212738 0.240356 0.040833
0.235016 0.239624 0.040527
0.263275 0.244904 0.041351
0.290894 0.251617 0.041138
0.322815 0.258514 0.037720
0.355011 0.265167 0.035858
0.386566 0.271271 0.036316
0.429596 0.280426 0.033722
0.470398 0.290192 0.034698
0.510559 0.301208 0.036469
0.545410 0.309967 0.036652
0.581024 0.318604 0.036224
0.611786 0.325806 0.035400
0.640991 0.333282 0.036194
0.668518 0.341003 0.037567
0.695312 0.348022 0.038269
0.719727 0.354706 0.035919
0.742188 0.361237 0.035278
0.765350 0.370697 0.035217
0.781830 0.378693 0.035187
0.798279 0.386169 0.035645
0.034210 0.248413 0.056458
0.044586 0.250732 0.054291
0.055359 0.252106 0.052429
0.067139 0.252594 0.053284
0.079773 0.253662 0.054077
0.093445 0.254028 0.055176
0.107300 0.253967 0.056366
0.121155 0.254272 0.057190
0.140320 0.254913 0.058197
0.168945 0.257538 0.049988
0.196777 0.259949 0.042877
0.216888 0.261932 0.043121
0.237885 0.262604 0.042999
0.262634 0.262115 0.041992
0.290131 0.267914 0.042145
0.322235 0.274506 0.038574
0.354919 0.281372 0.035065
0.386993 0.286255 0.035553
0.420898 0.292908 0.036835
0.457886 0.301605 0.036743
0.500610 0.313324 0.039673
0.537659 0.322784 0.041229
0.572815 0.331757 0.041229
0.606628 0.339996 0.037384
0.637299 0.347565 0.036835
0.665009 0.356201 0.038422
0.691650 0.364197 0.038971
0.717163 0.371338 0.037781
0.741211 0.379242 0.036804
0.764221 0.389679 0.036591
0.779907 0.396332 0.036469
0.796906 0.404938 0.035858
0.036560 0.267090 0.059540
0.047211 0.269470 0.055847
0.057800 0.271057 0.052917
0.069672 0.271790 0.054108
0.083130 0.272766 0.055603
0.097412 0.273193 0.057709
0.112000 0.273834 0.059204
0.125946 0.274445 0.059906
0.139465 0.275024 0.060608
0.165710 0.277069 0.055878
0.198059 0.280579 0.045532
0.220764 0.282532 0.045166
0.243774 0.285370 0.044739
0.265472 0.285278 0.044006
0.289795 0.285004 0.042847
0.321625 0.291290 0.039612
0.355011 0.297791 0.034698
0.387695 0.302429 0.034973
0.422302 0.309143 0.036316
0.455444 0.316467 0.038574
0.489990 0.324768 0.041901
0.528564 0.335388 0.045044
0.566620 0.345215 0.045013
0.600250 0.353210 0.041901
0.633301 0.362305 0.038422
0.661377 0.370941 0.039062
0.688995 0.379883 0.039001
0.715332 0.388397 0.038635
0.739624 0.397430 0.038239
0.762634 0.407013 0.037445
0.778748 0.414398 0.037201
0.795135 0.422058 0.036682
0.038544 0.285553 0.062286
0.049408 0.287811 0.058014
0.060028 0.289795 0.054443
0.072571 0.290710 0.054993
0.086487 0.291809 0.056793
0.101715 0.292328 0.060272
0.116608 0.293243 0.061890
0.130829 0.294006 0.063019
0.144287 0.294678 0.063782
0.163696 0.297058 0.061462
0.197144 0.301086 0.049957
0.226471 0.303833 0.046753
0.249115 0.306519 0.046082
0.272430 0.309265 0.044891
0.293915 0.308441 0.044189
0.321442 0.308655 0.040558
0.354797 0.315063 0.036438
0.388702 0.320496 0.034882
0.422943 0.326477 0.036133
0.455688 0.333435 0.039062
0.488953 0.341278 0.043610
0.519684 0.348175 0.047974
0.553375 0.355774 0.048492
0.590057 0.365936 0.046478
0.625000 0.376068 0.042969
0.657288 0.385986 0.039948
0.685150 0.394714 0.039764
0.711792 0.404297 0.039429
0.736633 0.413422 0.039368
0.759491 0.422974 0.038879
0.777039 0.432098 0.039215
0.793945 0.439758 0.039337
0.040344 0.304413 0.064575
0.051147 0.307098 0.059326
0.061646 0.309204 0.056854
0.074219 0.310699 0.056854
0.088348 0.311554 0.058807
0.104309 0.312317 0.062653
0.120178 0.313232 0.065155
0.134552 0.314087 0.066345
0.147919 0.314880 0.067566
0.164276 0.317474 0.065826
0.196075 0.322021 0.055847
0.229431 0.325470 0.048431
0.255676 0.328125 0.046906
0.278625 0.331451 0.045502
0.302002 0.333710 0.044189
0.326385 0.333405 0.042664
0.355438 0.333557 0.037415
0.388733 0.338623 0.035828
0.423126 0.344971 0.036438
0.456512 0.351227 0.039642
0.489410 0.358673 0.044708
0.520294 0.365143 0.048553
0.549744 0.371521 0.050323
0.581024 0.379181 0.051544
0.615448 0.389679 0.047913
0.649689 0.400146 0.043976
0.680298 0.409241 0.041229
0.708099 0.418457 0.040955
0.732788 0.428040 0.040680
0.757874 0.439545 0.041748
0.776306 0.450287 0.043823
0.793060 0.458252 0.043793
0.042114 0.322876 0.065613
0.052551 0.325989 0.059265
0.063721 0.327850 0.058472
0.075958 0.329437 0.059235
0.090393 0.330261 0.061249
0.106140 0.330994 0.064667
0.122101 0.332031 0.067902
0.137177 0.333099 0.069366
0.150848 0.334045 0.070251
0.166626 0.336578 0.069794
0.192871 0.341705 0.062134
0.229004 0.346008 0.051086
0.260132 0.349731 0.047028
0.283508 0.352325 0.045441
0.309021 0.356140 0.043854
0.332733 0.357666 0.042358
0.358490 0.356506 0.039551
0.388092 0.356506 0.037231
0.422760 0.363525 0.038086
0.456726 0.370056 0.041565
0.489929 0.377045 0.046295
0.521301 0.383423 0.049042
0.550629 0.389648 0.050964
0.580627 0.397125 0.052765
0.608124 0.403839 0.052277
0.641846 0.414124 0.049286
0.673828 0.423920 0.045685
0.703033 0.433289 0.044159
0.729980 0.443237 0.044006
0.755371 0.455261 0.045044
0.774567 0.465820 0.046997
0.791840 0.475311 0.048645
0.044403 0.342926 0.065216
0.055237 0.345459 0.061615
0.066864 0.346954 0.061249
0.079041 0.348419 0.062012
0.092743 0.349396 0.064941
0.108551 0.350433 0.068298
0.124359 0.351746 0.071167
0.139984 0.352997 0.072693
0.155243 0.354431 0.073364
0.171417 0.357178 0.072998
0.193817 0.362030 0.068726
0.229889 0.367432 0.056976
0.264221 0.372223 0.047882
0.291565 0.375275 0.046173
0.315826 0.378510 0.045288
0.342926 0.382935 0.044067
0.365723 0.383362 0.043091
0.392273 0.382324 0.041931
0.421906 0.382172 0.041382
0.456055 0.389526 0.045044
0.489777 0.396332 0.048248
0.521454 0.402374 0.050171
0.551666 0.408051 0.051880
0.581421 0.415619 0.053192
0.608948 0.421722 0.053070
0.637543 0.430023 0.053253
0.665619 0.437592 0.051361
0.695862 0.448517 0.049103
0.724213 0.457672 0.047699
0.752472 0.470398 0.049469
0.770874 0.479889 0.051147
0.789398 0.490692 0.052734
0.047119 0.363586 0.065857
0.058594 0.365021 0.065094
0.070526 0.366516 0.064728
0.082611 0.367889 0.065430
0.096344 0.368958 0.068909
0.112701 0.370331 0.072235
0.128662 0.371826 0.075043
0.144440 0.373230 0.076599
0.159180 0.375305 0.076935
0.174683 0.378387 0.076477
0.193298 0.383026 0.073792
0.229492 0.389435 0.065277
0.268311 0.394470 0.049896
0.299316 0.398315 0.047577
0.323944 0.401611 0.047516
0.350006 0.406219 0.047424
0.376099 0.410217 0.048462
0.398712 0.410278 0.048370
0.425232 0.409241 0.048065
0.455444 0.408966 0.047668
0.488464 0.415497 0.049927
0.521118 0.421387 0.051208
0.551788 0.426910 0.052307
0.581787 0.434814 0.054077
0.609589 0.440765 0.053925
0.638275 0.448975 0.053986
0.664795 0.455933 0.053802
0.690704 0.463501 0.053375
0.718597 0.472595 0.050659
0.747467 0.484619 0.051300
0.767944 0.493805 0.054108
0.786896 0.505127 0.055695
0.050964 0.383850 0.069244
0.063110 0.384766 0.068848
0.074951 0.386230 0.068420
0.087280 0.387482 0.069427
0.101227 0.388489 0.072571
0.117554 0.390137 0.075989
0.133453 0.391815 0.079010
0.149384 0.393341 0.080719
0.164124 0.396118 0.080627
0.178192 0.399384 0.080017
0.195312 0.403809 0.077698
0.227661 0.410706 0.070099
0.270538 0.416748 0.055756
0.304382 0.421417 0.050293
0.332703 0.425812 0.051086
0.355988 0.428802 0.051544
0.383331 0.434357 0.052765
0.408630 0.437897 0.052979
0.430634 0.437378 0.052338
0.458435 0.436340 0.052216
0.488403 0.435913 0.051514
0.519287 0.440887 0.053070
0.551270 0.446686 0.053253
0.582275 0.455109 0.055145
0.610626 0.461792 0.054810
0.639526 0.469666 0.055206
0.665710 0.475891 0.054962
0.692261 0.483398 0.054382
0.716064 0.489471 0.053864
0.741669 0.498016 0.054352
0.765503 0.508270 0.055908
0.784058 0.519196 0.056976
0.054504 0.402313 0.072418
0.066681 0.403381 0.071991
0.079254 0.404846 0.071411
0.091736 0.406006 0.072937
0.106293 0.407227 0.076080
0.122345 0.408936 0.079468
0.137177 0.410828 0.082458
0.152710 0.412781 0.084015
0.167267 0.416229 0.083740
0.181274 0.419647 0.082855
0.196655 0.423767 0.080597
0.223572 0.430206 0.074402
0.267761 0.437897 0.063202
0.306519 0.443481 0.054199
0.337799 0.448883 0.055573
0.363525 0.452606 0.055756
0.387817 0.456390 0.056091
0.416199 0.463348 0.056091
0.440491 0.466217 0.055664
0.462860 0.465332 0.054962
0.489807 0.463715 0.055145
0.519470 0.462921 0.055328
0.549652 0.467804 0.055542
0.581757 0.475616 0.056305
0.610901 0.482269 0.055481
0.640656 0.490387 0.056030
0.667053 0.496521 0.055756
0.693359 0.503723 0.055542
0.717896 0.509521 0.054626
0.741547 0.516602 0.055511
0.763092 0.522705 0.056763
0.782440 0.534485 0.057587
0.058014 0.420715 0.075134
0.070251 0.422119 0.074646
0.082886 0.423737 0.074158
0.096405 0.424805 0.076599
0.111511 0.426331 0.079895
0.126556 0.428070 0.082977
0.141296 0.430237 0.085938
0.156464 0.432861 0.087158
0.171021 0.436615 0.086853
0.185150 0.440247 0.086182
0.200562 0.444519 0.084259
0.223267 0.451294 0.077850
0.264984 0.459381 0.066833
0.307007 0.465698 0.057922
0.340424 0.471680 0.058655
0.369690 0.476532 0.058350
0.394196 0.480164 0.058472
0.419525 0.485626 0.057495
0.447510 0.492371 0.057007
0.471588 0.494354 0.056396
0.493988 0.493408 0.055542
0.520477 0.491821 0.055939
0.549194 0.490295 0.055786
0.580536 0.496735 0.057404
0.609863 0.502991 0.057251
0.639984 0.511200 0.057281
0.667572 0.517334 0.056793
0.694946 0.524872 0.055908
0.719452 0.530334 0.054626
0.743530 0.537872 0.054688
0.763824 0.543304 0.055695
0.780182 0.548889 0.058502
0.060028 0.441345 0.078217
0.072205 0.442810 0.077759
0.085327 0.444153 0.078156
0.100189 0.445801 0.081024
0.116211 0.447754 0.084778
0.130493 0.449768 0.087524
0.144836 0.451904 0.090118
0.160645 0.455078 0.091125
0.175934 0.458618 0.090729
0.189911 0.462097 0.090118
0.206757 0.467377 0.088104
0.229706 0.474152 0.082458
0.261627 0.482178 0.071381
0.306946 0.489655 0.061829
0.343201 0.495789 0.060669
0.374969 0.501251 0.061157
0.402313 0.506317 0.061249
0.425629 0.510162 0.060120
0.452179 0.516174 0.059265
0.480164 0.522644 0.059021
0.504425 0.524750 0.058441
0.526672 0.523621 0.057251
0.552582 0.521851 0.056732
0.580048 0.519775 0.057770
0.608673 0.524719 0.058594
0.638611 0.532166 0.059052
0.667389 0.538849 0.058655
0.695587 0.546021 0.056000
0.720856 0.551575 0.054321
0.745178 0.558655 0.055023
0.764862 0.564087 0.056427
0.781555 0.569427 0.058563
0.062622 0.460693 0.081329
0.075073 0.462067 0.080902
0.088501 0.463623 0.081665
0.103577 0.465515 0.084717
0.119293 0.467743 0.088409
0.133423 0.470184 0.091064
0.147949 0.472534 0.093414
0.164032 0.476074 0.094604
0.179382 0.479675 0.094330
0.194183 0.483154 0.093872
0.212067 0.488831 0.090912
0.233826 0.495056 0.085785
0.258026 0.502106 0.077850
0.303833 0.511475 0.065857
0.343719 0.518372 0.062134
0.377533 0.525024 0.063599
0.407684 0.531097 0.063873
0.433807 0.536041 0.062683
0.457062 0.539642 0.062073
0.483734 0.545685 0.061920
0.511261 0.551971 0.061401
0.535828 0.553986 0.060333
0.558319 0.553009 0.058685
0.582886 0.551117 0.059845
0.609619 0.549500 0.059692
0.639862 0.555603 0.059967
0.666412 0.560394 0.060913
0.694519 0.567657 0.058380
0.720673 0.572998 0.058105
0.745972 0.580048 0.058197
0.765503 0.585052 0.059021
0.782257 0.590149 0.061035
0.064209 0.481049 0.085480
0.078278 0.482544 0.084839
0.092316 0.484192 0.085938
0.107391 0.486267 0.089325
0.123718 0.488678 0.092926
0.137512 0.491455 0.095398
0.152557 0.494690 0.097321
0.168518 0.498413 0.098541
0.183624 0.502258 0.098175
0.198242 0.506012 0.097687
0.217590 0.512115 0.093445
0.239288 0.518555 0.088165
0.262024 0.525787 0.081268
0.300476 0.534332 0.071625
0.345581 0.542542 0.065948
0.381012 0.549835 0.065765
0.412903 0.556458 0.066498
0.443054 0.562622 0.065491
0.467773 0.566742 0.065826
0.490540 0.570068 0.065521
0.516754 0.576263 0.064178
0.544098 0.582550 0.063080
0.567810 0.584595 0.061859
0.589508 0.583832 0.062134
0.613373 0.581726 0.061615
0.639557 0.580017 0.059875
0.667847 0.583466 0.061951
0.694153 0.589569 0.060638
0.720093 0.594971 0.059967
0.746277 0.601532 0.062347
0.766388 0.606140 0.063110
0.782898 0.610474 0.064575
0.066925 0.500793 0.089355
0.081390 0.502350 0.088531
0.094879 0.504028 0.089844
0.109436 0.506195 0.093140
0.125946 0.508850 0.096466
0.139435 0.511871 0.098846
0.155670 0.515869 0.100494
0.171875 0.519745 0.101593
0.186859 0.523682 0.101440
0.201660 0.527557 0.100739
0.222137 0.533691 0.095612
0.243378 0.540985 0.089600
0.265839 0.547882 0.083221
0.294159 0.555267 0.076508
0.343323 0.564301 0.069550
0.382141 0.571716 0.066162
0.415680 0.578949 0.066467
0.447601 0.585938 0.067871
0.475983 0.591553 0.068573
0.499603 0.595459 0.068512
0.521393 0.598541 0.067261
0.547882 0.604828 0.065979
0.574890 0.611389 0.065338
0.597748 0.613037 0.066284
0.618835 0.612427 0.065735
0.642029 0.610352 0.063690
0.667999 0.608765 0.063629
0.696777 0.613464 0.064514
0.720306 0.616974 0.065063
0.746277 0.623047 0.068024
0.766998 0.627441 0.068268
0.783875 0.631622 0.069336
0.072235 0.521698 0.094330
0.086456 0.523315 0.093353
0.099487 0.525269 0.094818
0.112579 0.527435 0.097992
0.128235 0.530273 0.100739
0.142120 0.533356 0.103058
0.159149 0.537781 0.104340
0.175995 0.541779 0.105560
0.191528 0.545868 0.105347
0.208221 0.550568 0.102997
0.228394 0.557098 0.097992
0.249817 0.564423 0.091522
0.272095 0.571289 0.083923
0.298981 0.578400 0.081207
0.339691 0.586761 0.076385
0.384247 0.595184 0.071381
