assets/resources/wfx_effect/material/CubeLUTFiles/Mission Impossible.CUBE
#Created by: Adobe Photoshop Export Color Lookup Plugin
#Copyright: (C) Copyright 2016 Wondershare Inc.
TITLE "Mission Impossible"
#LUT size
LUT_3D_SIZE 32
#data domain
DOMAIN_MIN 0.0 0.0 0.0
DOMAIN_MAX 1.0 1.0 1.0
#LUT data points
0.007507 0.006042 0.013550
0.024811 0.007111 0.015747
0.043152 0.010773 0.016907
0.070526 0.013336 0.016693
0.101501 0.018677 0.018829
0.133026 0.025604 0.024384
0.162506 0.031311 0.029358
0.192810 0.036285 0.033722
0.221405 0.039978 0.036804
0.250397 0.043762 0.040070
0.279205 0.047119 0.043396
0.308533 0.050629 0.046875
0.336792 0.054413 0.051514
0.364777 0.058411 0.056549
0.393494 0.063080 0.062469
0.423676 0.068207 0.068420
0.454254 0.073303 0.074341
0.483978 0.079163 0.079681
0.513458 0.085297 0.084961
0.542664 0.091370 0.090240
0.572662 0.097473 0.095398
0.603271 0.104462 0.100952
0.633942 0.111115 0.105804
0.663666 0.117157 0.110168
0.692963 0.123566 0.114532
0.720978 0.129578 0.118561
0.747375 0.135071 0.121765
0.774841 0.140900 0.125488
0.801392 0.145935 0.128357
0.827484 0.151154 0.131836
0.853149 0.155945 0.135315
0.879242 0.160919 0.139496
0.007935 0.027893 0.013885
0.024597 0.029022 0.014587
0.042450 0.030975 0.015594
0.070251 0.034424 0.015656
0.100525 0.039246 0.018921
0.132111 0.044525 0.023560
0.162292 0.050476 0.028656
0.193085 0.055481 0.032745
0.222412 0.059906 0.036926
0.252808 0.063934 0.039673
0.282013 0.067474 0.042206
0.311279 0.071289 0.045776
0.339966 0.074860 0.049561
0.368774 0.078918 0.054504
0.397034 0.083710 0.061005
0.426025 0.088287 0.067200
0.455688 0.092926 0.073212
0.484589 0.097839 0.078735
0.512909 0.103149 0.083862
0.542542 0.109100 0.089142
0.572174 0.115387 0.094696
0.602112 0.121979 0.100098
0.633759 0.129486 0.105621
0.663635 0.135590 0.109894
0.693268 0.141846 0.114014
0.720886 0.147858 0.118042
0.748566 0.153717 0.122101
0.775177 0.159210 0.125366
0.802124 0.164307 0.128571
0.828644 0.169495 0.131653
0.854797 0.174927 0.135590
0.881622 0.180267 0.140289
0.008881 0.053497 0.014526
0.025360 0.054657 0.015167
0.043121 0.056061 0.015656
0.070862 0.056091 0.015289
0.101685 0.060028 0.016693
0.131653 0.064941 0.021057
0.161926 0.070251 0.026886
0.192139 0.075256 0.030640
0.222351 0.079132 0.034943
0.252838 0.083069 0.038330
0.281952 0.086273 0.040131
0.311951 0.090637 0.043640
0.340881 0.094696 0.047699
0.370361 0.099426 0.052734
0.399963 0.105103 0.059540
0.429291 0.110535 0.065826
0.459229 0.115540 0.071350
0.488831 0.120514 0.077728
0.517792 0.125854 0.083527
0.546265 0.130737 0.088837
0.575409 0.136414 0.094269
0.605804 0.142700 0.099823
0.635803 0.148926 0.104858
0.665619 0.155212 0.109467
0.694397 0.161316 0.113708
0.721863 0.167389 0.117859
0.749725 0.173431 0.122192
0.776154 0.178284 0.125153
0.803314 0.183472 0.128510
0.830872 0.188873 0.132446
0.857330 0.194427 0.136566
0.884094 0.199951 0.141724
0.010529 0.080170 0.015839
0.027161 0.081665 0.017090
0.044312 0.082245 0.015930
0.066315 0.082977 0.016174
0.101410 0.082855 0.016998
0.134399 0.086426 0.020416
0.164886 0.091278 0.024628
0.194672 0.095673 0.028900
0.224121 0.100281 0.032990
0.253265 0.104095 0.035706
0.282227 0.107330 0.038391
0.311188 0.111420 0.041870
0.339783 0.115906 0.045288
0.368286 0.119843 0.049774
0.398987 0.126038 0.056396
0.429504 0.131561 0.063049
0.460236 0.137054 0.069336
0.489410 0.142273 0.074860
0.520111 0.148468 0.081604
0.549927 0.153961 0.087799
0.580750 0.160950 0.094452
0.611481 0.167938 0.100586
0.641052 0.174133 0.105988
0.670624 0.180145 0.110382
0.698822 0.185730 0.114685
0.726349 0.191528 0.119202
0.753021 0.196259 0.122589
0.779907 0.201050 0.126007
0.807190 0.205719 0.129700
0.834503 0.210693 0.134033
0.860931 0.216217 0.138123
0.886932 0.221497 0.143494
0.012146 0.104980 0.018402
0.029114 0.108185 0.020233
0.045837 0.108521 0.018860
0.065765 0.109161 0.018951
0.096588 0.108002 0.021210
0.132965 0.109619 0.020477
0.164856 0.112946 0.023499
0.197144 0.117188 0.026794
0.226196 0.120575 0.030365
0.255920 0.124603 0.034210
0.284485 0.128998 0.037506
0.313141 0.133850 0.040894
0.340881 0.138702 0.044037
0.369507 0.143372 0.048615
0.399750 0.148468 0.053925
0.429199 0.153900 0.059540
0.460175 0.160034 0.065430
0.490662 0.165344 0.071747
0.522400 0.171692 0.078644
0.552704 0.176971 0.084869
0.584778 0.183899 0.092163
0.615936 0.191071 0.098938
0.646332 0.197693 0.104095
0.675903 0.203613 0.108673
0.704376 0.209808 0.113831
0.732147 0.215363 0.118561
0.758850 0.220276 0.122681
0.786774 0.226318 0.126984
0.813965 0.231293 0.131317
0.841003 0.237091 0.135590
0.867584 0.242493 0.140717
0.893280 0.247467 0.146942
0.014008 0.130188 0.021301
0.031006 0.133087 0.022034
0.047577 0.134277 0.021423
0.064789 0.134705 0.021149
0.095245 0.134949 0.022675
0.125763 0.133484 0.024414
0.162537 0.136963 0.024567
0.195770 0.139679 0.027466
0.228302 0.143066 0.029144
0.258148 0.146606 0.032928
0.286774 0.150024 0.035828
0.314484 0.154816 0.039062
0.343445 0.159790 0.043243
0.370789 0.164734 0.047760
0.400330 0.170868 0.052734
0.430084 0.176605 0.058319
0.459534 0.182404 0.063843
0.489014 0.187927 0.069153
0.521759 0.194458 0.076050
0.554169 0.200226 0.082672
0.587158 0.207001 0.088409
0.618774 0.213745 0.095856
0.649200 0.220215 0.101837
0.679230 0.226868 0.106842
0.708649 0.232941 0.112091
0.736664 0.238373 0.116791
0.763794 0.243591 0.121033
0.792786 0.249451 0.125427
0.820404 0.255035 0.130371
0.846893 0.260681 0.135345
0.872253 0.265747 0.141418
0.898407 0.271454 0.147766
0.016205 0.156128 0.024597
0.033020 0.158325 0.024506
0.049835 0.160553 0.024658
0.066437 0.160828 0.024170
0.091644 0.161560 0.024292
0.125031 0.159363 0.026367
0.155273 0.159821 0.027466
0.193573 0.164001 0.028503
0.225220 0.166748 0.030670
0.259491 0.170105 0.031647
0.289032 0.173370 0.035126
0.316132 0.176666 0.038818
0.345673 0.181641 0.043365
0.373718 0.186737 0.047333
0.402161 0.192566 0.052368
0.431946 0.197998 0.057617
0.462280 0.204834 0.063171
0.490753 0.210480 0.068085
0.521942 0.216339 0.074341
0.555176 0.222931 0.081085
0.587708 0.228882 0.087433
0.619659 0.236023 0.092804
0.651306 0.242889 0.099731
0.681458 0.249420 0.104492
0.711365 0.255249 0.109344
0.740845 0.261597 0.114777
0.769318 0.267487 0.119568
0.798279 0.273285 0.124237
0.825623 0.278778 0.129303
0.852539 0.284363 0.134674
0.877075 0.289154 0.140656
0.902191 0.294098 0.147400
0.018066 0.180908 0.026825
0.034851 0.183075 0.027039
0.052002 0.186371 0.027924
0.068359 0.186707 0.026611
0.089539 0.187256 0.025970
0.119843 0.187317 0.027618
0.153320 0.184753 0.029266
0.187866 0.188202 0.031006
0.223450 0.191986 0.032013
0.256958 0.194397 0.033844
0.290497 0.197296 0.035583
0.319580 0.200470 0.039001
0.348267 0.204376 0.043304
0.377808 0.209290 0.048157
0.406311 0.214447 0.052765
0.436005 0.221008 0.057983
0.464691 0.226379 0.062805
0.494659 0.232971 0.068481
0.524658 0.238586 0.074371
0.556274 0.245026 0.080414
0.588104 0.251556 0.086365
0.621185 0.259064 0.092377
0.653290 0.266083 0.098206
0.684174 0.272217 0.102814
0.715210 0.278717 0.107910
0.745544 0.285004 0.113281
0.774231 0.290619 0.117767
0.801971 0.296356 0.122742
0.830231 0.301880 0.126862
0.856415 0.307434 0.133606
0.882538 0.312958 0.139435
0.906250 0.317383 0.146545
0.019653 0.204956 0.029846
0.036255 0.206543 0.029419
0.053284 0.209564 0.029327
0.070160 0.212189 0.029663
0.086823 0.213287 0.027985
0.115662 0.214264 0.029175
0.149506 0.213959 0.030701
0.185883 0.212097 0.033234
0.221252 0.216370 0.034393
0.255585 0.218719 0.035095
0.287903 0.221741 0.037537
0.320404 0.224945 0.040131
0.351349 0.228027 0.044342
0.380280 0.232178 0.048828
0.409546 0.236603 0.053131
0.439148 0.243103 0.057983
0.469177 0.249207 0.063477
0.498535 0.254791 0.068787
0.527466 0.260651 0.074463
0.559326 0.267151 0.080353
0.591583 0.274109 0.086792
0.624268 0.281555 0.092896
0.656158 0.289215 0.097931
0.687317 0.295929 0.102722
0.719086 0.302948 0.108185
0.748993 0.308197 0.112976
0.777405 0.314423 0.116638
0.805481 0.319702 0.121124
0.833771 0.325623 0.126099
0.860382 0.331055 0.132233
0.886322 0.336731 0.138824
0.910309 0.341766 0.146667
0.021057 0.229767 0.032440
0.037506 0.231140 0.032806
0.054260 0.233337 0.032532
0.071289 0.236755 0.031769
0.088043 0.238617 0.031342
0.110321 0.240265 0.030823
0.142181 0.240173 0.030945
0.180450 0.238251 0.034790
0.220032 0.239929 0.035614
0.255280 0.245544 0.037689
0.287109 0.246582 0.039459
0.319305 0.249756 0.042633
0.352173 0.253479 0.046204
0.384338 0.256042 0.050385
0.413483 0.260315 0.054504
0.443909 0.266113 0.059479
0.473358 0.271484 0.064148
0.503082 0.278015 0.069214
0.531891 0.283020 0.074219
0.563385 0.289886 0.080048
0.595825 0.296997 0.087097
0.627380 0.304535 0.092957
0.660065 0.311493 0.098389
0.691711 0.319122 0.103546
0.722595 0.325562 0.108398
0.752411 0.332703 0.112701
0.780853 0.338440 0.116913
0.809143 0.343781 0.121033
0.836823 0.349060 0.125610
0.864044 0.355347 0.131866
0.888855 0.360199 0.139221
0.913818 0.366241 0.147064
0.022583 0.255463 0.035553
0.039001 0.256744 0.036469
0.055359 0.257629 0.035706
0.072235 0.260437 0.034668
0.089539 0.264709 0.033875
0.107178 0.266296 0.032684
0.137390 0.267609 0.032745
0.173798 0.266296 0.035095
0.213837 0.265350 0.038971
0.256561 0.269928 0.038971
0.288910 0.274323 0.041870
0.318817 0.274902 0.044769
0.352661 0.278076 0.048431
0.385529 0.281586 0.052612
0.416840 0.284912 0.056396
0.447479 0.290192 0.060699
0.477112 0.295013 0.064880
0.506500 0.300568 0.069611
0.536407 0.306793 0.074554
0.566742 0.312286 0.079865
0.599915 0.320465 0.086884
0.631989 0.327484 0.093231
0.663910 0.334564 0.098267
0.695190 0.341553 0.104004
0.726105 0.348541 0.108734
0.755310 0.354950 0.113220
0.784607 0.361542 0.117218
0.812927 0.366791 0.121613
0.840393 0.373230 0.126465
0.866760 0.379395 0.132385
0.892273 0.385345 0.138824
0.917664 0.391541 0.147614
0.023773 0.280304 0.039398
0.040100 0.280884 0.038940
0.056549 0.281982 0.038757
0.073395 0.284515 0.037506
0.090485 0.287933 0.036591
0.107910 0.291473 0.035248
0.132782 0.293762 0.034790
0.166626 0.294769 0.035858
0.207733 0.293243 0.039429
0.250183 0.295471 0.041199
0.289734 0.298767 0.043427
0.320740 0.303436 0.046997
0.352783 0.304169 0.050415
0.386749 0.307861 0.054657
0.418762 0.311554 0.058685
0.450439 0.315247 0.062714
0.481384 0.319427 0.066711
0.510803 0.324066 0.070648
0.540894 0.330139 0.075623
0.571594 0.336243 0.080841
0.604858 0.343719 0.087463
0.636688 0.350525 0.093353
0.668335 0.357849 0.098541
0.699310 0.364899 0.103729
0.729645 0.371796 0.108490
0.759033 0.377960 0.113037
0.788330 0.383789 0.117279
0.815826 0.389435 0.121399
0.842773 0.395721 0.125946
0.869995 0.402100 0.133087
0.895874 0.409485 0.139648
0.920349 0.415253 0.147888
0.025024 0.304138 0.042206
0.041534 0.305420 0.041962
0.057983 0.306305 0.041138
0.074738 0.308350 0.040894
0.091888 0.311829 0.039948
0.109375 0.315979 0.038391
0.129974 0.318909 0.037628
0.162842 0.321350 0.037537
0.202484 0.321899 0.040710
0.242462 0.320923 0.043457
0.285706 0.325165 0.044739
0.322144 0.329315 0.049194
0.353516 0.333282 0.052765
0.387848 0.334991 0.056946
0.420685 0.338745 0.061340
0.453705 0.342010 0.065063
0.484619 0.345306 0.068787
0.514862 0.348969 0.072723
0.545288 0.353607 0.077057
0.576599 0.360291 0.082123
0.608429 0.366730 0.088013
0.640625 0.373901 0.093750
0.671875 0.380646 0.098511
0.703308 0.388062 0.103973
0.733154 0.394348 0.108490
0.762665 0.400970 0.112915
0.791565 0.406860 0.117493
0.820007 0.412903 0.121704
0.847504 0.419495 0.126801
0.874176 0.426361 0.132751
0.899384 0.432678 0.140137
0.923248 0.438507 0.147949
0.026794 0.329437 0.045898
0.043152 0.330017 0.045197
0.059509 0.330475 0.044647
0.076172 0.332275 0.043640
0.093475 0.335815 0.042816
0.111206 0.340179 0.041687
0.130524 0.343628 0.040161
0.160004 0.347839 0.040344
0.201080 0.348877 0.042816
0.238892 0.349182 0.045441
0.278900 0.350433 0.047974
0.321503 0.355682 0.050751
0.356140 0.359985 0.055023
0.388580 0.364105 0.059479
0.423248 0.366302 0.063873
0.455627 0.369629 0.067932
0.487122 0.372223 0.071442
0.518219 0.375122 0.075195
0.548706 0.379425 0.079254
0.581116 0.384705 0.084106
0.613495 0.391846 0.089417
0.644379 0.398193 0.094421
0.675629 0.404327 0.099091
0.706116 0.411377 0.103729
0.736816 0.417694 0.108429
0.766205 0.424316 0.113037
0.795593 0.430176 0.117615
0.824219 0.437012 0.122345
0.851654 0.443420 0.127319
0.878143 0.449554 0.133484
0.902771 0.455811 0.140564
0.927155 0.461212 0.148773
0.028503 0.353607 0.049927
0.044861 0.354401 0.049225
0.061279 0.355072 0.048248
0.078033 0.356567 0.047363
0.095306 0.359650 0.046021
0.113434 0.364532 0.044708
0.132111 0.369507 0.044067
0.158356 0.372528 0.043488
0.195587 0.375977 0.045166
0.237762 0.375824 0.047882
0.275848 0.377686 0.050934
0.317902 0.381927 0.053711
0.358215 0.386627 0.057617
0.391144 0.391113 0.061432
0.423492 0.395294 0.066101
0.458160 0.396820 0.070526
0.489716 0.400085 0.074341
0.522064 0.403168 0.078186
0.552521 0.405701 0.081787
0.584839 0.410492 0.086304
0.618378 0.416840 0.091370
0.649475 0.422821 0.095703
0.680206 0.429138 0.100189
0.711334 0.436005 0.105011
0.741516 0.441864 0.109283
0.770538 0.448730 0.113708
0.800293 0.455200 0.118011
0.828857 0.462036 0.122681
0.856171 0.467651 0.127869
0.882996 0.474945 0.134399
0.906738 0.479584 0.141571
0.929962 0.484070 0.149963
0.030884 0.378540 0.054321
0.047272 0.379120 0.053467
0.063660 0.379517 0.052399
0.080353 0.380615 0.051483
0.097992 0.384064 0.050934
0.116089 0.388794 0.049561
0.135010 0.394287 0.048096
0.158112 0.398834 0.047516
0.192261 0.401825 0.048309
0.234863 0.402679 0.050873
0.275299 0.404083 0.054413
0.314545 0.407654 0.056915
0.357025 0.412689 0.059357
0.394043 0.417664 0.063873
0.426636 0.422577 0.068176
0.458282 0.425903 0.072571
0.493134 0.427673 0.077087
0.525299 0.431000 0.081055
0.556458 0.434448 0.084961
0.589600 0.438232 0.089081
0.621918 0.443207 0.093292
0.654266 0.449127 0.097687
0.686218 0.454742 0.102173
0.716034 0.461273 0.106689
0.745850 0.467346 0.110565
0.775940 0.473816 0.114960
0.805267 0.480347 0.119171
0.833282 0.487244 0.123688
0.859985 0.492920 0.129303
0.886261 0.498810 0.135620
0.910339 0.503510 0.144012
0.933594 0.507721 0.152252
0.033264 0.402771 0.058685
0.049805 0.403595 0.057983
0.066345 0.404266 0.057251
0.083160 0.405640 0.056580
0.100616 0.408386 0.055939
0.118744 0.413025 0.054688
0.137695 0.418915 0.052643
0.161530 0.425079 0.051514
0.187500 0.427155 0.051025
0.229553 0.428284 0.053253
0.274628 0.429962 0.056885
0.313568 0.433960 0.060577
0.353455 0.439026 0.063507
0.395203 0.444580 0.066071
0.430115 0.449615 0.070282
0.462463 0.455688 0.075073
0.493408 0.458862 0.079590
0.528046 0.460114 0.084106
0.561310 0.464050 0.088440
0.594452 0.467987 0.092438
0.626251 0.471680 0.096161
0.658112 0.476227 0.099823
0.689758 0.481232 0.103973
0.720520 0.487457 0.107941
0.751312 0.493835 0.112091
0.780762 0.499664 0.115997
0.809601 0.505920 0.119690
0.838257 0.512695 0.124847
0.864960 0.518280 0.131348
0.889801 0.523102 0.137634
0.913177 0.527069 0.146118
0.936584 0.530640 0.154236
0.036438 0.428101 0.063904
0.053131 0.429199 0.063416
0.069916 0.430603 0.063202
0.086395 0.431000 0.062744
0.103546 0.433075 0.061371
0.121704 0.437805 0.059845
0.140472 0.443939 0.058350
0.162720 0.450470 0.055725
0.189606 0.454529 0.055176
0.220245 0.454529 0.055695
0.270691 0.455933 0.060089
0.312164 0.458832 0.063812
0.351807 0.464539 0.067078
0.393860 0.471252 0.069489
0.431763 0.477539 0.072693
0.464996 0.481567 0.076324
0.497772 0.488586 0.081848
0.529266 0.491516 0.086395
0.566040 0.493347 0.091644
0.599274 0.497711 0.095520
0.631317 0.501190 0.098877
0.662598 0.504852 0.102203
0.692596 0.509033 0.105652
0.724091 0.514404 0.109436
0.755096 0.519775 0.113251
0.784515 0.525299 0.117310
0.813843 0.531586 0.121643
0.842163 0.537384 0.126648
0.869080 0.543060 0.133453
0.893921 0.547211 0.140381
0.916687 0.550690 0.149017
0.940247 0.553864 0.156830
0.039429 0.453430 0.069366
0.056000 0.454315 0.068634
0.072845 0.455933 0.068756
0.089569 0.456909 0.068268
0.106323 0.457886 0.067291
0.124237 0.461945 0.065857
0.143097 0.468475 0.063873
0.164459 0.475555 0.062042
0.190491 0.480560 0.060883
0.218018 0.483093 0.060333
0.265869 0.481934 0.062653
0.310547 0.483887 0.066681
0.348602 0.488647 0.070251
0.391022 0.495331 0.074554
0.432556 0.503815 0.075043
0.468903 0.509094 0.079163
0.500122 0.515167 0.083130
0.534637 0.522705 0.089233
0.566223 0.525146 0.093658
0.603516 0.527771 0.098663
0.636139 0.531555 0.101624
0.667236 0.536041 0.104736
0.697449 0.539642 0.107788
0.727631 0.543945 0.111023
0.758759 0.547760 0.114807
0.788696 0.553009 0.119202
0.819031 0.558655 0.124207
0.846710 0.563354 0.129211
0.872620 0.568451 0.136475
0.897461 0.572083 0.144348
0.920013 0.574127 0.152863
0.943573 0.577423 0.159271
0.042480 0.479156 0.076111
0.059021 0.479736 0.074768
0.075531 0.480530 0.074249
0.092285 0.481689 0.074097
0.109375 0.483643 0.072998
0.127319 0.487701 0.071747
0.145935 0.493347 0.070312
0.165375 0.499023 0.068726
0.189911 0.503693 0.067719
0.216980 0.509338 0.065277
0.252075 0.510162 0.065033
0.308868 0.510406 0.070312
0.348267 0.512756 0.073975
0.388519 0.520142 0.077942
0.431824 0.528748 0.079651
0.471069 0.536865 0.081451
0.505249 0.543030 0.085663
0.535522 0.548798 0.089355
0.570984 0.558685 0.095856
0.603882 0.561554 0.100098
0.640686 0.563202 0.104156
0.671570 0.566681 0.107086
0.700989 0.570343 0.109833
0.731995 0.573944 0.113281
0.762238 0.577240 0.117493
0.792236 0.581421 0.121979
0.821594 0.586395 0.126831
0.849548 0.590363 0.132111
0.875458 0.592865 0.139618
0.899750 0.595978 0.147552
0.923035 0.598602 0.156006
0.947205 0.601562 0.162079
0.045166 0.503845 0.082123
0.061707 0.504669 0.081238
0.078430 0.506073 0.081177
0.095001 0.506683 0.080994
0.112000 0.508209 0.079559
0.130188 0.512909 0.078186
0.148834 0.518585 0.076324
0.168121 0.523773 0.075012
0.189514 0.527222 0.074463
0.215942 0.532959 0.072571
0.247589 0.538086 0.069763
0.300934 0.538330 0.072662
0.347931 0.539001 0.077820
0.388947 0.545288 0.081879
0.429565 0.552429 0.085480
0.471436 0.562103 0.086609
0.507812 0.570007 0.087463
0.541626 0.578278 0.091705
0.571960 0.585144 0.095795
0.608429 0.595032 0.102081
0.641083 0.597382 0.105652
0.675385 0.599518 0.109344
0.705505 0.601776 0.112274
0.734100 0.604004 0.115234
0.765686 0.607788 0.120209
0.795898 0.611145 0.124969
0.824066 0.615387 0.130432
0.852325 0.618652 0.136292
0.877167 0.619080 0.144409
0.902496 0.621155 0.151245
0.926819 0.623291 0.158234
0.951416 0.626099 0.164062
0.048004 0.529602 0.088806
0.064484 0.530273 0.088013
0.080994 0.531067 0.087311
0.097656 0.532135 0.086792
0.114746 0.533936 0.085663
0.132751 0.538208 0.084503
0.151428 0.543823 0.083221
0.170898 0.549194 0.082153
0.191528 0.551636 0.080750
0.216034 0.556274 0.079498
0.248505 0.564789 0.075775
0.295990 0.566742 0.076508
0.346344 0.567780 0.081818
0.390259 0.571289 0.086334
0.431488 0.579315 0.089844
0.471222 0.587860 0.092529
0.510345 0.597839 0.093201
0.545166 0.606720 0.094513
0.577637 0.614685 0.097717
0.609131 0.621735 0.102020
0.644470 0.631805 0.107666
0.675049 0.634277 0.111267
0.708527 0.635468 0.114990
0.739624 0.636536 0.118378
0.768646 0.639099 0.122559
0.796906 0.642395 0.128052
0.825806 0.644440 0.134888
0.853943 0.646881 0.141083
0.879120 0.646240 0.149384
0.904968 0.648407 0.155609
0.930542 0.649536 0.161499
0.954865 0.650848 0.166290
0.050659 0.554688 0.095398
0.067291 0.555725 0.094727
0.084015 0.557007 0.094391
0.100220 0.556824 0.093353
0.117706 0.559723 0.092560
0.135742 0.564056 0.091553
0.154388 0.569427 0.090179
0.173462 0.573944 0.088867
0.193359 0.577148 0.087524
0.219116 0.582947 0.083618
0.250366 0.589355 0.080261
0.284607 0.593353 0.079559
0.343109 0.595734 0.084747
0.390350 0.598785 0.090393
0.433624 0.606232 0.094238
0.472748 0.614838 0.098053
0.511139 0.624146 0.099915
0.546844 0.634338 0.100128
0.581665 0.643372 0.100647
0.614746 0.651764 0.103729
0.644470 0.657745 0.107727
0.679535 0.668579 0.113556
0.710052 0.670380 0.117737
0.742798 0.670898 0.121979
0.772583 0.672485 0.126526
0.800720 0.674225 0.131805
0.827911 0.673553 0.140137
0.854065 0.674103 0.147797
0.880035 0.674225 0.155426
0.906250 0.674622 0.159912
0.932617 0.676361 0.164642
0.957184 0.677826 0.168854
0.053894 0.580933 0.102112
0.070190 0.580994 0.101227
0.086792 0.581665 0.100800
0.103638 0.583038 0.100281
0.120789 0.584961 0.099182
0.139038 0.589661 0.099182
0.158112 0.595764 0.097748
0.177094 0.599457 0.096161
0.197815 0.602631 0.094147
0.224365 0.608917 0.086884
0.254883 0.615326 0.084229
0.284363 0.619324 0.084076
0.330231 0.621948 0.086792
0.388367 0.625793 0.093201
0.434784 0.632843 0.098480
0.473206 0.641357 0.102081
0.510406 0.649994 0.105072
0.548340 0.660370 0.106445
0.584869 0.670441 0.106506
0.620453 0.679840 0.107117
0.650879 0.687256 0.110626
0.680634 0.693787 0.115295
0.713348 0.703766 0.121643
0.741699 0.705475 0.126190
0.774261 0.706299 0.131409
0.803101 0.704926 0.140137
0.829315 0.703064 0.146454
0.855438 0.701843 0.153168
0.882233 0.702759 0.159180
0.908997 0.702759 0.164185
0.936035 0.704315 0.168091
0.958679 0.705139 0.171509
0.057190 0.604919 0.108124
0.073700 0.605347 0.107239
0.090454 0.606232 0.106537
0.107483 0.607910 0.106354
0.124969 0.610809 0.105255
0.143219 0.615601 0.104309
0.162079 0.620575 0.103973
0.182159 0.624451 0.102783
0.203369 0.627747 0.100464
0.230194 0.634003 0.090149
0.258575 0.640228 0.088867
0.286865 0.645630 0.089325
0.322693 0.648560 0.090240
0.380035 0.652618 0.096283
0.430725 0.659149 0.102112
0.473450 0.667877 0.106384
0.511017 0.676147 0.109955
0.547943 0.686157 0.112335
0.586609 0.696930 0.112823
0.622986 0.705811 0.112976
0.656525 0.714996 0.114319
0.684662 0.720795 0.118622
0.713501 0.728699 0.124329
0.744720 0.736176 0.131775
0.771912 0.737030 0.138367
0.802826 0.734772 0.146179
0.831970 0.733521 0.151642
0.857727 0.731689 0.157501
0.884949 0.731293 0.162262
0.911499 0.731110 0.166534
0.938599 0.732025 0.170532
0.959839 0.732239 0.173187
0.061401 0.630005 0.114532
0.078186 0.630737 0.113220
0.095062 0.631897 0.112640
0.112366 0.633942 0.112579
0.129944 0.636932 0.112213
0.147675 0.640167 0.110870
0.166260 0.644287 0.110352
0.184845 0.646973 0.109131
0.207397 0.649963 0.106659
0.233246 0.657104 0.100372
0.260406 0.665131 0.095764
0.290375 0.669952 0.093689
0.318726 0.673340 0.094452
0.368469 0.676880 0.098480
0.424377 0.684326 0.104736
0.469208 0.692596 0.110382
0.510498 0.702240 0.113739
0.549255 0.710999 0.116913
0.586975 0.721252 0.117737
0.625031 0.731537 0.119202
0.657623 0.740356 0.120850
0.689636 0.749481 0.123718
0.715668 0.753998 0.128815
0.744232 0.760315 0.136383
0.773499 0.765625 0.146820
0.799744 0.764557 0.152649
0.831024 0.763702 0.157227
0.860168 0.761719 0.161804
0.887207 0.760284 0.166107
0.913910 0.759399 0.169983
0.938751 0.759735 0.173340
0.959686 0.760101 0.175690
0.065948 0.654388 0.119904
0.082886 0.655579 0.119263
0.099731 0.656738 0.118622
0.117004 0.658722 0.118225
0.134552 0.661591 0.117920
0.152069 0.664093 0.116882
0.170380 0.667053 0.116089
0.190430 0.670319 0.115509
0.211670 0.673798 0.114136
0.235321 0.678986 0.110748
0.261566 0.686646 0.107361
0.291931 0.695374 0.101868
0.321533 0.699432 0.100769
0.356689 0.701263 0.101410
0.413940 0.708923 0.107422
0.462616 0.717468 0.113373
0.508270 0.727478 0.117584
0.549957 0.737610 0.121124
0.587219 0.746216 0.123993
0.624817 0.756226 0.125641
0.658478 0.766937 0.128113
0.689758 0.776093 0.131531
0.718018 0.781311 0.134247
0.744965 0.785431 0.142426
0.772308 0.788971 0.152313
0.802185 0.794006 0.157990
0.828186 0.794189 0.161072
0.859283 0.792664 0.165375
0.889160 0.790192 0.169739
0.915955 0.788300 0.173462
0.939117 0.787720 0.176117
0.960022 0.788513 0.178314
0.070282 0.678864 0.125610
0.087372 0.680542 0.125641
0.104523 0.682404 0.124786
0.121521 0.683685 0.123810
0.138824 0.685852 0.123047
0.155975 0.687592 0.121796
0.174408 0.690521 0.121094
0.194092 0.693909 0.119934
0.215454 0.698730 0.119415
0.237762 0.704376 0.119141
0.262634 0.711670 0.118134
0.294312 0.726013 0.110321
0.325623 0.732544 0.107849
0.355682 0.735931 0.106018
0.407074 0.740967 0.111115
0.460175 0.749481 0.117126
