assets/resources/wfx_effect/material/CubeLUTFiles/Walking Dead.CUBE
#Created by: Adobe Photoshop Export Color Lookup Plugin
#Copyright: (C) Copyright 2016 Wondershare Inc.
TITLE "Walking Dead"
#LUT size
LUT_3D_SIZE 32
#data domain
DOMAIN_MIN 0.0 0.0 0.0
DOMAIN_MAX 1.0 1.0 1.0
#LUT data points
0.012543 0.013763 0.019592
0.029053 0.013611 0.018494
0.053009 0.015869 0.020203
0.092438 0.021057 0.025452
0.135956 0.027649 0.031616
0.177704 0.033539 0.037384
0.211334 0.038361 0.042511
0.240356 0.042847 0.047424
0.266449 0.047028 0.052155
0.297089 0.052246 0.057800
0.333099 0.057739 0.063354
0.371887 0.064026 0.070007
0.413696 0.071014 0.077209
0.456146 0.078796 0.084717
0.495636 0.085510 0.091736
0.533325 0.091766 0.098297
0.567383 0.098999 0.103973
0.600586 0.106262 0.109100
0.635681 0.112915 0.114624
0.668732 0.121460 0.120209
0.699432 0.128601 0.125153
0.729279 0.134888 0.129852
0.758392 0.139893 0.134216
0.788605 0.146057 0.139374
0.818604 0.152863 0.144592
0.846375 0.158905 0.149048
0.873627 0.163055 0.153564
0.900513 0.167542 0.158600
0.922028 0.172760 0.166260
0.935547 0.175659 0.171753
0.947968 0.178345 0.176361
0.959686 0.180328 0.180176
0.015137 0.030548 0.020172
0.028290 0.030426 0.019562
0.049561 0.031311 0.019501
0.092194 0.036621 0.024902
0.135284 0.042633 0.031433
0.176758 0.048370 0.037415
0.215393 0.053680 0.042999
0.253296 0.059235 0.049011
0.276123 0.063141 0.053223
0.303589 0.068146 0.058594
0.337769 0.073486 0.064148
0.376434 0.079590 0.070679
0.416687 0.087921 0.077271
0.457306 0.099487 0.083771
0.492615 0.107056 0.089233
0.528503 0.115143 0.095093
0.561829 0.122345 0.100464
0.595490 0.129181 0.105621
0.631378 0.135834 0.111420
0.664917 0.143463 0.117188
0.695770 0.150513 0.122192
0.725372 0.156464 0.126831
0.754181 0.161224 0.131165
0.784180 0.167023 0.136200
0.814026 0.173401 0.141174
0.841827 0.179504 0.145660
0.869049 0.183441 0.150116
0.895905 0.188049 0.155151
0.916718 0.193237 0.162537
0.930481 0.196136 0.167938
0.943176 0.198883 0.172485
0.954956 0.201080 0.176147
0.015228 0.049896 0.020386
0.028198 0.050537 0.020386
0.043396 0.049225 0.019714
0.081970 0.051178 0.022980
0.128601 0.057007 0.029785
0.171570 0.062958 0.036255
0.213959 0.068665 0.042816
0.254059 0.074402 0.049133
0.280151 0.081757 0.053223
0.305664 0.090363 0.057831
0.338776 0.097321 0.062866
0.376282 0.104553 0.068878
0.414124 0.112640 0.074524
0.455383 0.122894 0.081177
0.489838 0.129547 0.086731
0.524048 0.136749 0.092194
0.556763 0.143494 0.097382
0.591278 0.150208 0.102753
0.626831 0.156982 0.108459
0.660522 0.163910 0.114288
0.691803 0.171051 0.119293
0.721252 0.176666 0.123779
0.749786 0.181274 0.128021
0.779419 0.187042 0.132874
0.809265 0.193207 0.137909
0.837219 0.198792 0.142365
0.864563 0.203278 0.146820
0.891266 0.207794 0.152161
0.911469 0.212677 0.158875
0.925476 0.215515 0.164032
0.938171 0.218231 0.168060
0.949982 0.220490 0.171356
0.015198 0.079498 0.020782
0.027985 0.080475 0.020813
0.042084 0.080048 0.020508
0.067627 0.079590 0.020325
0.112305 0.082581 0.024597
0.159851 0.088196 0.031921
0.203705 0.094086 0.038910
0.247620 0.100067 0.046021
0.279572 0.107086 0.051239
0.305817 0.114349 0.055969
0.338348 0.121368 0.061066
0.375153 0.128204 0.066895
0.412384 0.135986 0.072266
0.450928 0.144897 0.078247
0.485779 0.151215 0.083832
0.519440 0.157532 0.089172
0.553467 0.163818 0.094727
0.588165 0.170715 0.100159
0.622772 0.177216 0.105743
0.655853 0.183441 0.111420
0.687073 0.190460 0.116333
0.716400 0.196075 0.120728
0.744629 0.200836 0.124969
0.773895 0.206512 0.129547
0.803345 0.211761 0.134430
0.831390 0.216919 0.138885
0.858368 0.222137 0.143158
0.884369 0.226807 0.148438
0.905151 0.231354 0.154510
0.919342 0.234161 0.159180
0.932098 0.236328 0.162109
0.944031 0.238617 0.165222
0.014771 0.107361 0.021240
0.027191 0.108307 0.020966
0.039764 0.108582 0.020508
0.061127 0.108124 0.020172
0.096527 0.108032 0.020416
0.140717 0.111450 0.026642
0.188110 0.117859 0.034454
0.233673 0.123383 0.041840
0.272675 0.130066 0.047974
0.301483 0.137390 0.052887
0.334015 0.144409 0.058075
0.370911 0.151764 0.063721
0.408813 0.159180 0.069397
0.445831 0.166168 0.075287
0.481171 0.172150 0.080902
0.514679 0.178162 0.086212
0.549438 0.184326 0.091858
0.583313 0.190460 0.097168
0.616699 0.196411 0.102600
0.649567 0.202209 0.108215
0.680481 0.209106 0.112823
0.710022 0.214966 0.117401
0.738770 0.220032 0.121735
0.767212 0.225281 0.125885
0.796021 0.230011 0.130615
0.823853 0.234497 0.135010
0.849976 0.240234 0.139221
0.876007 0.245117 0.145294
0.898743 0.249451 0.151031
0.913086 0.252167 0.155212
0.926086 0.254120 0.157837
0.938293 0.256073 0.160400
0.014832 0.133575 0.022430
0.026794 0.134705 0.021759
0.038849 0.135773 0.021088
0.052765 0.135864 0.020264
0.085358 0.135864 0.019775
0.124817 0.135620 0.020844
0.169891 0.139801 0.028778
0.215027 0.145935 0.036774
0.261017 0.151978 0.043854
0.294678 0.159607 0.049133
0.328125 0.166260 0.054779
0.365570 0.173553 0.060486
0.404602 0.181671 0.066376
0.440521 0.187836 0.072144
0.475281 0.193359 0.077576
0.509125 0.198608 0.082947
0.544647 0.204315 0.088745
0.577942 0.209625 0.094116
0.609558 0.215149 0.099182
0.641022 0.220947 0.104248
0.671661 0.227234 0.108643
0.701965 0.233307 0.113525
0.731171 0.238464 0.118073
0.759247 0.243195 0.122070
0.787323 0.247803 0.126617
0.814728 0.252380 0.130859
0.841431 0.257996 0.136566
0.867371 0.262634 0.142609
0.892181 0.266846 0.148102
0.906860 0.269623 0.151978
0.920135 0.271729 0.154633
0.932587 0.273590 0.156982
0.014740 0.159760 0.022675
0.026825 0.161072 0.022614
0.038696 0.162201 0.022064
0.051086 0.162445 0.021423
0.078156 0.162781 0.020752
0.113159 0.163574 0.020020
0.152435 0.162659 0.022644
0.195892 0.166901 0.031097
0.242981 0.173248 0.039307
0.286530 0.180267 0.045837
0.321472 0.187683 0.051575
0.360718 0.195251 0.057465
0.400787 0.202789 0.063568
0.436615 0.208618 0.069244
0.470459 0.213867 0.074463
0.504456 0.218811 0.079834
0.539520 0.224213 0.085480
0.572632 0.229370 0.090881
0.602386 0.234192 0.095551
0.633301 0.239197 0.100372
0.663391 0.244598 0.104614
0.694000 0.250519 0.109711
0.723572 0.255737 0.114319
0.751404 0.260345 0.118439
0.779327 0.264893 0.122925
0.806854 0.269623 0.127716
0.834015 0.274902 0.134094
0.859436 0.279083 0.139648
0.884796 0.283234 0.144867
0.900665 0.286591 0.148712
0.914520 0.289032 0.151886
0.927246 0.291107 0.154205
0.014771 0.185364 0.022827
0.026672 0.186798 0.022858
0.038452 0.188080 0.022491
0.050385 0.188507 0.022186
0.073730 0.188202 0.021454
0.104126 0.188812 0.020996
0.141113 0.189270 0.020691
0.180115 0.188812 0.023895
0.222870 0.193512 0.033539
0.269287 0.200378 0.041718
0.312622 0.207550 0.048279
0.355194 0.215424 0.054596
0.396240 0.222290 0.060791
0.433167 0.228302 0.066528
0.467377 0.233582 0.071686
0.501678 0.238953 0.077026
0.535706 0.244019 0.082458
0.568085 0.248749 0.087646
0.597168 0.252899 0.092255
0.627197 0.257080 0.096954
0.656708 0.261627 0.101227
0.687439 0.267334 0.106323
0.716644 0.273132 0.110840
0.744232 0.278442 0.115143
0.772430 0.283844 0.120422
0.799652 0.289307 0.125824
0.826538 0.294403 0.131561
0.852325 0.298370 0.136963
0.877502 0.302490 0.141907
0.894775 0.306030 0.145660
0.908905 0.308655 0.148712
0.922028 0.310913 0.151398
0.016663 0.211090 0.025909
0.028259 0.212738 0.025879
0.039612 0.214020 0.025085
0.050903 0.214600 0.024139
0.069489 0.214142 0.022278
0.097809 0.213013 0.021545
0.132477 0.213623 0.021545
0.168762 0.213684 0.021576
0.208405 0.213379 0.025543
0.256073 0.219360 0.038300
0.299835 0.225952 0.044373
0.346619 0.234589 0.051483
0.389252 0.242645 0.057892
0.427765 0.248779 0.063690
0.464081 0.254700 0.069122
0.499054 0.260895 0.074493
0.532776 0.266113 0.079865
0.565216 0.270874 0.084991
0.594635 0.274841 0.089539
0.623047 0.278534 0.094177
0.651306 0.282257 0.098450
0.680481 0.287201 0.102844
0.708862 0.293091 0.107178
0.736725 0.298767 0.112244
0.764893 0.304321 0.117920
0.792328 0.309845 0.123688
0.819336 0.314514 0.129181
0.845520 0.318115 0.134308
0.870789 0.321838 0.139008
0.889069 0.325226 0.142578
0.903290 0.328156 0.145599
0.916595 0.330627 0.148041
0.019409 0.235138 0.029938
0.031128 0.236908 0.030579
0.042542 0.238312 0.030579
0.053284 0.238892 0.029053
0.066925 0.238586 0.027191
0.094330 0.238739 0.026245
0.127380 0.239502 0.026154
0.161591 0.241974 0.028534
0.198822 0.242218 0.028076
0.242340 0.242981 0.031006
0.289093 0.249084 0.041138
0.336914 0.257355 0.048401
0.381439 0.265350 0.055237
0.420227 0.271362 0.060913
0.458008 0.277618 0.066437
0.493500 0.283691 0.071594
0.527588 0.289124 0.076965
0.560333 0.294098 0.082001
0.590973 0.298401 0.086578
0.619080 0.301483 0.091034
0.646179 0.304443 0.095428
0.673584 0.308319 0.099487
0.701263 0.313507 0.103973
0.729584 0.319183 0.109863
0.757660 0.325134 0.115631
0.785156 0.330444 0.121368
0.812073 0.334686 0.126556
0.838654 0.338013 0.131561
0.864532 0.341461 0.136200
0.883698 0.344849 0.139801
0.897919 0.347839 0.142548
0.911407 0.350525 0.145081
0.022614 0.259033 0.033936
0.033875 0.261139 0.034210
0.045074 0.263092 0.034271
0.056091 0.264740 0.033997
0.068359 0.265259 0.033020
0.089020 0.265167 0.031433
0.118988 0.267120 0.030426
0.153900 0.267975 0.032745
0.190094 0.271484 0.034576
0.229340 0.273285 0.034180
0.280762 0.275024 0.039062
0.328369 0.281677 0.048431
0.372894 0.288757 0.053894
0.412994 0.294861 0.058197
0.451050 0.300842 0.063660
0.487244 0.307495 0.068573
0.521820 0.312866 0.073792
0.554932 0.318329 0.078796
0.586700 0.322784 0.083557
0.615875 0.325134 0.087921
0.643097 0.328186 0.092316
0.669281 0.331512 0.097565
0.696167 0.335602 0.102600
0.723328 0.340363 0.107941
0.751099 0.346100 0.113373
0.778595 0.351196 0.118774
0.805206 0.355316 0.123566
0.831543 0.358704 0.128326
0.857697 0.361694 0.133453
0.878082 0.364746 0.137085
0.892670 0.367767 0.139923
0.906433 0.370605 0.142426
0.024750 0.287384 0.036133
0.036011 0.289551 0.036621
0.046997 0.291534 0.036774
0.057709 0.293335 0.036377
0.069031 0.294739 0.036194
0.083191 0.295319 0.036133
0.107819 0.295837 0.034973
0.142761 0.296631 0.035675
0.177307 0.301239 0.039459
0.218689 0.305237 0.041016
0.266296 0.307037 0.039612
0.320709 0.308960 0.045990
0.364319 0.315552 0.055878
0.405914 0.321930 0.061127
0.445374 0.327057 0.064758
0.481079 0.332611 0.067749
0.515594 0.337189 0.071503
0.549408 0.342773 0.076721
0.582611 0.347687 0.081848
0.613342 0.350494 0.086273
0.641541 0.354431 0.091522
0.668030 0.357727 0.096802
0.693695 0.359955 0.101746
0.718994 0.362701 0.106445
0.745941 0.367523 0.111511
0.772919 0.372162 0.116364
0.799133 0.376007 0.120880
0.825073 0.379242 0.125366
0.850800 0.382172 0.130219
0.872253 0.385010 0.134125
0.887482 0.388031 0.137177
0.901703 0.390900 0.139618
0.027496 0.315521 0.039276
0.038727 0.318268 0.039856
0.049744 0.320862 0.040222
0.060577 0.323486 0.040253
0.070709 0.325562 0.039337
0.083710 0.326660 0.039185
0.097839 0.327148 0.039337
0.125275 0.329163 0.039093
0.163330 0.330780 0.043976
0.204956 0.335419 0.046692
0.256409 0.338745 0.047058
0.308380 0.339966 0.044952
0.356720 0.342865 0.052429
0.398560 0.348236 0.061554
0.438477 0.353699 0.067322
0.474854 0.358948 0.070740
0.510223 0.363281 0.073273
0.545044 0.368134 0.077240
0.578735 0.372864 0.081543
0.610992 0.376556 0.086182
0.639984 0.380371 0.091064
0.667145 0.383972 0.095856
0.692719 0.385712 0.100525
0.716522 0.386688 0.105011
0.742035 0.389587 0.109772
0.768341 0.393524 0.114532
0.793671 0.397156 0.118958
0.819366 0.400208 0.123230
0.845245 0.403595 0.127899
0.866882 0.406219 0.131561
0.882416 0.409302 0.134583
0.897095 0.412231 0.137054
0.030579 0.344116 0.042511
0.041779 0.347046 0.043091
0.052948 0.349731 0.043823
0.063904 0.352509 0.044250
0.074585 0.355042 0.044342
0.086212 0.356964 0.043945
0.097565 0.357910 0.042755
0.113495 0.359283 0.042938
0.149414 0.359467 0.045593
0.190582 0.362762 0.051208
0.247772 0.367615 0.052277
0.300446 0.371002 0.051636
0.346161 0.371704 0.050140
0.391449 0.374695 0.058075
0.431152 0.379517 0.066895
0.468170 0.384430 0.072784
0.504852 0.388947 0.075684
0.540405 0.393219 0.078918
0.574860 0.398071 0.083069
0.607574 0.401917 0.087036
0.637573 0.405121 0.090820
0.665588 0.408813 0.095123
0.692291 0.411896 0.099426
0.716034 0.412415 0.103485
0.740051 0.413361 0.108002
0.764954 0.415802 0.112732
0.789154 0.418488 0.116943
0.814087 0.421356 0.121002
0.839722 0.424774 0.125458
0.861664 0.427582 0.129059
0.877441 0.430603 0.131775
0.892365 0.433380 0.134033
0.034241 0.373077 0.045898
0.045288 0.376099 0.046387
0.056030 0.378723 0.046539
0.066406 0.380829 0.046295
0.076599 0.382782 0.045959
0.088104 0.385132 0.046387
0.100250 0.387390 0.046875
0.111145 0.388123 0.045837
0.134918 0.387878 0.046387
0.180023 0.390137 0.054077
0.230316 0.393463 0.057678
0.292969 0.398010 0.056946
0.339355 0.400421 0.054382
0.381561 0.401306 0.054230
0.424316 0.404572 0.062256
0.461670 0.409454 0.071777
0.498657 0.414124 0.077637
0.535126 0.418152 0.080536
0.570557 0.422607 0.084015
0.604095 0.426422 0.087799
0.635071 0.429504 0.090942
0.663269 0.432739 0.094757
0.690460 0.436646 0.098785
0.715912 0.438629 0.102722
0.739441 0.438568 0.106049
0.762665 0.439697 0.110382
0.785522 0.440643 0.114532
0.809235 0.442200 0.118408
0.834137 0.445496 0.122650
0.856171 0.448303 0.126099
0.872406 0.451141 0.128693
0.887512 0.453705 0.130859
0.037720 0.401276 0.048401
0.048798 0.403809 0.049042
0.059570 0.406250 0.049347
0.070007 0.408630 0.049286
0.080048 0.410950 0.048706
0.091370 0.413300 0.049011
0.103333 0.415436 0.049591
0.114655 0.416168 0.049408
0.130798 0.415924 0.050140
0.170898 0.416840 0.054657
0.213013 0.419678 0.060577
0.281433 0.425751 0.062439
0.332214 0.427917 0.059174
0.374969 0.429535 0.056824
0.416199 0.429779 0.055756
0.454559 0.433502 0.065735
0.491455 0.438538 0.075928
0.528168 0.442505 0.081665
0.564667 0.446655 0.084320
0.599823 0.450592 0.087891
0.631622 0.453735 0.090790
0.660645 0.456818 0.094116
0.687561 0.460175 0.097137
0.714081 0.463287 0.101166
0.738892 0.464355 0.104095
0.762085 0.465485 0.107880
0.784485 0.465363 0.111908
0.806671 0.465179 0.115692
0.829315 0.466949 0.119568
0.850677 0.469452 0.122864
0.867218 0.471802 0.125305
0.882629 0.474091 0.127380
0.040009 0.427521 0.048828
0.051208 0.430084 0.049713
0.062164 0.432404 0.050385
0.072693 0.434875 0.050507
0.082947 0.437805 0.050262
0.094055 0.440674 0.050323
0.105743 0.442963 0.051056
0.116974 0.444397 0.051483
0.129120 0.443970 0.052521
0.158051 0.444641 0.054565
0.200653 0.446503 0.061340
0.265381 0.450775 0.064148
0.323883 0.454742 0.062866
0.368591 0.456543 0.060089
0.410278 0.457458 0.056946
0.448242 0.458099 0.056427
0.484802 0.462311 0.067810
0.521942 0.466858 0.079651
0.558655 0.470581 0.085083
0.595123 0.474304 0.088348
0.628204 0.478088 0.090393
0.657623 0.480804 0.092743
0.685150 0.483398 0.095245
0.711365 0.486633 0.098755
0.736298 0.488525 0.101532
0.761230 0.490753 0.105255
0.784210 0.491394 0.109070
0.806244 0.490631 0.112671
0.827057 0.490753 0.116089
0.845886 0.491486 0.119080
0.862427 0.492706 0.121521
0.878052 0.494293 0.123535
0.042542 0.456360 0.048523
0.053772 0.459259 0.049500
0.064758 0.461914 0.050262
0.075256 0.464142 0.050568
0.085266 0.466339 0.050293
0.096832 0.468842 0.051208
0.107758 0.471252 0.051636
0.118469 0.472717 0.052155
0.129364 0.472321 0.052856
0.148682 0.471863 0.054321
0.189056 0.473328 0.060638
0.252228 0.475433 0.065002
0.314331 0.480988 0.065552
0.361847 0.482452 0.061646
0.404449 0.484497 0.059021
0.443604 0.485168 0.056244
0.478699 0.486206 0.056824
0.516174 0.490570 0.069977
0.552765 0.494659 0.082642
0.589020 0.498016 0.088226
0.623322 0.501770 0.090027
0.653778 0.504303 0.091217
0.681824 0.506897 0.093292
0.707947 0.510040 0.096222
0.733337 0.512451 0.098785
0.758636 0.514618 0.102234
0.782898 0.516571 0.105835
0.805908 0.516998 0.109406
0.826202 0.517212 0.112549
0.842926 0.516876 0.115265
0.859100 0.516632 0.117706
0.874969 0.517517 0.119720
0.044403 0.484741 0.047272
0.055298 0.487244 0.048065
0.066071 0.489594 0.048706
0.076538 0.491821 0.049133
0.086670 0.493652 0.049194
0.097717 0.495483 0.050201
0.108246 0.497711 0.050690
0.118561 0.499084 0.051208
0.128815 0.498535 0.051849
0.141357 0.497375 0.053925
0.179993 0.499664 0.058838
0.236938 0.502075 0.064911
0.303375 0.506256 0.065765
0.352478 0.508514 0.062988
0.398193 0.511841 0.060486
0.437683 0.512329 0.057037
0.474487 0.512939 0.055298
0.509979 0.514984 0.057404
0.546997 0.518402 0.070892
0.582764 0.522766 0.086304
0.617249 0.525391 0.089661
0.649078 0.527710 0.090240
0.677795 0.530945 0.091888
0.704224 0.533478 0.093872
0.730164 0.536163 0.095764
0.755310 0.538757 0.098877
0.780029 0.540833 0.102386
0.804016 0.542389 0.105896
0.823547 0.543823 0.108917
0.841156 0.544006 0.111664
0.857544 0.543671 0.113983
0.873810 0.544983 0.115784
0.046051 0.512939 0.045502
0.056763 0.515259 0.046204
0.067627 0.518280 0.046967
0.078308 0.521179 0.047699
0.089142 0.523102 0.048798
0.099731 0.524231 0.049896
0.109894 0.525238 0.050629
0.119781 0.525543 0.051331
0.129761 0.524841 0.052216
0.140961 0.523376 0.054291
0.172760 0.525360 0.056976
0.219543 0.527954 0.063202
0.292847 0.531769 0.065796
0.342621 0.534363 0.063568
0.389130 0.536896 0.060730
0.431030 0.538849 0.057739
0.471069 0.539612 0.055115
0.505859 0.540283 0.053894
0.540314 0.542480 0.057373
0.576416 0.546173 0.070740
0.610382 0.549286 0.085632
0.643463 0.551880 0.088776
0.672668 0.554382 0.090302
0.700165 0.556854 0.091675
0.726685 0.559265 0.093384
0.751923 0.562347 0.096375
0.776733 0.564697 0.099365
0.801056 0.566498 0.102631
0.820099 0.567719 0.105194
0.838287 0.568542 0.107697
0.855499 0.569550 0.110016
0.872314 0.571106 0.111877
0.049316 0.543579 0.044830
0.059631 0.545044 0.045410
0.069855 0.546722 0.045929
0.080292 0.548370 0.046814
0.091125 0.549469 0.048615
0.101379 0.550720 0.049774
0.111328 0.551758 0.050751
0.121246 0.551971 0.051941
0.131195 0.551056 0.053375
0.142944 0.549866 0.054718
0.166626 0.549530 0.055023
0.205994 0.553528 0.059723
0.280640 0.557251 0.065002
0.333252 0.559967 0.064270
0.380280 0.561462 0.060120
0.423157 0.564240 0.057587
0.465179 0.565857 0.054962
0.501831 0.565857 0.052582
0.535065 0.566803 0.051331
0.568665 0.569244 0.055756
0.603241 0.571808 0.069122
0.635651 0.574646 0.082916
0.666809 0.576996 0.087372
0.694946 0.579651 0.089935
0.721832 0.582458 0.091400
0.747681 0.584961 0.093719
0.772858 0.588013 0.096710
0.797150 0.590454 0.099792
0.816772 0.591614 0.102234
0.835358 0.592468 0.104340
0.853058 0.593414 0.106415
0.870209 0.594971 0.108246
0.051025 0.571747 0.042786
0.061279 0.573090 0.043457
0.071259 0.574463 0.043915
0.081726 0.575195 0.045746
0.091919 0.575806 0.047333
0.101837 0.576263 0.048706
0.111786 0.577301 0.050140
0.121307 0.577087 0.051422
0.131012 0.576111 0.053101
0.144592 0.575195 0.054016
0.164795 0.574402 0.053650
0.192902 0.577515 0.056244
0.262604 0.582428 0.062866
0.325317 0.585449 0.064087
0.371582 0.585083 0.059937
0.416931 0.589447 0.056824
0.457733 0.591095 0.053650
0.496582 0.591919 0.051422
0.530609 0.591919 0.049622
0.563049 0.592010 0.047699
0.595306 0.593811 0.053528
0.627991 0.595947 0.064575
0.658478 0.598053 0.078552
0.688019 0.601196 0.084015
0.715027 0.603943 0.087677
0.741425 0.606262 0.090149
0.767578 0.609741 0.093994
0.791931 0.612518 0.097076
0.812531 0.614655 0.099670
0.831940 0.615997 0.101746
0.850250 0.616699 0.103394
0.867859 0.617645 0.104950
0.051208 0.596802 0.039856
0.061401 0.598175 0.040588
0.071686 0.599518 0.041901
0.081940 0.600586 0.043884
0.091980 0.601288 0.045593
0.101624 0.601715 0.047089
0.111389 0.602203 0.048950
0.121033 0.602325 0.050812
0.130646 0.601990 0.052856
0.145203 0.601471 0.053284
0.164001 0.601501 0.052948
0.186584 0.603271 0.054413
0.239044 0.606873 0.059052
0.316071 0.610077 0.062042
0.364685 0.609802 0.058929
0.409698 0.612305 0.055237
0.452881 0.615906 0.052155
0.491699 0.617554 0.049805
0.526581 0.616669 0.047882
0.559143 0.616547 0.045776
0.589020 0.616089 0.043152
0.619751 0.617584 0.048950
0.650604 0.618835 0.059265
0.680023 0.621613 0.072845
0.708618 0.624237 0.080383
0.735138 0.627258 0.086578
0.761169 0.630310 0.090149
0.785889 0.633209 0.093323
0.807007 0.635742 0.095917
0.827271 0.637665 0.098450
0.846558 0.638977 0.100555
0.864899 0.640167 0.102386
0.050812 0.620148 0.036713
0.060974 0.621735 0.037476
0.071289 0.623077 0.039551
0.081421 0.624329 0.041595
0.091309 0.624756 0.043518
0.101074 0.625488 0.045532
0.110748 0.625977 0.047699
0.120239 0.626465 0.049896
0.129639 0.626770 0.052155
0.145081 0.627411 0.052277
0.162231 0.628052 0.051910
0.180206 0.628052 0.051361
0.216064 0.630493 0.055084
0.303925 0.634308 0.059540
0.357513 0.634674 0.057007
0.402496 0.634735 0.053070
0.446564 0.638336 0.049622
0.486420 0.641022 0.047699
0.521454 0.641388 0.045593
0.554688 0.641083 0.043671
0.584351 0.640106 0.041016
0.613281 0.639130 0.038086
0.642517 0.639526 0.043762
0.672180 0.640839 0.053833
0.701019 0.644348 0.068054
0.728699 0.647675 0.078064
0.754303 0.650696 0.084900
0.778473 0.653290 0.089081
0.800629 0.655792 0.091888
0.822052 0.657959 0.094818
0.842285 0.659729 0.097443
0.861237 0.661560 0.099609
0.050293 0.643768 0.033478
0.060577 0.645599 0.034607
0.070801 0.647095 0.037170
0.080780 0.647858 0.039368
0.090485 0.648315 0.041504
0.100525 0.649506 0.044159
0.110229 0.650421 0.046753
0.119537 0.650970 0.049072
0.128601 0.651306 0.051361
0.143829 0.652618 0.051453
0.160156 0.653351 0.051025
0.177216 0.653534 0.049988
0.206299 0.654419 0.052521
0.288422 0.657867 0.056305
0.350800 0.657959 0.053497
0.396149 0.657745 0.049927
0.440430 0.659271 0.046173
0.480499 0.662415 0.044098
0.515869 0.663727 0.042297
0.549164 0.663910 0.039917
0.580536 0.662750 0.037415
0.608948 0.661469 0.034393
0.635864 0.660492 0.031891
0.663635 0.661560 0.038391
0.694000 0.664551 0.049988
0.722076 0.667419 0.064728
0.748535 0.670166 0.075806
0.772705 0.672882 0.082428
0.794922 0.675537 0.088104
0.816803 0.677826 0.091095
0.837738 0.679993 0.093903
0.857178 0.681946 0.096222
0.049988 0.667694 0.030426
0.060272 0.669189 0.032440
0.070312 0.670319 0.035004
0.080139 0.671204 0.037537
0.090149 0.672363 0.040192
0.099945 0.673828 0.043152
0.109161 0.674408 0.045746
0.118164 0.674805 0.048157
0.127838 0.675232 0.050201
0.142853 0.676025 0.049622
0.158478 0.676788 0.049347
0.177216 0.677521 0.049469
0.205170 0.677765 0.050385
0.272186 0.680389 0.052582
0.343048 0.680359 0.049927
0.392090 0.679840 0.045990
0.435547 0.680084 0.042542
0.473480 0.682159 0.039886
0.509857 0.684082 0.038208
0.543152 0.685181 0.036255
0.574554 0.684509 0.033447
0.602844 0.683228 0.030579
0.630768 0.682922 0.029205
0.657593 0.682983 0.028412
0.685608 0.683899 0.035187
0.714783 0.685944 0.045929
0.741425 0.689240 0.059998
0.766724 0.691895 0.071899
0.790497 0.694794 0.078674
0.812286 0.697662 0.085999
0.833160 0.699707 0.090027
0.852783 0.701477 0.092377
0.048767 0.689331 0.027130
0.058838 0.690826 0.029724
0.068848 0.692261 0.032471
0.078522 0.693146 0.035278
0.088287 0.694427 0.038269
0.097809 0.695770 0.041290
0.106720 0.696228 0.043976
0.115570 0.696594 0.046600
0.127594 0.697845 0.048065
0.142426 0.699188 0.048126
0.158539 0.700378 0.048096
0.181610 0.701141 0.048279
0.217529 0.701050 0.048401
0.261139 0.701813 0.048584
0.334503 0.701691 0.045898
0.387604 0.700500 0.041687
0.430115 0.699738 0.038452
0.467773 0.701691 0.035675
0.504303 0.703766 0.033630
0.536865 0.705231 0.031586
0.568054 0.705170 0.029419
0.597046 0.704803 0.027710
0.626282 0.704651 0.027130
0.653290 0.704376 0.026123
0.679291 0.703766 0.024841
0.705872 0.705231 0.031403
0.734192 0.707581 0.041443
0.760162 0.710175 0.054718
0.785156 0.712830 0.067688
0.807556 0.715912 0.075012
0.828766 0.718506 0.082611
0.849091 0.720764 0.089081
0.047638 0.709869 0.024261
0.057526 0.711884 0.027435
0.067291 0.713440 0.030365
0.076813 0.714874 0.033386
0.086304 0.716492 0.036469
0.095551 0.717804 0.039612
0.104431 0.718567 0.042511
0.113373 0.719269 0.045563
0.127197 0.720551 0.045898
0.142487 0.721802 0.045685
0.161499 0.723175 0.045715
0.190918 0.724243 0.045959
0.230499 0.724213 0.045746
0.271942 0.723114 0.044525
0.330048 0.721619 0.041565
0.382172 0.720551 0.037079
