assets/resources/wfx_effect/material/CubeLUTFiles/Walking Dead.CUBE
#Created by: Adobe Photoshop Export Color Lookup Plugin
#Copyright: (C) Copyright 2016 Wondershare Inc.
TITLE "Walking Dead"
#LUT size
LUT_3D_SIZE 5
#data domain
#LUT data points
DOMAIN_MIN 0.000000 0.000000 0.000000
DOMAIN_MAX 0.903226 0.903226 0.903226
0.012543 0.013763 0.019592
0.240356 0.042847 0.047424
0.495636 0.085510 0.091736
0.729279 0.134888 0.129852
0.922028 0.172760 0.166260
0.014771 0.185364 0.022827
0.180115 0.188812 0.023895
0.467377 0.233582 0.071686
0.687439 0.267334 0.106323
0.877502 0.302490 0.141907
0.034241 0.373077 0.045898
0.111145 0.388123 0.045837
0.424316 0.404572 0.062256
0.663269 0.432739 0.094757
0.834137 0.445496 0.122650
0.051025 0.571747 0.042786
0.121307 0.577087 0.051422
0.371582 0.585083 0.059937
0.627991 0.595947 0.064575
0.812531 0.614655 0.099670
0.045715 0.729980 0.021881
0.112244 0.740662 0.043030
0.326447 0.740112 0.035217
0.586426 0.745605 0.023346
0.774078 0.749023 0.035431
0.012634 0.014343 0.219574
0.205292 0.016266 0.217926
0.489563 0.069031 0.267426
0.721741 0.122223 0.308685
0.918365 0.156433 0.345917
0.059113 0.205200 0.224792
0.199310 0.222687 0.232300
0.528809 0.264923 0.251190
0.718018 0.301880 0.288574
0.908447 0.330933 0.322083
0.097748 0.415558 0.205658
0.189911 0.432404 0.218048
0.456360 0.439606 0.249817
0.697266 0.471375 0.274048
0.865021 0.475464 0.279236
0.112274 0.607391 0.179413
0.199402 0.616730 0.200989
0.366272 0.622986 0.250793
0.660522 0.634186 0.238770
0.844574 0.649719 0.250397
0.104065 0.766235 0.133606
0.189056 0.779022 0.181152
0.325409 0.782501 0.210236
0.626099 0.784973 0.189117
0.812775 0.788666 0.193054
0.014893 0.015533 0.422394
0.194122 0.017609 0.429077
0.469391 0.028839 0.455383
0.725281 0.074951 0.486542
0.904480 0.123016 0.506226
0.059418 0.205566 0.435242
0.186005 0.229584 0.446625
0.431763 0.251648 0.473999
0.710693 0.284668 0.484131
0.902924 0.316864 0.503693
0.124634 0.432861 0.378632
0.230621 0.453522 0.405334
0.469330 0.483765 0.486023
0.732452 0.515015 0.510895
0.899597 0.511475 0.500854
0.164398 0.640442 0.354431
0.269775 0.655457 0.386200
0.408630 0.669769 0.440216
0.692963 0.673645 0.478516
0.881836 0.692352 0.494080
0.163696 0.804840 0.315491
0.267303 0.815643 0.364349
0.408600 0.820648 0.427765
0.660583 0.825165 0.436890
0.849152 0.830566 0.447113
0.018066 0.018494 0.607117
0.196289 0.020599 0.619629
0.451477 0.026764 0.630585
0.698029 0.052917 0.658783
0.909241 0.070435 0.679108
0.061066 0.204895 0.596680
0.186737 0.229004 0.624207
0.403778 0.245026 0.648834
0.693146 0.260193 0.671448
0.916748 0.270416 0.691040
0.127319 0.437958 0.570282
0.232239 0.454865 0.599884
0.435181 0.497742 0.661804
0.703705 0.497162 0.698944
0.899231 0.488190 0.688965
0.192902 0.659668 0.532349
0.308533 0.675842 0.566345
0.452057 0.692505 0.605530
0.727173 0.717773 0.717712
0.917267 0.737610 0.734131
0.219147 0.843140 0.497284
0.340179 0.852753 0.543060
0.489624 0.858643 0.603363
0.688110 0.867401 0.689026
0.882263 0.870087 0.693237
0.021759 0.022247 0.789734
0.215363 0.024689 0.798523
0.450409 0.037689 0.796631
0.688690 0.050018 0.820251
0.886658 0.052643 0.835297
0.068756 0.218750 0.754608
0.201141 0.237762 0.790833
0.412262 0.251984 0.812347
0.680695 0.265381 0.831177
0.897736 0.259369 0.850952
0.125549 0.432220 0.724060
0.238098 0.454071 0.750061
0.440186 0.498993 0.819763
0.681244 0.493439 0.855255
0.882996 0.477997 0.850525
0.192322 0.659760 0.704010
0.309052 0.676392 0.733826
0.448639 0.688385 0.773621
0.701935 0.718689 0.884155
0.913330 0.720245 0.893799
0.254333 0.866760 0.663757
0.388397 0.874664 0.706482
0.532990 0.884094 0.755493
0.737061 0.898499 0.851074
0.914856 0.909210 0.911469
