assets/resources/wfx_effect/material/CubeLUTFiles/Walking Dead.CUBE
#Created by: Adobe Photoshop Export Color Lookup Plugin
#Copyright: (C) Copyright 2016 Wondershare Inc.
TITLE "Walking Dead"
#LUT size
LUT_3D_SIZE 8
#data domain
#LUT data points
DOMAIN_MIN 0.000000 0.000000 0.000000
DOMAIN_MAX 0.903226 0.903226 0.903226
0.012543 0.013763 0.019592
0.135956 0.027649 0.031616
0.266449 0.047028 0.052155
0.413696 0.071014 0.077209
0.567383 0.098999 0.103973
0.699432 0.128601 0.125153
0.818604 0.152863 0.144592
0.922028 0.172760 0.166260
0.014771 0.107361 0.021240
0.096527 0.108032 0.020416
0.272675 0.130066 0.047974
0.408813 0.159180 0.069397
0.549438 0.184326 0.091858
0.680481 0.209106 0.112823
0.796021 0.230011 0.130615
0.898743 0.249451 0.151031
0.016663 0.211090 0.025909
0.069489 0.214142 0.022278
0.208405 0.213379 0.025543
0.389252 0.242645 0.057892
0.532776 0.266113 0.079865
0.651306 0.282257 0.098450
0.764893 0.304321 0.117920
0.870789 0.321838 0.139008
0.027496 0.315521 0.039276
0.070709 0.325562 0.039337
0.163330 0.330780 0.043976
0.356720 0.342865 0.052429
0.510223 0.363281 0.073273
0.639984 0.380371 0.091064
0.742035 0.389587 0.109772
0.845245 0.403595 0.127899
0.040009 0.427521 0.048828
0.082947 0.437805 0.050262
0.129120 0.443970 0.052521
0.323883 0.454742 0.062866
0.484802 0.462311 0.067810
0.628204 0.478088 0.090393
0.736298 0.488525 0.101532
0.827057 0.490753 0.116089
0.049316 0.543579 0.044830
0.091125 0.549469 0.048615
0.131195 0.551056 0.053375
0.280640 0.557251 0.065002
0.465179 0.565857 0.054962
0.603241 0.571808 0.069122
0.721832 0.582458 0.091400
0.816772 0.591614 0.102234
0.050293 0.643768 0.033478
0.090485 0.648315 0.041504
0.128601 0.651306 0.051361
0.206299 0.654419 0.052521
0.440430 0.659271 0.046173
0.580536 0.662750 0.037415
0.694000 0.664551 0.049988
0.794922 0.675537 0.088104
0.045715 0.729980 0.021881
0.083862 0.737946 0.034851
0.127136 0.742401 0.043030
0.241577 0.744476 0.040924
0.418854 0.737579 0.028900
0.556976 0.744995 0.024200
0.668549 0.745239 0.021240
0.774078 0.749023 0.035431
0.012634 0.014404 0.130554
0.108215 0.014404 0.124542
0.260162 0.037292 0.141846
0.418030 0.065613 0.171509
0.566132 0.097046 0.201263
0.699036 0.126465 0.228455
0.819733 0.148315 0.252808
0.925262 0.168732 0.275665
0.035339 0.112244 0.133636
0.105225 0.118011 0.130005
0.294220 0.138489 0.141754
0.439209 0.171295 0.168335
0.570221 0.200043 0.192474
0.699463 0.223785 0.214935
0.816711 0.246033 0.240540
0.917999 0.263550 0.261230
0.055420 0.229767 0.138977
0.106201 0.238556 0.140411
0.225830 0.235168 0.134827
0.433563 0.258728 0.147400
0.549316 0.285645 0.173401
0.670197 0.302307 0.193909
0.782837 0.322266 0.214569
0.887238 0.338226 0.234161
0.065948 0.340149 0.138885
0.112549 0.350677 0.140717
0.170166 0.358673 0.142548
0.375183 0.363678 0.151428
0.532135 0.386047 0.171143
0.660339 0.403351 0.186707
0.759949 0.408661 0.200592
0.863495 0.420898 0.216980
0.075012 0.451294 0.131592
0.121857 0.461792 0.135773
0.172485 0.468262 0.141144
0.325226 0.475769 0.166412
0.501007 0.482574 0.160339
0.646515 0.499908 0.183228
0.756256 0.510345 0.189026
0.845245 0.508392 0.199371
0.085388 0.563721 0.117706
0.131104 0.571472 0.123444
0.178009 0.576538 0.133240
0.247803 0.581512 0.157806
0.477020 0.585846 0.146301
0.622498 0.593475 0.155029
0.742126 0.605377 0.177094
0.835663 0.611023 0.179779
0.084259 0.664673 0.093811
0.129059 0.669495 0.105652
0.172211 0.672699 0.119934
0.211823 0.675385 0.134125
0.453369 0.678772 0.136108
0.601501 0.685638 0.123230
0.717224 0.688141 0.131470
0.815674 0.695923 0.162201
0.075897 0.749176 0.072388
0.119873 0.756500 0.090607
0.161530 0.763214 0.109589
0.244324 0.767181 0.122742
0.439941 0.762085 0.114532
0.580475 0.768280 0.101532
0.692871 0.767853 0.094666
0.796539 0.770721 0.105286
0.012665 0.014313 0.248962
0.103271 0.015106 0.244568
0.240295 0.016632 0.249756
0.418671 0.041229 0.280090
0.560181 0.081573 0.307434
0.687988 0.113678 0.327942
0.806976 0.135406 0.349548
0.916260 0.153076 0.369293
0.035370 0.113190 0.261902
0.098297 0.119019 0.259430
0.220795 0.128235 0.268311
0.402100 0.158875 0.287262
0.550110 0.196625 0.307129
0.689453 0.221893 0.323853
0.811127 0.244049 0.345551
0.919373 0.259674 0.366425
0.067505 0.236237 0.251709
0.122681 0.247101 0.253082
0.232941 0.260651 0.266663
0.451019 0.282623 0.274231
0.578369 0.307037 0.293488
0.691559 0.327148 0.316467
0.800995 0.341125 0.325195
0.905426 0.353851 0.342896
0.100739 0.362274 0.234741
0.152557 0.375275 0.241638
0.219574 0.384827 0.256073
0.389130 0.386505 0.284973
0.571136 0.401703 0.269745
0.680695 0.426086 0.307770
0.778046 0.427826 0.304901
0.879822 0.435913 0.314636
0.108673 0.474396 0.219177
0.158722 0.486389 0.226379
0.217407 0.494293 0.239563
0.311005 0.507202 0.286011
0.521942 0.503326 0.284760
0.667419 0.522583 0.305176
0.775757 0.532196 0.306335
0.862488 0.527832 0.295105
0.116852 0.583099 0.202301
0.168732 0.592834 0.216278
0.222321 0.597900 0.230225
0.288727 0.608398 0.262543
0.488647 0.608582 0.284424
0.638275 0.615204 0.279968
0.760651 0.627930 0.292297
0.854156 0.632202 0.283661
0.119873 0.686127 0.183807
0.169556 0.690704 0.200806
0.220215 0.694641 0.220367
0.269562 0.698730 0.240509
0.463135 0.697510 0.257660
0.617676 0.705597 0.240936
0.735840 0.709839 0.251404
0.835510 0.718658 0.272980
0.112823 0.771820 0.155151
0.164276 0.779053 0.185120
0.213226 0.785889 0.213379
0.276459 0.789215 0.244904
0.452728 0.784027 0.237061
0.599884 0.789612 0.221710
0.714478 0.790771 0.216248
0.817871 0.794098 0.226135
0.014038 0.014771 0.365570
0.096588 0.015930 0.369171
0.232666 0.017731 0.370270
0.395111 0.024017 0.387024
0.559631 0.049835 0.413330
0.694885 0.083038 0.430878
0.798981 0.119965 0.444214
0.904846 0.135834 0.460419
0.035065 0.112396 0.366577
0.100311 0.121368 0.380127
0.205444 0.130219 0.394196
0.374359 0.140198 0.402161
0.550293 0.168091 0.419098
0.686890 0.200439 0.431702
0.802917 0.230591 0.447388
0.911438 0.246216 0.462128
0.068420 0.237671 0.375092
0.121979 0.246918 0.383148
0.217407 0.266479 0.387115
0.369568 0.277313 0.409485
0.538025 0.303558 0.422974
0.677826 0.327881 0.432922
0.796661 0.342072 0.440430
0.904266 0.352386 0.450531
0.105591 0.366394 0.333191
0.158966 0.378204 0.346344
0.234253 0.392365 0.363831
0.392090 0.412994 0.415833
0.588348 0.427734 0.419312
0.700623 0.453125 0.446716
0.806152 0.458008 0.449066
0.897827 0.453033 0.440460
0.137726 0.492401 0.316193
0.190948 0.505310 0.329041
0.258392 0.516113 0.348938
0.342316 0.527191 0.377777
0.540375 0.526245 0.418457
0.693237 0.540070 0.416229
0.796539 0.556549 0.444244
0.881775 0.547668 0.424957
0.147339 0.603760 0.306366
0.203491 0.614899 0.322968
0.264374 0.620544 0.339966
0.329193 0.625244 0.360565
0.479919 0.631073 0.420685
0.656799 0.636932 0.415009
0.780945 0.651947 0.432739
0.876038 0.657684 0.427856
0.153046 0.709015 0.291626
0.207062 0.713348 0.308441
0.264709 0.716675 0.329132
0.320038 0.719391 0.347595
0.451538 0.723328 0.403748
0.633850 0.729614 0.388550
0.756195 0.733704 0.397003
0.856659 0.742401 0.409973
0.146881 0.793396 0.261475
0.203613 0.799744 0.290985
0.259399 0.806061 0.318726
0.331116 0.811310 0.355316
0.457642 0.809601 0.387909
0.618958 0.812683 0.365814
0.733337 0.812988 0.352478
0.838043 0.817871 0.367432
0.015594 0.016327 0.479706
0.099670 0.017212 0.485504
0.227386 0.019287 0.486053
0.380188 0.022919 0.500183
0.537750 0.034058 0.518127
0.684082 0.061432 0.535675
0.814056 0.081512 0.546295
0.917053 0.096344 0.554321
0.036194 0.112183 0.479645
0.101685 0.122437 0.494995
0.198639 0.130005 0.511322
0.359589 0.138184 0.511230
0.525238 0.151672 0.523590
0.685791 0.178314 0.538879
0.815979 0.198151 0.547974
0.913757 0.220001 0.555328
0.068542 0.237701 0.481934
0.121307 0.244995 0.488983
0.215851 0.266968 0.504608
0.325653 0.280090 0.539429
0.502655 0.288574 0.538757
0.675873 0.301270 0.543915
0.802277 0.318634 0.549042
0.899597 0.333435 0.553101
0.106781 0.368927 0.449799
0.160278 0.380859 0.462982
0.235229 0.392883 0.483856
0.366974 0.424652 0.520630
0.513458 0.427673 0.552673
0.680573 0.445557 0.566559
0.793854 0.454590 0.561890
0.892944 0.450958 0.554626
0.141052 0.495178 0.421539
0.195190 0.508087 0.434692
0.266846 0.519623 0.455414
0.361389 0.536804 0.481171
0.545715 0.552124 0.554871
0.715485 0.566101 0.557007
0.817047 0.586945 0.584167
0.909088 0.581512 0.573669
0.175903 0.621887 0.406860
0.236053 0.633667 0.424896
0.304535 0.642700 0.445770
0.371674 0.643982 0.463074
0.508850 0.660004 0.529114
0.678650 0.658356 0.541901
0.802521 0.673859 0.560760
0.897186 0.681213 0.565857
0.185120 0.731567 0.397095
0.242981 0.734711 0.413513
0.306458 0.738159 0.433777
0.370209 0.742462 0.454834
0.499542 0.750458 0.516876
0.646698 0.753174 0.537018
0.774170 0.756744 0.540649
0.878723 0.766815 0.551605
0.179993 0.816986 0.368042
0.241638 0.822632 0.395081
0.303711 0.828064 0.422394
0.379120 0.833466 0.457703
0.495819 0.830750 0.506256
0.633789 0.834778 0.516754
0.754547 0.837433 0.502899
0.858917 0.842407 0.521545
0.017426 0.017914 0.582184
0.105042 0.018799 0.588074
0.231140 0.020599 0.592041
0.377686 0.025055 0.597565
0.523346 0.031860 0.614746
0.668549 0.051208 0.630402
0.796143 0.066315 0.647369
0.912628 0.073273 0.655182
0.038208 0.115753 0.579803
0.104492 0.126007 0.595398
0.202332 0.132660 0.612122
0.351074 0.143005 0.609802
0.512573 0.152069 0.626740
0.667206 0.165039 0.640015
0.799683 0.184845 0.655060
0.915131 0.190582 0.659607
0.067535 0.233887 0.573029
0.125977 0.245239 0.579987
0.217621 0.267334 0.603455
0.321381 0.281158 0.639404
0.485535 0.285309 0.635712
0.652710 0.291046 0.643402
0.800354 0.300964 0.658295
0.919220 0.301941 0.666718
0.107758 0.370850 0.556000
0.161499 0.382996 0.569000
0.240448 0.394806 0.588318
0.361450 0.426575 0.625000
0.473175 0.430573 0.664185
0.660095 0.431946 0.665558
0.795135 0.429962 0.663177
0.902252 0.429321 0.659363
0.142578 0.498016 0.532166
0.195801 0.509369 0.545685
0.266724 0.519409 0.567291
0.357391 0.534576 0.587250
0.519867 0.561310 0.655426
0.669617 0.565552 0.684448
0.812469 0.575043 0.689911
0.902771 0.571716 0.678986
0.181396 0.625122 0.509491
0.243408 0.638916 0.528473
0.315430 0.646973 0.549103
0.390533 0.651733 0.567383
0.536438 0.674622 0.625458
0.694489 0.686859 0.687622
0.826263 0.698395 0.691162
0.916901 0.709229 0.705170
0.214081 0.749664 0.497009
0.276794 0.754425 0.514465
0.346283 0.757568 0.535583
0.417694 0.762482 0.558258
0.532410 0.771240 0.608856
0.664337 0.780975 0.671600
0.795685 0.779205 0.667694
0.899231 0.790558 0.685272
0.211609 0.838318 0.471893
0.278564 0.843811 0.497498
0.346863 0.848877 0.524384
0.423492 0.854401 0.556427
0.541748 0.853271 0.606720
0.650940 0.858307 0.652924
0.770996 0.861359 0.648254
0.876740 0.864136 0.659607
0.019806 0.020233 0.683838
0.113403 0.021271 0.690796
0.238800 0.023071 0.695038
0.379639 0.026764 0.691498
0.517120 0.036072 0.710297
0.658752 0.044495 0.723541
0.784088 0.058197 0.738159
0.896576 0.061432 0.749908
0.041809 0.121948 0.675720
0.109344 0.130585 0.692505
0.211456 0.138763 0.712402
0.355560 0.148193 0.710876
0.497833 0.157684 0.717529
0.652039 0.163727 0.734161
0.787018 0.177002 0.746338
0.902679 0.181732 0.756531
0.071533 0.238464 0.661743
0.132843 0.249329 0.672241
0.220337 0.265442 0.697357
0.326782 0.279297 0.729553
0.475006 0.283478 0.723450
0.639954 0.292603 0.736206
0.784637 0.299530 0.751617
0.907959 0.293884 0.763824
0.106720 0.367798 0.646088
0.159302 0.377350 0.656494
0.247467 0.399414 0.678314
0.363037 0.425873 0.717651
0.471405 0.429138 0.754242
0.643280 0.429199 0.756836
0.779510 0.422333 0.753571
0.896790 0.419342 0.759796
0.143677 0.499786 0.631134
0.196930 0.511505 0.643005
0.268707 0.521759 0.664703
0.369202 0.541504 0.689575
0.514282 0.565155 0.747925
0.653168 0.565826 0.781799
0.803772 0.560883 0.781128
0.900513 0.547821 0.771423
0.180878 0.624603 0.613464
0.241913 0.638580 0.630249
0.316345 0.648010 0.651764
0.391479 0.653412 0.669861
0.539124 0.676544 0.727997
0.673798 0.690704 0.786530
0.810669 0.693176 0.796051
0.916229 0.699188 0.805298
0.222443 0.754974 0.595764
0.286774 0.759918 0.612427
0.360382 0.763519 0.633606
0.439606 0.771362 0.656219
0.548279 0.782654 0.695892
0.694763 0.797485 0.765411
0.813416 0.804962 0.804840
0.921661 0.814697 0.813629
0.239929 0.856964 0.569397
0.311401 0.861237 0.593719
0.386047 0.867188 0.620667
0.461975 0.872498 0.648560
0.570007 0.871735 0.693085
0.690369 0.881836 0.753876
0.789551 0.886932 0.787231
0.898529 0.887817 0.784119
0.021759 0.022247 0.789734
0.123962 0.023468 0.794769
0.253204 0.025116 0.797363
0.385498 0.032104 0.789703
0.516510 0.040070 0.802277
0.656708 0.047180 0.816742
0.774231 0.049988 0.824158
0.886658 0.052643 0.835297
0.045715 0.128265 0.770111
0.118866 0.137970 0.791138
0.221375 0.147156 0.809967
0.365479 0.153900 0.805481
0.501129 0.163086 0.809875
0.652252 0.168365 0.826538
0.780762 0.173370 0.833679
0.893127 0.174835 0.843445
0.076538 0.247284 0.751068
0.141937 0.257538 0.765472
0.230103 0.272766 0.791199
0.337891 0.284607 0.820465
0.481689 0.289337 0.814606
0.636353 0.296906 0.825348
0.778870 0.299042 0.838928
0.898102 0.288971 0.852325
0.108276 0.367554 0.734009
0.168762 0.379272 0.742401
0.251648 0.396240 0.763153
0.366119 0.419617 0.803833
0.471832 0.421997 0.835205
0.632355 0.419952 0.835388
0.770386 0.421570 0.840515
0.885956 0.416321 0.848694
0.144257 0.500793 0.719330
0.196625 0.510559 0.729279
0.268982 0.520691 0.750153
0.383728 0.549164 0.784943
0.514648 0.567078 0.835815
0.644989 0.560699 0.867340
0.791412 0.559967 0.870422
0.883820 0.537537 0.854858
0.182953 0.629120 0.707520
0.242462 0.640411 0.721008
0.317047 0.648224 0.742554
0.393005 0.653473 0.763885
0.536591 0.678406 0.819366
0.664276 0.687378 0.874237
0.803772 0.692871 0.889893
0.913116 0.689392 0.890808
0.221771 0.754028 0.689331
0.286133 0.759369 0.706207
0.360474 0.762207 0.729370
0.439178 0.769135 0.751587
0.538696 0.779266 0.787231
0.690216 0.793579 0.857666
0.803314 0.806458 0.900604
0.912537 0.805420 0.900970
0.254333 0.866760 0.663757
0.329529 0.870911 0.687347
0.408478 0.876282 0.713043
0.488739 0.882782 0.739746
0.582733 0.883820 0.775024
0.711426 0.893311 0.837341
0.808533 0.904541 0.879852
0.914856 0.909210 0.911469
