assets/resources/wfx_effect/nle_default/BaseFilter/HLGD65Cube/Data/HDR_HLGD65.cube
#Copyright: (C)Copyright 2024 Wondershare Inc.
#Created by: BIAOZHOU.
LUT_3D_SIZE 5
DOMAIN_MIN 0.000000 0.000000 0.000000
DOMAIN_MAX 0.903226 0.903226 0.903226
0.000000 0.000000 0.000000
0.276030 0.000000 0.001681
0.464442 0.000000 0.004955
0.663525 0.000000 0.010795
0.994560 0.000000 0.026804
0.000000 0.238984 0.000000
0.233467 0.227620 0.000000
0.447068 0.178946 0.000000
0.654552 0.099240 0.003847
0.990451 0.000000 0.021387
0.000000 0.406311 0.000000
0.076855 0.401771 0.000000
0.397653 0.388478 0.000000
0.628403 0.339291 0.000000
0.978254 0.227302 0.005353
0.000000 0.583114 0.000000
0.000000 0.580789 0.000000
0.268257 0.573886 0.000000
0.571138 0.558447 0.000000
0.951001 0.475204 0.000000
0.000000 0.877102 0.000000
0.000000 0.876042 0.000000
0.000000 0.872873 0.000000
0.337655 0.865686 0.000000
0.859609 0.841071 0.000000
0.000000 0.000000 0.244522
0.268279 0.000000 0.238840
0.461409 0.000000 0.205484
0.661979 0.000000 0.184720
0.993856 0.000000 0.166175
0.000000 0.236856 0.228930
0.225619 0.225619 0.225619
0.444066 0.177467 0.200469
0.653014 0.097330 0.181795
0.989749 0.000000 0.164239
0.000000 0.405470 0.189374
0.059515 0.400945 0.188828
0.394601 0.387690 0.187369
0.626877 0.338681 0.173279
0.977555 0.226660 0.158385
0.000000 0.582685 0.154204
0.000000 0.580363 0.154236
0.264562 0.573468 0.154347
0.569585 0.558044 0.154683
0.950307 0.474902 0.144651
0.000000 0.876907 0.075405
0.000000 0.875847 0.075809
0.000000 0.872679 0.077008
0.335500 0.865495 0.079672
0.858903 0.840888 0.088281
0.000000 0.000000 0.415000
0.215866 0.000000 0.412551
0.452279 0.000000 0.406084
0.657337 0.000000 0.367706
0.991746 0.000000 0.327873
0.000000 0.207024 0.407717
0.181273 0.198782 0.405647
0.435009 0.172999 0.400099
0.648394 0.091413 0.365030
0.987642 0.000000 0.326589
0.000000 0.402971 0.390534
0.000000 0.398489 0.389152
0.385338 0.385338 0.385338
0.622288 0.336851 0.357541
0.975457 0.224725 0.322787
0.000000 0.581402 0.346611
0.000000 0.579089 0.346213
0.253131 0.572218 0.345064
0.564906 0.556840 0.342665
0.948220 0.473994 0.314351
0.000000 0.876321 0.287147
0.000000 0.875263 0.287125
0.000000 0.872098 0.287065
0.328939 0.864922 0.286943
0.856780 0.840338 0.286684
0.000000 0.000000 0.595134
0.147795 0.000000 0.593858
0.397222 0.000000 0.590218
0.646700 0.000000 0.582801
0.986918 0.000000 0.521263
0.000000 0.178982 0.591250
0.106171 0.171784 0.590055
0.383603 0.148499 0.586638
0.637799 0.076600 0.579638
0.982822 0.000000 0.520045
0.000000 0.370874 0.580744
0.000000 0.367386 0.579745
0.341242 0.356900 0.576871
0.611738 0.332669 0.570903
0.970657 0.220244 0.516470
0.000000 0.578494 0.561290
0.000000 0.576200 0.560576
0.224702 0.569381 0.558501
0.554103 0.554103 0.554103
0.943445 0.471918 0.508706
0.000000 0.874987 0.489857
0.000000 0.873931 0.489698
0.000000 0.870775 0.489225
0.313361 0.863617 0.488177
0.851916 0.839085 0.484835
0.000000 0.000000 0.894660
0.000000 0.000000 0.894074
0.294509 0.000000 0.892345
0.555048 0.000000 0.888542
0.969984 0.000000 0.876645
0.000000 0.130988 0.892858
0.000000 0.123551 0.892284
0.280925 0.098271 0.890590
0.548310 0.000471 0.886863
0.965912 0.000000 0.875183
0.000000 0.322807 0.887635
0.000000 0.319956 0.887095
0.235462 0.311276 0.885500
0.527817 0.290616 0.881986
0.953804 0.203859 0.870917
0.000000 0.525500 0.876617
0.000000 0.523788 0.876143
0.046495 0.518642 0.874740
0.478925 0.506834 0.871636
0.926652 0.464640 0.861770
0.000000 0.870354 0.845224
0.000000 0.869308 0.844897
0.000000 0.866180 0.843926
0.250221 0.859082 0.841762
0.834726 0.834726 0.834726
