assets/resources/wfx_effect/nle_default/BaseFilter/HLGD65Cube/Data/HDR_HLGD65.cube
#Copyright: (C)Copyright 2024 Wondershare Inc.
#Created by: BIAOZHOU.
LUT_3D_SIZE 32
DOMAIN_MIN 0.0 0.0 0.0
DOMAIN_MAX 1.0 1.0 1.0
0.000000 0.000000 0.000000
0.038440 0.000000 0.000081
0.091630 0.000000 0.000238
0.135846 0.000000 0.000448
0.175088 0.000000 0.000702
0.211002 0.000000 0.000994
0.244469 0.000000 0.001321
0.276030 0.000000 0.001681
0.306046 0.000000 0.002070
0.334773 0.000000 0.002487
0.362402 0.000000 0.002932
0.389078 0.000000 0.003402
0.414918 0.000000 0.003896
0.440014 0.000000 0.004414
0.464442 0.000000 0.004955
0.488267 0.000000 0.005518
0.511880 0.000000 0.006112
0.537377 0.000000 0.006792
0.565191 0.000000 0.007583
0.595420 0.000000 0.008501
0.628163 0.000000 0.009564
0.663525 0.000000 0.010795
0.701613 0.000000 0.012220
0.742545 0.000000 0.013867
0.786444 0.000000 0.015770
0.833445 0.000000 0.017968
0.883692 0.000000 0.020504
0.937341 0.000000 0.023430
0.994560 0.000000 0.026804
1.055531 0.000000 0.030694
1.120449 0.000000 0.035178
1.138150 0.000000 0.036463
0.000000 0.028912 0.000000
0.027627 0.026302 0.000000
0.086726 0.016710 0.000000
0.132976 0.008503 0.000101
0.173133 0.000479 0.000394
0.209553 0.000000 0.000715
0.243335 0.000000 0.001063
0.275108 0.000000 0.001439
0.305276 0.000000 0.001842
0.334116 0.000000 0.002271
0.361831 0.000000 0.002725
0.388577 0.000000 0.003203
0.414472 0.000000 0.003705
0.439613 0.000000 0.004230
0.464080 0.000000 0.004777
0.487937 0.000000 0.005345
0.511578 0.000000 0.005943
0.537101 0.000000 0.006629
0.564940 0.000000 0.007425
0.595193 0.000000 0.008347
0.627958 0.000000 0.009416
0.663340 0.000000 0.010652
0.701447 0.000000 0.012082
0.742396 0.000000 0.013734
0.786311 0.000000 0.015642
0.833326 0.000000 0.017844
0.883586 0.000000 0.020384
0.937246 0.000000 0.023315
0.994476 0.000000 0.026693
1.055456 0.000000 0.030587
1.120383 0.000000 0.035075
1.138110 0.000000 0.036366
0.000000 0.075221 0.000000
0.004220 0.073939 0.000000
0.072777 0.070187 0.000000
0.124651 0.059453 0.000000
0.167392 0.048627 0.000000
0.205266 0.036960 0.000000
0.239966 0.025072 0.000298
0.272364 0.013287 0.000721
0.302979 0.001413 0.001163
0.332153 0.000000 0.001625
0.360127 0.000000 0.002107
0.387077 0.000000 0.002610
0.413138 0.000000 0.003134
0.438415 0.000000 0.003678
0.462996 0.000000 0.004243
0.486949 0.000000 0.004827
0.510673 0.000000 0.005440
0.536275 0.000000 0.006140
0.564189 0.000000 0.006950
0.594512 0.000000 0.007888
0.627343 0.000000 0.008971
0.662786 0.000000 0.010223
0.700950 0.000000 0.011667
0.741950 0.000000 0.013333
0.785912 0.000000 0.015255
0.832970 0.000000 0.017471
0.883268 0.000000 0.020026
0.936963 0.000000 0.022969
0.994224 0.000000 0.026360
1.055232 0.000000 0.030267
1.120183 0.000000 0.034767
1.137990 0.000000 0.036074
0.000000 0.114488 0.000000
0.000000 0.113744 0.000000
0.045968 0.111538 0.000000
0.111307 0.107936 0.000000
0.158126 0.098598 0.000000
0.198292 0.089324 0.000000
0.234453 0.079875 0.000000
0.267853 0.069928 0.000000
0.299193 0.059087 0.000047
0.328912 0.046785 0.000561
0.357308 0.032409 0.001088
0.384593 0.017591 0.001630
0.410926 0.002660 0.002189
0.436427 0.000000 0.002764
0.461195 0.000000 0.003357
0.485307 0.000000 0.003967
0.509169 0.000000 0.004603
0.534902 0.000000 0.005327
0.562940 0.000000 0.006162
0.593380 0.000000 0.007124
0.626321 0.000000 0.008232
0.661865 0.000000 0.009508
0.700122 0.000000 0.010976
0.741208 0.000000 0.012667
0.785248 0.000000 0.014612
0.832376 0.000000 0.016851
0.882738 0.000000 0.019428
0.936491 0.000000 0.022394
0.993803 0.000000 0.025806
1.054858 0.000000 0.029734
1.119851 0.000000 0.034254
1.137789 0.000000 0.035588
0.000000 0.149338 0.000000
0.000000 0.148833 0.000000
0.012444 0.147327 0.000000
0.089051 0.144850 0.000000
0.145503 0.141439 0.000000
0.188783 0.132980 0.000000
0.226903 0.124595 0.000000
0.261651 0.116186 0.000000
0.293970 0.107608 0.000000
0.324429 0.098694 0.000000
0.353402 0.089251 0.000000
0.381146 0.079036 0.000273
0.407852 0.067713 0.000878
0.433662 0.054754 0.001495
0.458689 0.039176 0.002126
0.483020 0.021729 0.002770
0.507073 0.003907 0.003438
0.532987 0.000000 0.004195
0.561197 0.000000 0.005063
0.591800 0.000000 0.006059
0.624892 0.000000 0.007200
0.660578 0.000000 0.008510
0.698965 0.000000 0.010012
0.740170 0.000000 0.011735
0.784319 0.000000 0.013714
0.831546 0.000000 0.015985
0.881998 0.000000 0.018593
0.935831 0.000000 0.021589
0.993216 0.000000 0.025031
1.054335 0.000000 0.028987
1.119387 0.000000 0.033535
1.137509 0.000000 0.034909
0.000000 0.181233 0.000000
0.000000 0.180859 0.000000
0.000000 0.179742 0.000000
0.061965 0.177895 0.000000
0.125730 0.175340 0.000000
0.176800 0.172101 0.000000
0.217401 0.164269 0.000000
0.253829 0.156501 0.000000
0.287367 0.148751 0.000000
0.318749 0.140944 0.000000
0.348441 0.132989 0.000000
0.376761 0.124786 0.000000
0.403936 0.116224 0.000000
0.430136 0.107169 0.000000
0.455489 0.097458 0.000557
0.480098 0.086868 0.001244
0.504393 0.074891 0.001952
0.530536 0.059543 0.002749
0.558966 0.037916 0.003658
0.589775 0.010164 0.004695
0.623062 0.000000 0.005879
0.658928 0.000000 0.007231
0.697481 0.000000 0.008776
0.738839 0.000000 0.010541
0.783127 0.000000 0.012561
0.830481 0.000000 0.014872
0.881047 0.000000 0.017520
0.934983 0.000000 0.020555
0.992461 0.000000 0.024036
1.053664 0.000000 0.028029
1.118789 0.000000 0.032613
1.137148 0.000000 0.034035
0.000000 0.210955 0.000000
0.000000 0.210663 0.000000
0.000000 0.209788 0.000000
0.023423 0.208338 0.000000
0.103435 0.206326 0.000000
0.158681 0.203766 0.000000
0.205964 0.200675 0.000000
0.244435 0.193321 0.000000
0.279430 0.186021 0.000000
0.311910 0.178751 0.000000
0.342459 0.171469 0.000000
0.371465 0.164119 0.000000
0.399200 0.156641 0.000000
0.425865 0.148970 0.000000
0.451610 0.141033 0.000000
0.476553 0.132749 0.000000
0.501139 0.123889 0.000151
0.527559 0.113412 0.000995
0.556253 0.100578 0.001952
0.587312 0.084298 0.003039
0.620834 0.062288 0.004273
0.656917 0.028537 0.005676
0.695673 0.000000 0.007271
0.737216 0.000000 0.009086
0.781673 0.000000 0.011155
0.829181 0.000000 0.013516
0.879886 0.000000 0.016212
0.933948 0.000000 0.019294
0.991539 0.000000 0.022820
1.052844 0.000000 0.026858
1.118060 0.000000 0.031486
1.136708 0.000000 0.032969
0.000000 0.238984 0.000000
0.000000 0.238747 0.000000
0.000000 0.238035 0.000000
0.000000 0.236855 0.000000
0.076081 0.235213 0.000000
0.138968 0.233119 0.000000
0.189061 0.230585 0.000000
0.233467 0.227620 0.000000
0.270185 0.220649 0.000000
0.303943 0.213722 0.000000
0.335484 0.206829 0.000000
0.365283 0.199941 0.000000
0.393666 0.193026 0.000000
0.420870 0.186041 0.000000
0.447068 0.178946 0.000000
0.472398 0.171694 0.000000
0.497322 0.164123 0.000000
0.524064 0.155439 0.000000
0.553066 0.145231 0.000000
0.584417 0.133043 0.001095
0.618212 0.118147 0.002387
0.654552 0.099240 0.003847
0.693543 0.073518 0.005500
0.735303 0.032167 0.007373
0.779959 0.000000 0.009500
0.827648 0.000000 0.011918
0.878517 0.000000 0.014670
0.932727 0.000000 0.017807
0.990451 0.000000 0.021387
1.051875 0.000000 0.025477
1.117199 0.000000 0.030156
1.136188 0.000000 0.031710
0.000000 0.265641 0.000000
0.000000 0.265442 0.000000
0.000000 0.264848 0.000000
0.000000 0.263860 0.000000
0.036690 0.262485 0.000000
0.116466 0.260728 0.000000
0.171040 0.258598 0.000000
0.217512 0.256101 0.000000
0.259623 0.253246 0.000000
0.294862 0.246591 0.000000
0.327537 0.239973 0.000000
0.358236 0.233387 0.000000
0.387353 0.226815 0.000000
0.415166 0.220235 0.000000
0.441878 0.213619 0.000000
0.467647 0.206938 0.000000
0.492954 0.200058 0.000000
0.520061 0.192296 0.000000
0.549412 0.183361 0.000000
0.581096 0.172986 0.000000
0.615203 0.160781 0.000224
0.651834 0.146147 0.001749
0.691095 0.128088 0.003467
0.733104 0.104714 0.005405
0.777988 0.071427 0.007597
0.825883 0.013083 0.010079
0.876940 0.000000 0.012895
0.931321 0.000000 0.016095
0.989198 0.000000 0.019736
1.050760 0.000000 0.023886
1.116207 0.000000 0.028623
1.135588 0.000000 0.030258
0.000000 0.291153 0.000000
0.000000 0.290984 0.000000
0.000000 0.290476 0.000000
0.000000 0.289633 0.000000
0.000000 0.288457 0.000000
0.089021 0.286954 0.000000
0.151210 0.285127 0.000000
0.200720 0.282984 0.000000
0.244438 0.280530 0.000000
0.284657 0.277772 0.000000
0.318624 0.271384 0.000000
0.350338 0.265027 0.000000
0.380276 0.258700 0.000000
0.408769 0.252391 0.000000
0.436054 0.246084 0.000000
0.462310 0.239760 0.000000
0.488044 0.233303 0.000000
0.515559 0.226091 0.000000
0.545301 0.217895 0.000000
0.577355 0.208533 0.000000
0.611812 0.197749 0.000000
0.648769 0.185180 0.000000
0.688333 0.170280 0.001176
0.730621 0.152171 0.003186
0.775760 0.129280 0.005450
0.823889 0.098214 0.008004
0.875158 0.047689 0.010890
0.929730 0.000000 0.014159
0.987780 0.000000 0.017869
1.049497 0.000000 0.022087
1.115084 0.000000 0.026889
1.134908 0.000000 0.028616
0.000000 0.315690 0.000000
0.000000 0.315543 0.000000
0.000000 0.315102 0.000000
0.000000 0.314370 0.000000
0.000000 0.313349 0.000000
0.050953 0.312041 0.000000
0.128538 0.310451 0.000000
0.182642 0.308584 0.000000
0.228596 0.306443 0.000000
0.270114 0.304033 0.000000
0.308733 0.301360 0.000000
0.341589 0.295202 0.000000
0.372443 0.289070 0.000000
0.401688 0.282966 0.000000
0.429605 0.276881 0.000000
0.456400 0.270804 0.000000
0.482605 0.264631 0.000000
0.510567 0.257780 0.000000
0.540739 0.250061 0.000000
0.573202 0.241335 0.000000
0.608044 0.231419 0.000000
0.645362 0.220060 0.000000
0.685260 0.206900 0.000000
0.727857 0.191404 0.000720
0.773280 0.172730 0.003061
0.821667 0.149413 0.005693
0.873172 0.118454 0.008657
0.927956 0.071209 0.012003
0.986198 0.000000 0.015788
1.048088 0.000000 0.020080
1.113830 0.000000 0.024954
1.134149 0.000000 0.026782
0.000000 0.339381 0.000000
0.000000 0.339251 0.000000
0.000000 0.338864 0.000000
0.000000 0.338220 0.000000
0.000000 0.337321 0.000000
0.000000 0.336169 0.000000
0.101130 0.334767 0.000000
0.162676 0.333119 0.000000
0.211785 0.331228 0.000000
0.255039 0.329098 0.000000
0.294739 0.326732 0.000000
0.331979 0.324136 0.000000
0.363853 0.318178 0.000000
0.393930 0.312244 0.000000
0.422541 0.306334 0.000000
0.449925 0.300444 0.000000
0.476642 0.294478 0.000000
0.505094 0.287885 0.000000
0.535735 0.280495 0.000000
0.568644 0.272201 0.000000
0.603906 0.262862 0.000000
0.641617 0.252289 0.000000
0.681881 0.240222 0.000000
0.724816 0.226290 0.000000
0.770549 0.209948 0.000435
0.819220 0.190336 0.003150
0.870982 0.165983 0.006198
0.926000 0.133937 0.009626
0.984454 0.086107 0.013494
1.046534 0.000000 0.017866
1.112446 0.000000 0.022820
1.133311 0.000000 0.024759
0.000000 0.362329 0.000000
0.000000 0.362214 0.000000
0.000000 0.361869 0.000000
0.000000 0.361296 0.000000
0.000000 0.360496 0.000000
0.000000 0.359470 0.000000
0.064284 0.358221 0.000000
0.139893 0.356752 0.000000
0.193611 0.355064 0.000000
0.239202 0.353162 0.000000
0.280301 0.351047 0.000000
0.318462 0.348725 0.000000
0.354497 0.346196 0.000000
0.385492 0.340417 0.000000
0.414863 0.334658 0.000000
0.442889 0.328921 0.000000
0.470165 0.323118 0.000000
0.499147 0.316720 0.000000
0.530295 0.309573 0.000000
0.563686 0.301591 0.000000
0.599403 0.292661 0.000000
0.637539 0.282633 0.000000
0.678200 0.271308 0.000000
0.721500 0.258410 0.000000
0.767570 0.243544 0.000000
0.816549 0.226130 0.000378
0.868591 0.205256 0.003515
0.923864 0.179355 0.007033
0.982548 0.145286 0.010989
1.044835 0.094424 0.015448
1.110934 0.000000 0.020488
1.132393 0.000000 0.022548
0.000000 0.384616 0.000000
0.000000 0.384513 0.000000
0.000000 0.384204 0.000000
0.000000 0.383689 0.000000
0.000000 0.382971 0.000000
0.000000 0.382049 0.000000
0.005864 0.380926 0.000000
0.112607 0.379604 0.000000
0.173528 0.378085 0.000000
0.222326 0.376371 0.000000
0.265246 0.374465 0.000000
0.304567 0.372370 0.000000
0.341398 0.370088 0.000000
0.376366 0.367622 0.000000
0.406571 0.362002 0.000000
0.435295 0.356399 0.000000
0.463175 0.350735 0.000000
0.492729 0.344495 0.000000
0.524425 0.337540 0.000000
0.558334 0.329795 0.000000
0.594540 0.321168 0.000000
0.633133 0.311539 0.000000
0.674219 0.300747 0.000000
0.717914 0.288575 0.000000
0.764346 0.274722 0.000000
0.813656 0.258759 0.000000
0.866001 0.240049 0.000613
0.921549 0.217586 0.004225
0.980480 0.189625 0.008275
1.042992 0.152601 0.012827
1.109292 0.096275 0.017958
1.131397 0.050780 0.020148
0.000000 0.406311 0.000000
0.000000 0.406217 0.000000
0.000000 0.405938 0.000000
0.000000 0.405472 0.000000
0.000000 0.404821 0.000000
0.000000 0.403987 0.000000
0.000000 0.402969 0.000000
0.076855 0.401771 0.000000
0.150688 0.400393 0.000000
0.204055 0.398838 0.000000
0.249368 0.397108 0.000000
0.290158 0.395205 0.000000
0.327973 0.393130 0.000000
0.363640 0.390888 0.000000
0.397653 0.388478 0.000000
0.427140 0.383001 0.000000
0.455674 0.377460 0.000000
0.485845 0.371357 0.000000
0.518128 0.364561 0.000000
0.552593 0.357007 0.000000
0.589321 0.348617 0.000000
0.628403 0.339291 0.000000
0.669944 0.328897 0.000000
0.714060 0.317259 0.000000
0.760879 0.304138 0.000000
0.810545 0.289199 0.000000
0.863214 0.271963 0.000000
0.919056 0.251712 0.001204
0.978254 0.227302 0.005353
1.041006 0.196703 0.010004
1.107523 0.155619 0.015233
1.130321 0.128316 0.017562
0.000000 0.427469 0.000000
0.000000 0.427384 0.000000
0.000000 0.427129 0.000000
0.000000 0.426705 0.000000
0.000000 0.426112 0.000000
0.000000 0.425351 0.000000
0.000000 0.424423 0.000000
0.018990 0.423329 0.000000
0.123577 0.422072 0.000000
0.183882 0.420652 0.000000
0.232417 0.419071 0.000000
0.275080 0.417331 0.000000
0.314113 0.415434 0.000000
0.350628 0.413382 0.000000
0.385262 0.411176 0.000000
0.418415 0.408819 0.000000
0.447658 0.403393 0.000000
0.478494 0.397414 0.000000
0.511406 0.390757 0.000000
0.546465 0.383363 0.000000
0.583750 0.375167 0.000000
0.623353 0.366082 0.000000
0.665378 0.355997 0.000000
0.709941 0.344767 0.000000
0.757172 0.332195 0.000000
0.807216 0.318012 0.000000
0.860231 0.301838 0.000000
0.916386 0.283129 0.000000
0.975869 0.261056 0.002227
1.038878 0.234273 0.006982
1.105626 0.200323 0.012314
1.129167 0.178390 0.014790
0.000000 0.448440 0.000000
0.000000 0.448362 0.000000
0.000000 0.448129 0.000000
0.000000 0.447740 0.000000
0.000000 0.447197 0.000000
0.000000 0.446500 0.000000
0.000000 0.445650 0.000000
0.000000 0.444647 0.000000
0.088208 0.443494 0.000000
0.160668 0.442191 0.000000
0.213776 0.440741 0.000000
0.258904 0.439143 0.000000
0.299478 0.437401 0.000000
0.337042 0.435516 0.000000
0.372430 0.433488 0.000000
0.406147 0.431320 0.000000
0.438992 0.428979 0.000000
0.470555 0.423118 0.000000
0.504152 0.416589 0.000000
0.539854 0.409339 0.000000
0.577740 0.401309 0.000000
0.617904 0.392425 0.000000
0.660449 0.382592 0.000000
0.705494 0.371688 0.000000
0.753169 0.359548 0.000000
0.803620 0.345948 0.000000
0.857005 0.330583 0.000000
0.913499 0.313018 0.000000
0.973288 0.292620 0.000000
1.036574 0.268415 0.003714
1.103573 0.238779 0.009155
1.127916 0.219514 0.011789
0.000000 0.471083 0.000000
0.000000 0.471012 0.000000
0.000000 0.470799 0.000000
0.000000 0.470445 0.000000
0.000000 0.469949 0.000000
0.000000 0.469312 0.000000
0.000000 0.468535 0.000000
0.000000 0.467620 0.000000
0.023886 0.466566 0.000000
0.130024 0.465375 0.000000
0.190889 0.464048 0.000000
0.239700 0.462586 0.000000
0.282452 0.460991 0.000000
0.321452 0.459264 0.000000
0.357851 0.457406 0.000000
0.392314 0.455419 0.000000
0.425736 0.453272 0.000000
0.461210 0.450747 0.000000
0.495624 0.444351 0.000000
0.532086 0.437245 0.000000
0.570682 0.429377 0.000000
0.611505 0.420681 0.000000
0.654661 0.411077 0.000000
0.700269 0.400461 0.000000
0.748463 0.388696 0.000000
0.799390 0.375597 0.000000
0.853210 0.360912 0.000000
0.910100 0.344294 0.000000
0.970249 0.325247 0.000000
1.033861 0.303042 0.000000
1.101152 0.276538 0.005435
1.126439 0.258951 0.008253
0.000000 0.495785 0.000000
0.000000 0.495720 0.000000
0.000000 0.495526 0.000000
0.000000 0.495204 0.000000
0.000000 0.494753 0.000000
0.000000 0.494174 0.000000
0.000000 0.493467 0.000000
0.000000 0.492634 0.000000
0.000000 0.491674 0.000000
0.083718 0.490590 0.000000
0.161156 0.489381 0.000000
0.216042 0.488049 0.000000
0.262064 0.486594 0.000000
0.303119 0.485019 0.000000
0.340926 0.483324 0.000000
0.376408 0.481510 0.000000
0.410606 0.479549 0.000000
0.446737 0.477243 0.000000
0.485448 0.474494 0.000000
0.522831 0.467539 0.000000
0.562277 0.459834 0.000000
0.603887 0.451321 0.000000
0.647770 0.441932 0.000000
0.694048 0.431577 0.000000
0.742858 0.420144 0.000000
0.794350 0.407478 0.000000
0.848686 0.393375 0.000000
0.906047 0.377552 0.000000
0.966623 0.359619 0.000000
1.030621 0.339013 0.000000
1.098261 0.314902 0.000997
1.124673 0.298434 0.004032
0.000000 0.522630 0.000000
0.000000 0.522572 0.000000
0.000000 0.522397 0.000000
0.000000 0.522104 0.000000
0.000000 0.521696 0.000000
0.000000 0.521171 0.000000
0.000000 0.520530 0.000000
0.000000 0.519775 0.000000
0.000000 0.518905 0.000000
0.000000 0.517920 0.000000
0.119079 0.516823 0.000000
0.185755 0.515614 0.000000
0.237083 0.514293 0.000000
0.281221 0.512861 0.000000
0.321051 0.511320 0.000000
0.357959 0.509671 0.000000
0.393224 0.507887 0.000000
0.430243 0.505788 0.000000
0.469705 0.503285 0.000000
0.511790 0.500302 0.000000
0.552265 0.492766 0.000000
0.594819 0.484436 0.000000
0.639569 0.475252 0.000000
0.686644 0.465140 0.000000
0.736186 0.454003 0.000000
0.788348 0.441715 0.000000
0.843297 0.428108 0.000000
0.901215 0.412954 0.000000
0.962297 0.395939 0.000000
1.026755 0.376625 0.000000
1.094810 0.354383 0.000000
1.122560 0.338666 0.000000
0.000000 0.551709 0.000000
0.000000 0.551657 0.000000
0.000000 0.551498 0.000000
0.000000 0.551234 0.000000
0.000000 0.550865 0.000000
0.000000 0.550391 0.000000
0.000000 0.549812 0.000000
0.000000 0.549129 0.000000
0.000000 0.548343 0.000000
0.000000 0.547453 0.000000
0.040637 0.546460 0.000000
0.144060 0.545366 0.000000
0.205311 0.544170 0.000000
0.254439 0.542874 0.000000
0.297319 0.541478 0.000000
0.336291 0.539983 0.000000
0.373061 0.538366 0.000000
0.411307 0.536462 0.000000
0.451790 0.534191 0.000000
0.494724 0.531483 0.000000
0.540323 0.528257 0.000000
0.584018 0.520116 0.000000
0.629808 0.511136 0.000000
0.677836 0.501252 0.000000
0.728247 0.490385 0.000000
0.781204 0.478431 0.000000
0.836879 0.465251 0.000000
0.895459 0.450659 0.000000
0.957142 0.434404 0.000000
1.022144 0.416140 0.000000
1.090693 0.395380 0.000000
1.120033 0.380154 0.000000
0.000000 0.583114 0.000000
0.000000 0.583066 0.000000
0.000000 0.582923 0.000000
0.000000 0.582686 0.000000
0.000000 0.582353 0.000000
0.000000 0.581926 0.000000
0.000000 0.581405 0.000000
0.000000 0.580789 0.000000
0.000000 0.580080 0.000000
0.000000 0.579278 0.000000
0.000000 0.578383 0.000000
0.074233 0.577395 0.000000
0.162025 0.576316 0.000000
0.220409 0.575146 0.000000
0.268257 0.573886 0.000000
0.310370 0.572535 0.000000
0.349339 0.571074 0.000000
0.389331 0.569352 0.000000
0.431233 0.567298 0.000000
0.475329 0.564848 0.000000
0.521881 0.561927 0.000000
0.571138 0.558447 0.000000
0.618186 0.549676 0.000000
0.667354 0.540018 0.000000
0.718803 0.529405 0.000000
0.772706 0.517750 0.000000
0.829242 0.504941 0.000000
0.888605 0.490827 0.000000
0.951001 0.475204 0.000000
1.016650 0.457797 0.000000
1.085782 0.438223 0.000000
1.117013 0.423299 0.000000
0.000000 0.616940 0.000000
0.000000 0.616897 0.000000
0.000000 0.616769 0.000000
0.000000 0.616555 0.000000
0.000000 0.616257 0.000000
0.000000 0.615873 0.000000
0.000000 0.615404 0.000000
0.000000 0.614851 0.000000
0.000000 0.614213 0.000000
0.000000 0.613492 0.000000
0.000000 0.612687 0.000000
0.000000 0.611798 0.000000
0.091715 0.610827 0.000000
0.174019 0.609774 0.000000
0.231187 0.608639 0.000000
0.278494 0.607422 0.000000
0.320857 0.606105 0.000000
0.363427 0.604553 0.000000
0.407362 0.602700 0.000000
0.453082 0.600489 0.000000
0.500943 0.597853 0.000000
0.551261 0.594709 0.000000
0.604329 0.590965 0.000000
0.654875 0.581537 0.000000
0.707568 0.571172 0.000000
0.762598 0.559797 0.000000
0.820158 0.547319 0.000000
0.880451 0.533616 0.000000
0.943691 0.518524 0.000000
1.010105 0.501821 0.000000
1.079931 0.483205 0.000000
1.113403 0.468439 0.000000
0.000000 0.653291 0.000000
0.000000 0.653252 0.000000
0.000000 0.653137 0.000000
0.000000 0.652946 0.000000
0.000000 0.652678 0.000000
0.000000 0.652334 0.000000
0.000000 0.651914 0.000000
0.000000 0.651418 0.000000
0.000000 0.650846 0.000000
0.000000 0.650199 0.000000
0.000000 0.649476 0.000000
0.000000 0.648679 0.000000
0.000000 0.647807 0.000000
0.098205 0.646861 0.000000
0.180142 0.645841 0.000000
0.237476 0.644747 0.000000
0.285583 0.643563 0.000000
0.332203 0.642168 0.000000
0.379174 0.640501 0.000000
0.427235 0.638512 0.000000
0.476935 0.636137 0.000000
0.528716 0.633306 0.000000
0.582958 0.629931 0.000000
0.639998 0.625911 0.000000
0.694194 0.615797 0.000000
0.750575 0.604693 0.000000
0.809355 0.592521 0.000000
0.870753 0.579182 0.000000
0.934994 0.564542 0.000000
1.002314 0.548424 0.000000
1.072961 0.530588 0.000000
1.109089 0.515873 0.000000
0.000000 0.692277 0.000000
0.000000 0.692243 0.000000
0.000000 0.692140 0.000000
0.000000 0.691969 0.000000
0.000000 0.691729 0.000000
0.000000 0.691421 0.000000
0.000000 0.691045 0.000000
0.000000 0.690601 0.000000
0.000000 0.690089 0.000000
0.000000 0.689509 0.000000
0.000000 0.688862 0.000000
0.000000 0.688148 0.000000
0.000000 0.687367 0.000000
0.000000 0.686519 0.000000
0.093365 0.685604 0.000000
0.179821 0.684624 0.000000
0.239570 0.683562 0.000000
0.293247 0.682310 0.000000
0.345066 0.680814 0.000000
0.396659 0.679027 0.000000
0.449027 0.676895 0.000000
0.502873 0.674350 0.000000
0.558737 0.671315 0.000000
0.617067 0.667698 0.000000
0.678253 0.663391 0.000000
0.736265 0.652560 0.000000
0.796507 0.640683 0.000000
0.859221 0.627677 0.000000
0.924651 0.613434 0.000000
0.993046 0.597812 0.000000
1.064665 0.580617 0.000000
1.103937 0.565875 0.000000
0.000000 0.734018 0.000000
0.000000 0.733987 0.000000
0.000000 0.733896 0.000000
0.000000 0.733743 0.000000
0.000000 0.733529 0.000000
0.000000 0.733253 0.000000
0.000000 0.732917 0.000000
0.000000 0.732521 0.000000
0.000000 0.732063 0.000000
0.000000 0.731545 0.000000
0.000000 0.730966 0.000000
0.000000 0.730327 0.000000
0.000000 0.729629 0.000000
0.000000 0.728870 0.000000
0.000000 0.728052 0.000000
0.072303 0.727175 0.000000
0.172716 0.726224 0.000000
0.241675 0.725103 0.000000
0.302204 0.723763 0.000000
0.359525 0.722162 0.000000
0.415956 0.720249 0.000000
0.472814 0.717967 0.000000
0.530977 0.715243 0.000000
0.591096 0.711996 0.000000
0.653692 0.708126 0.000000
0.719210 0.703518 0.000000
0.781218 0.691938 0.000000
0.845508 0.679251 0.000000
0.912355 0.665370 0.000000
0.982026 0.650179 0.000000
1.054797 0.633524 0.000000
1.097782 0.618699 0.000000
0.000000 0.778642 0.000000
0.000000 0.778614 0.000000
0.000000 0.778532 0.000000
0.000000 0.778396 0.000000
0.000000 0.778205 0.000000
0.000000 0.777959 0.000000
0.000000 0.777660 0.000000
0.000000 0.777305 0.000000
0.000000 0.776897 0.000000
0.000000 0.776435 0.000000
0.000000 0.775918 0.000000
0.000000 0.775348 0.000000
0.000000 0.774724 0.000000
0.000000 0.774046 0.000000
0.000000 0.773315 0.000000
0.000000 0.772531 0.000000
0.016728 0.771682 0.000000
0.163749 0.770679 0.000000
0.244609 0.769481 0.000000
0.312539 0.768049 0.000000
0.375657 0.766338 0.000000
0.437139 0.764294 0.000000
0.498675 0.761855 0.000000
0.561336 0.758945 0.000000
0.625892 0.755475 0.000000
0.692945 0.751340 0.000000
0.762997 0.746417 0.000000
0.829191 0.734050 0.000000
0.897734 0.720514 0.000000
0.968926 0.705714 0.000000
1.043064 0.689527 0.000000
1.090433 0.674588 0.000000
0.000000 0.826286 0.000000
0.000000 0.826262 0.000000
0.000000 0.826189 0.000000
0.000000 0.826068 0.000000
0.000000 0.825897 0.000000
0.000000 0.825679 0.000000
0.000000 0.825411 0.000000
0.000000 0.825096 0.000000
0.000000 0.824732 0.000000
0.000000 0.824319 0.000000
0.000000 0.823859 0.000000
0.000000 0.823350 0.000000
0.000000 0.822794 0.000000
0.000000 0.822190 0.000000
0.000000 0.821538 0.000000
0.000000 0.820838 0.000000
0.000000 0.820080 0.000000
0.000000 0.819185 0.000000
0.153637 0.818115 0.000000
0.248461 0.816836 0.000000
