assets/resources/wfx_effect/nle_default/BaseFilter/HLGD65Cube/Data/HDR_HLGD65.cube
#Copyright: (C)Copyright 2024 Wondershare Inc.
#Created by: BIAOZHOU.
LUT_3D_SIZE 8
DOMAIN_MIN 0.000000 0.000000 0.000000
DOMAIN_MAX 0.903226 0.903226 0.903226
0.000000 0.000000 0.000000
0.175088 0.000000 0.000702
0.306046 0.000000 0.002070
0.414918 0.000000 0.003896
0.511880 0.000000 0.006112
0.628163 0.000000 0.009564
0.786444 0.000000 0.015770
0.994560 0.000000 0.026804
0.000000 0.149338 0.000000
0.145503 0.141439 0.000000
0.293970 0.107608 0.000000
0.407852 0.067713 0.000878
0.507073 0.003907 0.003438
0.624892 0.000000 0.007200
0.784319 0.000000 0.013714
0.993216 0.000000 0.025031
0.000000 0.265641 0.000000
0.036690 0.262485 0.000000
0.259623 0.253246 0.000000
0.387353 0.226815 0.000000
0.492954 0.200058 0.000000
0.615203 0.160781 0.000224
0.777988 0.071427 0.007597
0.989198 0.000000 0.019736
0.000000 0.362329 0.000000
0.000000 0.360496 0.000000
0.193611 0.355064 0.000000
0.354497 0.346196 0.000000
0.470165 0.323118 0.000000
0.599403 0.292661 0.000000
0.767570 0.243544 0.000000
0.982548 0.145286 0.010989
0.000000 0.448440 0.000000
0.000000 0.447197 0.000000
0.088208 0.443494 0.000000
0.299478 0.437401 0.000000
0.438992 0.428979 0.000000
0.577740 0.401309 0.000000
0.753169 0.359548 0.000000
0.973288 0.292620 0.000000
0.000000 0.551709 0.000000
0.000000 0.550865 0.000000
0.000000 0.548343 0.000000
0.205311 0.544170 0.000000
0.373061 0.538366 0.000000
0.540323 0.528257 0.000000
0.728247 0.490385 0.000000
0.957142 0.434404 0.000000
0.000000 0.692277 0.000000
0.000000 0.691729 0.000000
0.000000 0.690089 0.000000
0.000000 0.687367 0.000000
0.239570 0.683562 0.000000
0.449027 0.676895 0.000000
0.678253 0.663391 0.000000
0.924651 0.613434 0.000000
0.000000 0.877102 0.000000
0.000000 0.876756 0.000000
0.000000 0.875718 0.000000
0.000000 0.873992 0.000000
0.000000 0.871573 0.000000
0.253316 0.867316 0.000000
0.556940 0.858636 0.000000
0.859609 0.841071 0.000000
0.000000 0.000000 0.153187
0.169700 0.000000 0.149238
0.303938 0.000000 0.126053
0.413699 0.000000 0.114140
0.511054 0.000000 0.106723
0.627603 0.000000 0.100542
0.786081 0.000000 0.095621
0.994330 0.000000 0.093754
0.000000 0.147859 0.142350
0.140048 0.140048 0.140048
0.291883 0.106579 0.122567
0.406640 0.066553 0.111923
0.506250 0.002499 0.104990
0.624333 0.000000 0.099114
0.783956 0.000000 0.094428
0.992986 0.000000 0.092760
0.000000 0.265057 0.114856
0.026157 0.261912 0.114476
0.257502 0.252698 0.113462
0.386150 0.226375 0.105551
0.492137 0.199655 0.099846
0.614647 0.160364 0.094809
0.777626 0.070701 0.090806
0.988969 0.000000 0.089736
0.000000 0.361990 0.095671
0.000000 0.360161 0.095644
0.191271 0.354736 0.095583
0.353271 0.345879 0.095539
0.469349 0.322849 0.091365
0.598849 0.292421 0.087525
0.767209 0.243310 0.084599
0.982319 0.144955 0.084540
0.000000 0.448210 0.077652
0.000000 0.446969 0.077756
0.083782 0.443269 0.078069
0.298212 0.437181 0.078596
0.438162 0.428764 0.079347
0.577187 0.401126 0.076912
0.752810 0.359387 0.075429
0.973060 0.292459 0.076854
0.000000 0.551554 0.050395
0.000000 0.550710 0.050612
0.000000 0.548189 0.051256
0.203636 0.544018 0.052312
0.372204 0.538216 0.053761
0.539760 0.528111 0.056231
0.727888 0.490264 0.057369
0.956915 0.434296 0.061822
0.000000 0.692176 0.000000
0.000000 0.691628 0.000000
0.000000 0.689989 0.000000
0.000000 0.687267 0.000000
0.238351 0.683463 0.000263
0.448438 0.676797 0.003610
0.677888 0.663296 0.010348
0.924424 0.613356 0.021831
0.000000 0.877038 0.000000
0.000000 0.876692 0.000000
0.000000 0.875654 0.000000
0.000000 0.873929 0.000000
0.000000 0.871510 0.000000
0.252336 0.867254 0.000000
0.556554 0.858575 0.000000
0.859379 0.841011 0.000000
0.000000 0.000000 0.271681
0.133269 0.000000 0.269978
0.297592 0.000000 0.265484
0.410036 0.000000 0.243643
0.508576 0.000000 0.229058
0.625921 0.000000 0.215577
0.784990 0.000000 0.202046
0.993641 0.000000 0.190057
0.000000 0.127123 0.266618
0.109225 0.121395 0.265180
0.285588 0.103474 0.261323
0.402998 0.062992 0.241498
0.503780 0.000000 0.227648
0.622655 0.000000 0.214584
0.782867 0.000000 0.201316
0.992298 0.000000 0.189486
0.000000 0.263319 0.254675
0.000000 0.260204 0.253714
0.251063 0.251063 0.251063
0.382527 0.225055 0.235595
0.489683 0.198445 0.223594
0.612977 0.159110 0.211661
0.776540 0.068489 0.199139
0.988281 0.000000 0.187772
0.000000 0.360979 0.230025
0.000000 0.359158 0.229668
0.184080 0.353756 0.228641
0.349577 0.344929 0.227068
0.466896 0.322042 0.217326
0.597187 0.291704 0.206951
0.766128 0.242608 0.195544
0.981633 0.143960 0.184909
0.000000 0.447524 0.211471
0.000000 0.446286 0.211319
0.069172 0.442595 0.210877
0.294382 0.436520 0.210183
0.435666 0.428120 0.209287
0.575524 0.400579 0.200609
0.751732 0.358905 0.190552
0.972377 0.291976 0.180872
0.000000 0.551088 0.190923
0.000000 0.550245 0.190882
0.000000 0.547727 0.190764
0.198523 0.543562 0.190578
0.369623 0.537768 0.190340
0.538069 0.527673 0.189980
0.726811 0.489898 0.181846
0.956234 0.433973 0.173676
0.000000 0.691873 0.162504
0.000000 0.691326 0.162531
0.000000 0.689688 0.162614
0.000000 0.686968 0.162754
0.234654 0.683167 0.162954
0.446666 0.676505 0.163318
0.676792 0.663012 0.164099
0.923744 0.613121 0.158524
0.000000 0.876847 0.116568
0.000000 0.876501 0.116647
0.000000 0.875464 0.116883
0.000000 0.873738 0.117276
0.000000 0.871321 0.117825
0.249370 0.867066 0.118787
0.555396 0.858390 0.120733
0.858686 0.840832 0.124602
0.000000 0.000000 0.370190
0.097925 0.000000 0.369186
0.267462 0.000000 0.366351
0.403915 0.000000 0.362124
0.504438 0.000000 0.341706
0.623116 0.000000 0.322356
0.783172 0.000000 0.302200
0.992492 0.000000 0.282955
0.000000 0.111662 0.367143
0.071468 0.106572 0.366216
0.257676 0.090192 0.363586
0.396903 0.056757 0.359641
0.499656 0.000000 0.340188
0.619855 0.000000 0.321386
0.781050 0.000000 0.301565
0.991149 0.000000 0.282508
0.000000 0.245655 0.359056
0.000000 0.243122 0.358305
0.227578 0.235534 0.356157
0.376450 0.222860 0.352885
0.485583 0.196421 0.335871
0.610191 0.157002 0.318553
0.774729 0.064681 0.299683
0.987135 0.000000 0.281171
0.000000 0.359307 0.348056
0.000000 0.357499 0.347493
0.171461 0.352132 0.345870
0.343355 0.343355 0.343355
0.462793 0.320699 0.329336
0.594413 0.290507 0.314063
0.764324 0.241433 0.296611
0.980490 0.142288 0.278958
0.000000 0.446386 0.325353
0.000000 0.445152 0.325072
0.037412 0.441476 0.324247
0.287889 0.435423 0.322933
0.431484 0.427049 0.321206
0.572746 0.399668 0.308163
0.749933 0.358102 0.292419
0.971236 0.291170 0.275875
0.000000 0.550312 0.301953
0.000000 0.549472 0.301825
0.000000 0.546960 0.301445
0.189685 0.542804 0.300830
0.365281 0.537021 0.300004
0.535241 0.526945 0.298642
0.725013 0.489289 0.285310
0.955097 0.433434 0.270491
0.000000 0.691370 0.273409
0.000000 0.690823 0.273370
0.000000 0.689187 0.273255
0.000000 0.686470 0.273068
0.228348 0.682674 0.272814
0.443696 0.676019 0.272391
0.674962 0.662539 0.271615
0.922609 0.612729 0.259633
0.000000 0.876528 0.236594
0.000000 0.876182 0.236604
0.000000 0.875146 0.236632
0.000000 0.873422 0.236681
0.000000 0.871006 0.236750
0.244337 0.866753 0.236878
0.553459 0.858082 0.237157
0.857531 0.840533 0.237793
0.000000 0.000000 0.457923
0.049538 0.000000 0.457239
0.240329 0.000000 0.455255
0.377003 0.000000 0.452159
0.498607 0.000000 0.448193
0.619167 0.000000 0.423690
0.780613 0.000000 0.397703
0.990877 0.000000 0.372207
0.000000 0.098427 0.455829
0.010733 0.093526 0.455175
0.231296 0.077494 0.453276
0.371048 0.043229 0.450307
0.493840 0.000000 0.446491
0.615914 0.000000 0.422653
0.778495 0.000000 0.397074
0.989535 0.000000 0.371802
0.000000 0.230732 0.449988
0.000000 0.228498 0.449411
0.202602 0.221746 0.447733
0.353200 0.210281 0.445092
0.479793 0.193560 0.441672
0.606266 0.154003 0.419637
0.772180 0.059033 0.395213
0.985523 0.000000 0.370592
0.000000 0.343492 0.441433
0.000000 0.341938 0.440954
0.145621 0.337293 0.439555
0.323092 0.329592 0.437338
0.456988 0.318817 0.434436
0.590501 0.288822 0.414895
0.761785 0.239775 0.392195
0.978882 0.139905 0.368597
0.000000 0.444795 0.431222
0.000000 0.443568 0.430839
0.000000 0.439912 0.429716
0.278514 0.433889 0.427923
0.425552 0.425552 0.425552
0.568828 0.398388 0.408735
0.747402 0.356971 0.388114
0.969633 0.290034 0.365835
0.000000 0.549227 0.403984
0.000000 0.548389 0.403792
0.000000 0.545885 0.403223
0.176489 0.541742 0.402301
0.359089 0.535975 0.401053
0.531247 0.525924 0.398976
0.722482 0.488434 0.381291
0.953499 0.432676 0.361061
0.000000 0.690663 0.372349
0.000000 0.690117 0.372270
0.000000 0.688484 0.372034
0.000000 0.685772 0.371648
0.219152 0.681981 0.371118
0.439486 0.675337 0.370218
0.672383 0.661875 0.368497
0.921013 0.612179 0.351618
0.000000 0.876081 0.335149
0.000000 0.875735 0.335129
0.000000 0.874699 0.335070
0.000000 0.872977 0.334973
0.000000 0.870563 0.334839
0.237062 0.866314 0.334610
0.550724 0.857650 0.334170
0.855906 0.840113 0.333385
0.000000 0.000000 0.563138
0.000000 0.000000 0.562672
0.204371 0.000000 0.561300
0.344885 0.000000 0.559100
0.466330 0.000000 0.556172
0.612167 0.000000 0.551412
0.776084 0.000000 0.518516
0.988018 0.000000 0.485596
0.000000 0.081664 0.561705
0.000000 0.076656 0.561251
0.195271 0.059873 0.559913
0.339556 0.022975 0.557766
0.462292 0.000000 0.554906
0.608925 0.000000 0.550249
0.773970 0.000000 0.517848
0.986678 0.000000 0.485199
0.000000 0.214014 0.557584
0.000000 0.211983 0.557162
0.165365 0.205806 0.555918
0.323302 0.195202 0.553918
0.450198 0.179506 0.551246
0.599302 0.148585 0.546876
0.767668 0.047995 0.515877
0.982670 0.000000 0.484017
0.000000 0.325147 0.551235
0.000000 0.323792 0.550859
0.099464 0.319719 0.549749
0.295036 0.312903 0.547956
0.430010 0.303241 0.545552
0.583554 0.285839 0.541597
0.757287 0.236821 0.512694
0.976036 0.135596 0.482075
0.000000 0.425828 0.543212
0.000000 0.424774 0.542886
0.000000 0.421619 0.541924
0.251493 0.416380 0.540367
0.401260 0.409047 0.538267
0.561859 0.396132 0.534788
0.742916 0.354970 0.508416
0.966795 0.288015 0.479398
0.000000 0.547317 0.530960
0.000000 0.546484 0.530700
0.000000 0.543994 0.529928
0.150293 0.539873 0.528674
0.347868 0.534134 0.526972
0.524127 0.524127 0.524126
0.717992 0.486924 0.501339
0.950670 0.431335 0.474808
0.000000 0.689416 0.494244
0.000000 0.688872 0.494124
0.000000 0.687244 0.493767
0.000000 0.684540 0.493180
0.201786 0.680761 0.492373
0.431936 0.674134 0.490993
0.667804 0.660703 0.488326
0.918185 0.611207 0.465861
0.000000 0.875290 0.453429
0.000000 0.874945 0.453384
0.000000 0.873911 0.453248
0.000000 0.872192 0.453024
0.000000 0.869781 0.452713
0.223552 0.865539 0.452174
0.545851 0.856887 0.451109
0.853025 0.839370 0.449090
0.000000 0.000000 0.706354
0.000000 0.000000 0.706051
0.138367 0.000000 0.705150
0.298193 0.000000 0.703681
0.422535 0.000000 0.701675
0.568278 0.000000 0.698293
0.766742 0.000000 0.691911
0.982130 0.000000 0.649004
0.000000 0.053127 0.705419
0.000000 0.047072 0.705120
0.126643 0.026459 0.704232
0.293054 0.000000 0.702782
0.418963 0.000000 0.700803
0.565582 0.000000 0.697462
0.764636 0.000000 0.691153
0.980793 0.000000 0.648583
0.000000 0.192336 0.702679
0.000000 0.190427 0.702392
0.083219 0.184597 0.701538
0.277142 0.174499 0.700143
0.408141 0.159342 0.698238
0.557495 0.128706 0.695018
0.758355 0.021093 0.688922
0.976794 0.000000 0.647332
0.000000 0.301847 0.698307
0.000000 0.300645 0.698038
0.000000 0.297019 0.697237
0.248600 0.290911 0.695926
0.389705 0.282170 0.694134
0.544007 0.266205 0.691098
0.747999 0.230655 0.685330
0.970172 0.126307 0.645281
0.000000 0.400943 0.692530
0.000000 0.400038 0.692282
0.000000 0.397319 0.691546
0.202170 0.392776 0.690340
0.362717 0.386361 0.688687
0.524964 0.374918 0.685880
0.733645 0.350841 0.680523
0.960945 0.283824 0.642466
0.000000 0.521529 0.683202
0.000000 0.520826 0.682986
0.000000 0.518719 0.682343
0.068076 0.515212 0.681289
0.310552 0.510294 0.679841
0.490762 0.501621 0.677372
0.708702 0.483822 0.672626
0.944836 0.428569 0.637667
0.000000 0.686867 0.666720
0.000000 0.686326 0.666551
0.000000 0.684708 0.666047
0.000000 0.682020 0.665218
0.159855 0.678262 0.664075
0.415951 0.671671 0.662113
0.658303 0.658303 0.658303
0.912352 0.609210 0.628426
0.000000 0.873669 0.618713
0.000000 0.873325 0.618640
0.000000 0.872295 0.618418
0.000000 0.870580 0.618052
0.000000 0.868177 0.617544
0.192496 0.863948 0.616659
0.535675 0.855320 0.614899
0.847075 0.837847 0.611511
0.000000 0.000000 0.894660
0.000000 0.000000 0.894469
0.000000 0.000000 0.893896
0.219556 0.000000 0.892952
0.359934 0.000000 0.891645
0.510430 0.000000 0.889390
0.709065 0.000000 0.884964
0.969984 0.000000 0.876645
0.000000 0.000000 0.894068
0.000000 0.000000 0.893878
0.000000 0.000000 0.893309
0.213500 0.000000 0.892371
0.356443 0.000000 0.891073
0.508037 0.000000 0.888834
0.707332 0.000000 0.884435
0.968652 0.000000 0.876165
0.000000 0.162863 0.892312
0.000000 0.160946 0.892126
0.000000 0.155057 0.891569
0.194178 0.144738 0.890650
0.345774 0.128927 0.889378
0.500814 0.095367 0.887181
0.702133 0.000000 0.882865
0.964669 0.000000 0.874740
0.000000 0.273129 0.889452
0.000000 0.272018 0.889272
0.000000 0.268660 0.888733
0.156693 0.262978 0.887844
0.327263 0.254792 0.886613
0.488621 0.239679 0.884486
0.693464 0.205285 0.880301
0.958069 0.104908 0.872407
0.000000 0.370610 0.885562
0.000000 0.369809 0.885390
0.000000 0.367397 0.884875
0.079522 0.363352 0.884025
0.299359 0.357608 0.882848
0.471105 0.347273 0.880812
0.681260 0.325194 0.876800
0.948866 0.275034 0.869211
0.000000 0.489105 0.879025
0.000000 0.488504 0.878865
0.000000 0.486699 0.878389
0.000000 0.483687 0.877601
0.242182 0.479439 0.876509
0.438831 0.471889 0.874618
0.659579 0.456177 0.870883
0.932782 0.422855 0.863785
0.000000 0.652987 0.866747
0.000000 0.652535 0.866609
0.000000 0.651181 0.866196
0.000000 0.648925 0.865514
0.000000 0.645757 0.864566
0.364820 0.640165 0.862922
0.614204 0.628686 0.859661
0.900280 0.605108 0.853415
0.000000 0.870354 0.845224
0.000000 0.870012 0.845117
0.000000 0.868988 0.844797
0.000000 0.867285 0.844268
0.000000 0.864897 0.843531
0.100674 0.860692 0.842248
0.514051 0.852113 0.839687
0.834726 0.834726 0.834726
